(G-CODE GENERATED BY FLATCAM v8.994 - www.flatcam.org - Version Date: 2020/11/7)

(Name: newPCB-B_Cu.gbr_iso_combined_cnc)
(Type: G-code from Geometry)
(Units: MM)

(Created on Friday, 07 July 2023 at 22:31)

(This preprocessor is the default preprocessor used by FlatCAM.)
(It is made to work with MACH3 compatible motion controllers.)

(TOOL DIAMETER: 0.14 mm)
(Feedrate_XY: 60.0 mm/min)
(Feedrate_Z: 20.0 mm/min)
(Feedrate rapids 1500.0 mm/min)

(Z_Cut: -0.0746 mm)
(Z_Move: 1.0 mm)
(Z Start: None mm)
(Z End: 15.0 mm)
(X,Y End: None mm)
(Steps per circle: 64)
(Preprocessor Geometry: default)

(X range:  -38.1575 ...   35.1335  mm)
(Y range:  -24.6975 ...   32.3375  mm)

(Spindle Speed: 1200.0 RPM)
G21
G90
G94

G01 F60.00

M5
G00 Z15.0000
G00 X0.0000 Y0.0000
T1
M6    
(MSG, Change to Tool Dia = 0.1400)
M0
G00 Z15.0000

M03 S1200.0
G01 F60.00
G00 X2.5554 Y0.1179
G01 F20.00
G01 Z-0.0746
G01 F60.00
G01 X2.5486 Y0.1179
G01 X2.4667 Y0.1138
G01 X2.3823 Y0.1013
G01 X2.2995 Y0.0805
G01 X2.2191 Y0.0518
G01 X2.1419 Y0.0153
G01 X2.0687 Y-0.0286
G01 X2.0001 Y-0.0795
G01 X1.9368 Y-0.1368
G01 X1.8795 Y-0.2001
G01 X1.8286 Y-0.2687
G01 X1.7847 Y-0.3419
G01 X1.7482 Y-0.4191
G01 X1.7195 Y-0.4995
G01 X1.6987 Y-0.5823
G01 X1.6862 Y-0.6667
G01 X1.6820 Y-0.7520
G01 X1.6862 Y-0.8373
G01 X1.6987 Y-0.9217
G01 X1.7195 Y-1.0045
G01 X1.7482 Y-1.0849
G01 X1.7847 Y-1.1621
G01 X1.8286 Y-1.2353
G01 X1.8795 Y-1.3039
G01 X1.9368 Y-1.3672
G01 X2.0001 Y-1.4245
G01 X2.0687 Y-1.4754
G01 X2.1419 Y-1.5193
G01 X2.2191 Y-1.5558
G01 X2.2995 Y-1.5845
G01 X2.3823 Y-1.6053
G01 X2.4667 Y-1.6178
G01 X2.5520 Y-1.6220
G01 X2.6373 Y-1.6178
G01 X2.7217 Y-1.6053
G01 X2.8045 Y-1.5845
G01 X2.8849 Y-1.5558
G01 X2.9621 Y-1.5193
G01 X3.0353 Y-1.4754
G01 X3.1039 Y-1.4245
G01 X3.1672 Y-1.3672
G01 X3.2245 Y-1.3039
G01 X3.2754 Y-1.2353
G01 X3.3193 Y-1.1621
G01 X3.3558 Y-1.0849
G01 X3.3845 Y-1.0045
G01 X3.4053 Y-0.9217
G01 X3.4178 Y-0.8373
G01 X3.4220 Y-0.7520
G01 X3.4178 Y-0.6667
G01 X3.4053 Y-0.5823
G01 X3.3845 Y-0.4995
G01 X3.3558 Y-0.4191
G01 X3.3193 Y-0.3419
G01 X3.2754 Y-0.2687
G01 X3.2245 Y-0.2001
G01 X3.1672 Y-0.1368
G01 X3.1039 Y-0.0795
G01 X3.0353 Y-0.0286
G01 X2.9621 Y0.0153
G01 X2.8849 Y0.0518
G01 X2.8045 Y0.0805
G01 X2.7217 Y0.1013
G01 X2.6373 Y0.1138
G01 X2.5554 Y0.1179
G00 Z1.0000
G00 X7.6354 Y0.1179
G01 F20.00
G01 Z-0.0746
G01 F60.00
G01 X7.6286 Y0.1179
G01 X7.5467 Y0.1138
G01 X7.4623 Y0.1013
G01 X7.3795 Y0.0805
G01 X7.2991 Y0.0518
G01 X7.2219 Y0.0153
G01 X7.1487 Y-0.0286
G01 X7.0801 Y-0.0795
G01 X7.0168 Y-0.1368
G01 X6.9595 Y-0.2001
G01 X6.9086 Y-0.2687
G01 X6.8647 Y-0.3419
G01 X6.8282 Y-0.4191
G01 X6.7995 Y-0.4995
G01 X6.7787 Y-0.5823
G01 X6.7662 Y-0.6667
G01 X6.7620 Y-0.7520
G01 X6.7662 Y-0.8373
G01 X6.7787 Y-0.9217
G01 X6.7995 Y-1.0045
G01 X6.8282 Y-1.0849
G01 X6.8647 Y-1.1621
G01 X6.9086 Y-1.2353
G01 X6.9595 Y-1.3039
G01 X7.0168 Y-1.3672
G01 X7.0801 Y-1.4245
G01 X7.1487 Y-1.4754
G01 X7.2219 Y-1.5193
G01 X7.2991 Y-1.5558
G01 X7.3795 Y-1.5845
G01 X7.4623 Y-1.6053
G01 X7.5467 Y-1.6178
G01 X7.6320 Y-1.6220
G01 X7.7173 Y-1.6178
G01 X7.8017 Y-1.6053
G01 X7.8845 Y-1.5845
G01 X7.9649 Y-1.5558
G01 X8.0421 Y-1.5193
G01 X8.1153 Y-1.4754
G01 X8.1839 Y-1.4245
G01 X8.2472 Y-1.3672
G01 X8.3045 Y-1.3039
G01 X8.3554 Y-1.2353
G01 X8.3993 Y-1.1621
G01 X8.4358 Y-1.0849
G01 X8.4645 Y-1.0045
G01 X8.4853 Y-0.9217
G01 X8.4978 Y-0.8373
G01 X8.5020 Y-0.7520
G01 X8.4978 Y-0.6667
G01 X8.4853 Y-0.5823
G01 X8.4645 Y-0.4995
G01 X8.4358 Y-0.4191
G01 X8.3993 Y-0.3419
G01 X8.3554 Y-0.2687
G01 X8.3045 Y-0.2001
G01 X8.2472 Y-0.1368
G01 X8.1839 Y-0.0795
G01 X8.1153 Y-0.0286
G01 X8.0421 Y0.0153
G01 X7.9649 Y0.0518
G01 X7.8845 Y0.0805
G01 X7.8017 Y0.1013
G01 X7.7173 Y0.1138
G01 X7.6354 Y0.1179
G00 Z1.0000
G00 X7.6354 Y7.7379
G01 F20.00
G01 Z-0.0746
G01 F60.00
G01 X7.6286 Y7.7379
G01 X7.5467 Y7.7338
G01 X7.4623 Y7.7213
G01 X7.3795 Y7.7005
G01 X7.2991 Y7.6718
G01 X7.2219 Y7.6353
G01 X7.1487 Y7.5914
G01 X7.0801 Y7.5405
G01 X7.0168 Y7.4832
G01 X6.9595 Y7.4199
G01 X6.9086 Y7.3513
G01 X6.8647 Y7.2781
G01 X6.8282 Y7.2009
G01 X6.7995 Y7.1205
G01 X6.7787 Y7.0377
G01 X6.7662 Y6.9533
G01 X6.7620 Y6.8680
G01 X6.7662 Y6.7827
G01 X6.7787 Y6.6983
G01 X6.7995 Y6.6155
G01 X6.8282 Y6.5351
G01 X6.8647 Y6.4579
G01 X6.9086 Y6.3847
G01 X6.9595 Y6.3161
G01 X7.0168 Y6.2528
G01 X7.0801 Y6.1955
G01 X7.1487 Y6.1446
G01 X7.2219 Y6.1007
G01 X7.2991 Y6.0642
G01 X7.3795 Y6.0355
G01 X7.4623 Y6.0147
G01 X7.5467 Y6.0022
G01 X7.6320 Y5.9980
G01 X7.7173 Y6.0022
G01 X7.8017 Y6.0147
G01 X7.8845 Y6.0355
G01 X7.9649 Y6.0642
G01 X8.0421 Y6.1007
G01 X8.1153 Y6.1446
G01 X8.1839 Y6.1955
G01 X8.2472 Y6.2528
G01 X8.3045 Y6.3161
G01 X8.3554 Y6.3847
G01 X8.3993 Y6.4579
G01 X8.4358 Y6.5351
G01 X8.4645 Y6.6155
G01 X8.4853 Y6.6983
G01 X8.4978 Y6.7827
G01 X8.5020 Y6.8680
G01 X8.4978 Y6.9533
G01 X8.4853 Y7.0377
G01 X8.4645 Y7.1205
G01 X8.4358 Y7.2009
G01 X8.3993 Y7.2781
G01 X8.3554 Y7.3513
G01 X8.3045 Y7.4199
G01 X8.2472 Y7.4832
G01 X8.1839 Y7.5405
G01 X8.1153 Y7.5914
G01 X8.0421 Y7.6353
G01 X7.9649 Y7.6718
G01 X7.8845 Y7.7005
G01 X7.8017 Y7.7213
G01 X7.7173 Y7.7338
G01 X7.6354 Y7.7379
G00 Z1.0000
G00 X4.5217 Y7.5240
G01 F20.00
G01 Z-0.0746
G01 F60.00
G01 X4.4768 Y7.4832
G01 X4.4195 Y7.4199
G01 X4.3686 Y7.3513
G01 X4.3256 Y7.2796
G01 X4.2882 Y7.2009
G01 X4.2605 Y7.1238
G01 X4.2585 Y7.1172
G01 X4.2384 Y7.0360
G01 X4.2262 Y6.9533
G01 X4.2220 Y6.8680
G01 X4.2262 Y6.7827
G01 X4.2381 Y6.7017
G01 X4.2395 Y6.6949
G01 X4.2585 Y6.6188
G01 X4.2605 Y6.6122
G01 X4.2882 Y6.5351
G01 X4.3239 Y6.4594
G01 X4.3668 Y6.3876
G01 X4.3706 Y6.3818
G01 X4.4195 Y6.3161
G01 X4.4768 Y6.2528
G01 X4.5401 Y6.1955
G01 X4.6058 Y6.1466
G01 X4.6116 Y6.1428
G01 X4.6789 Y6.1024
G01 X4.6850 Y6.0992
G01 X4.7591 Y6.0642
G01 X4.8395 Y6.0355
G01 X4.9223 Y6.0147
G01 X5.0033 Y6.0026
G01 X5.0102 Y6.0019
G01 X5.0886 Y5.9981
G01 X5.0954 Y5.9981
G01 X5.1773 Y6.0022
G01 X5.2600 Y6.0144
G01 X5.3445 Y6.0355
G01 X5.4217 Y6.0630
G01 X5.4281 Y6.0656
G01 X5.5021 Y6.1007
G01 X5.5724 Y6.1428
G01 X5.5782 Y6.1466
G01 X5.6439 Y6.1955
G01 X5.7072 Y6.2528
G01 X5.7623 Y6.3135
G01 X5.7666 Y6.3188
G01 X5.8154 Y6.3847
G01 X5.8576 Y6.4549
G01 X5.8608 Y6.4610
G01 X5.8944 Y6.5319
G01 X5.8970 Y6.5383
G01 X5.9235 Y6.6122
G01 X5.9255 Y6.6188
G01 X5.9453 Y6.6983
G01 X5.9578 Y6.7827
G01 X5.9619 Y6.8646
G01 X5.9619 Y6.8714
G01 X5.9578 Y6.9533
G01 X5.9453 Y7.0377
G01 X5.9245 Y7.1205
G01 X5.8970 Y7.1977
G01 X5.8944 Y7.2041
G01 X5.8584 Y7.2796
G01 X5.8154 Y7.3513
G01 X5.7645 Y7.4199
G01 X5.7072 Y7.4832
G01 X5.6623 Y7.5240
G01 X5.6623 Y7.6478
G01 X6.3442 Y8.3297
G01 X8.9198 Y8.3297
G01 X12.8708 Y4.3788
G01 X12.9122 Y4.3412
G01 X12.9544 Y4.3098
G01 X12.9601 Y4.3060
G01 X13.0022 Y4.2808
G01 X13.0083 Y4.2775
G01 X13.0558 Y4.2552
G01 X13.1052 Y4.2374
G01 X13.1118 Y4.2354
G01 X13.1594 Y4.2235
G01 X13.1661 Y4.2221
G01 X13.2181 Y4.2145
G01 X13.2723 Y4.2118
G01 X15.2670 Y4.2117
G01 X15.3078 Y4.1668
G01 X15.3685 Y4.1117
G01 X15.3738 Y4.1074
G01 X15.4382 Y4.0596
G01 X15.5129 Y4.0147
G01 X15.5917 Y3.9776
G01 X15.6672 Y3.9505
G01 X15.6738 Y3.9485
G01 X15.7533 Y3.9287
G01 X15.8343 Y3.9166
G01 X15.8412 Y3.9159
G01 X15.9230 Y3.9120
G01 X16.0083 Y3.9162
G01 X16.0893 Y3.9281
G01 X16.0961 Y3.9295
G01 X16.1755 Y3.9495
G01 X16.2559 Y3.9782
G01 X16.3331 Y4.0147
G01 X16.4034 Y4.0568
G01 X16.4092 Y4.0606
G01 X16.4722 Y4.1074
G01 X16.4775 Y4.1117
G01 X16.5382 Y4.1668
G01 X16.5933 Y4.2275
G01 X16.5976 Y4.2328
G01 X16.6444 Y4.2958
G01 X16.6482 Y4.3016
G01 X16.6903 Y4.3719
G01 X16.7268 Y4.4491
G01 X16.7555 Y4.5295
G01 X16.7755 Y4.6089
G01 X16.7769 Y4.6157
G01 X16.7888 Y4.6967
G01 X16.7930 Y4.7820
G01 X16.7888 Y4.8673
G01 X16.7763 Y4.9517
G01 X16.7555 Y5.0345
G01 X16.7268 Y5.1149
G01 X16.6903 Y5.1921
G01 X16.6464 Y5.2653
G01 X16.5955 Y5.3339
G01 X16.5382 Y5.3972
G01 X16.4749 Y5.4545
G01 X16.4063 Y5.5054
G01 X16.3331 Y5.5493
G01 X16.2559 Y5.5858
G01 X16.1755 Y5.6145
G01 X16.0944 Y5.6349
G01 X16.0083 Y5.6478
G01 X15.9264 Y5.6519
G01 X15.9196 Y5.6519
G01 X15.8377 Y5.6478
G01 X15.7567 Y5.6359
G01 X15.7499 Y5.6345
G01 X15.6688 Y5.6140
G01 X15.5901 Y5.5858
G01 X15.5160 Y5.5508
G01 X15.5099 Y5.5476
G01 X15.4397 Y5.5054
G01 X15.3738 Y5.4566
G01 X15.3685 Y5.4523
G01 X15.3078 Y5.3972
G01 X15.2670 Y5.3523
G01 X13.5102 Y5.3523
G01 X9.5580 Y9.3044
G01 X9.5178 Y9.3408
G01 X9.4756 Y9.3722
G01 X9.4699 Y9.3760
G01 X9.4248 Y9.4029
G01 X9.3774 Y9.4255
G01 X9.3710 Y9.4281
G01 X9.3215 Y9.4457
G01 X9.2706 Y9.4585
G01 X9.2639 Y9.4599
G01 X9.2119 Y9.4675
G01 X9.1560 Y9.4703
G01 X6.1080 Y9.4703
G01 X6.0521 Y9.4675
G01 X5.9967 Y9.4593
G01 X5.9425 Y9.4457
G01 X5.8898 Y9.4268
G01 X5.8392 Y9.4029
G01 X5.7912 Y9.3741
G01 X5.7462 Y9.3408
G01 X5.7060 Y9.3044
G01 X4.6888 Y8.2872
G01 X4.6512 Y8.2458
G01 X4.6188 Y8.2022
G01 X4.5891 Y8.1528
G01 X4.5665 Y8.1054
G01 X4.5639 Y8.0990
G01 X4.5474 Y8.0528
G01 X4.5454 Y8.0462
G01 X4.5327 Y7.9953
G01 X4.5249 Y7.9433
G01 X4.5242 Y7.9365
G01 X4.5217 Y7.8840
G01 X4.5217 Y7.5240
G00 Z1.0000
G00 X1.9817 Y7.5240
G01 F20.00
G01 Z-0.0746
G01 F60.00
G01 X1.9368 Y7.4832
G01 X1.8795 Y7.4199
G01 X1.8286 Y7.3513
G01 X1.7856 Y7.2796
G01 X1.7482 Y7.2009
G01 X1.7205 Y7.1238
G01 X1.7185 Y7.1172
G01 X1.6984 Y7.0360
G01 X1.6862 Y6.9533
G01 X1.6820 Y6.8680
G01 X1.6862 Y6.7827
G01 X1.6981 Y6.7017
G01 X1.6995 Y6.6949
G01 X1.7185 Y6.6188
G01 X1.7205 Y6.6122
G01 X1.7482 Y6.5351
G01 X1.7856 Y6.4564
G01 X1.8286 Y6.3847
G01 X1.8795 Y6.3161
G01 X1.9368 Y6.2528
G01 X1.9975 Y6.1977
G01 X2.0028 Y6.1934
G01 X2.0658 Y6.1466
G01 X2.0716 Y6.1428
G01 X2.1419 Y6.1007
G01 X2.2191 Y6.0642
G01 X2.2995 Y6.0355
G01 X2.3789 Y6.0155
G01 X2.3857 Y6.0141
G01 X2.4633 Y6.0026
G01 X2.4702 Y6.0019
G01 X2.5520 Y5.9980
G01 X2.6373 Y6.0022
G01 X2.7217 Y6.0147
G01 X2.8029 Y6.0350
G01 X2.8817 Y6.0630
G01 X2.8881 Y6.0656
G01 X2.9621 Y6.1007
G01 X3.0324 Y6.1428
G01 X3.0382 Y6.1466
G01 X3.1039 Y6.1955
G01 X3.1647 Y6.2504
G01 X3.1696 Y6.2553
G01 X3.2245 Y6.3161
G01 X3.2734 Y6.3818
G01 X3.2772 Y6.3876
G01 X3.3193 Y6.4579
G01 X3.3558 Y6.5351
G01 X3.3835 Y6.6122
G01 X3.3855 Y6.6188
G01 X3.4056 Y6.7000
G01 X3.4178 Y6.7827
G01 X3.4219 Y6.8646
G01 X3.4219 Y6.8714
G01 X3.4178 Y6.9533
G01 X3.4059 Y7.0343
G01 X3.4045 Y7.0411
G01 X3.3850 Y7.1189
G01 X3.3570 Y7.1977
G01 X3.3544 Y7.2041
G01 X3.3193 Y7.2781
G01 X3.2763 Y7.3499
G01 X3.2266 Y7.4172
G01 X3.2223 Y7.4225
G01 X3.1672 Y7.4832
G01 X3.1223 Y7.5240
G01 X3.1223 Y7.7632
G01 X5.2128 Y9.8537
G01 X10.4438 Y9.8537
G01 X13.3788 Y6.9188
G01 X13.4202 Y6.8812
G01 X13.4652 Y6.8479
G01 X13.5132 Y6.8191
G01 X13.5654 Y6.7945
G01 X13.6165 Y6.7763
G01 X13.6707 Y6.7627
G01 X13.7261 Y6.7545
G01 X13.7803 Y6.7518
G01 X15.2670 Y6.7517
G01 X15.3078 Y6.7068
G01 X15.3685 Y6.6517
G01 X15.3738 Y6.6474
G01 X15.4397 Y6.5986
G01 X15.5099 Y6.5564
G01 X15.5160 Y6.5532
G01 X15.5901 Y6.5182
G01 X15.6688 Y6.4900
G01 X15.7533 Y6.4687
G01 X15.8343 Y6.4566
G01 X15.8412 Y6.4559
G01 X15.9230 Y6.4520
G01 X16.0048 Y6.4559
G01 X16.0117 Y6.4566
G01 X16.0910 Y6.4684
G01 X16.1755 Y6.4895
G01 X16.2527 Y6.5170
G01 X16.2591 Y6.5196
G01 X16.3300 Y6.5532
G01 X16.3361 Y6.5564
G01 X16.4063 Y6.5986
G01 X16.4749 Y6.6495
G01 X16.5382 Y6.7068
G01 X16.5955 Y6.7701
G01 X16.6464 Y6.8387
G01 X16.6886 Y6.9089
G01 X16.6918 Y6.9150
G01 X16.7254 Y6.9859
G01 X16.7280 Y6.9923
G01 X16.7555 Y7.0695
G01 X16.7763 Y7.1523
G01 X16.7888 Y7.2367
G01 X16.7930 Y7.3203
G01 X16.7888 Y7.4073
G01 X16.7769 Y7.4883
G01 X16.7755 Y7.4951
G01 X16.7565 Y7.5712
G01 X16.7545 Y7.5778
G01 X16.7268 Y7.6549
G01 X16.6903 Y7.7321
G01 X16.6464 Y7.8053
G01 X16.5955 Y7.8739
G01 X16.5382 Y7.9372
G01 X16.4775 Y7.9923
G01 X16.4722 Y7.9966
G01 X16.4092 Y8.0434
G01 X16.4034 Y8.0472
G01 X16.3331 Y8.0893
G01 X16.2559 Y8.1258
G01 X16.1755 Y8.1545
G01 X16.0927 Y8.1753
G01 X16.0117 Y8.1874
G01 X16.0048 Y8.1881
G01 X15.9230 Y8.1920
G01 X15.8412 Y8.1881
G01 X15.8343 Y8.1874
G01 X15.7533 Y8.1753
G01 X15.6688 Y8.1540
G01 X15.5901 Y8.1258
G01 X15.5160 Y8.0908
G01 X15.5099 Y8.0876
G01 X15.4397 Y8.0454
G01 X15.3738 Y7.9966
G01 X15.3685 Y7.9923
G01 X15.3078 Y7.9372
G01 X15.2670 Y7.8923
G01 X14.0182 Y7.8923
G01 X11.0820 Y10.8284
G01 X11.0418 Y10.8648
G01 X10.9968 Y10.8981
G01 X10.9488 Y10.9269
G01 X10.8982 Y10.9508
G01 X10.8455 Y10.9697
G01 X10.7913 Y10.9833
G01 X10.7359 Y10.9915
G01 X10.6817 Y10.9942
G01 X4.9766 Y10.9943
G01 X4.9207 Y10.9915
G01 X4.8654 Y10.9833
G01 X4.8111 Y10.9697
G01 X4.7600 Y10.9515
G01 X4.7078 Y10.9269
G01 X4.6598 Y10.8981
G01 X4.6149 Y10.8648
G01 X4.5734 Y10.8272
G01 X2.1488 Y8.4026
G01 X2.1112 Y8.3611
G01 X2.0798 Y8.3190
G01 X2.0760 Y8.3133
G01 X2.0491 Y8.2682
G01 X2.0265 Y8.2207
G01 X2.0239 Y8.2144
G01 X2.0063 Y8.1649
G01 X1.9935 Y8.1140
G01 X1.9921 Y8.1072
G01 X1.9845 Y8.0553
G01 X1.9818 Y8.0011
G01 X1.9817 Y7.5240
G00 Z1.0000
G00 X-5.0646 Y7.7379
G01 F20.00
G01 Z-0.0746
G01 F60.00
G01 X-5.0714 Y7.7379
G01 X-5.1533 Y7.7338
G01 X-5.2377 Y7.7213
G01 X-5.3205 Y7.7005
G01 X-5.4009 Y7.6718
G01 X-5.4781 Y7.6353
G01 X-5.5513 Y7.5914
G01 X-5.6199 Y7.5405
G01 X-5.6832 Y7.4832
G01 X-5.7405 Y7.4199
G01 X-5.7914 Y7.3513
G01 X-5.8353 Y7.2781
G01 X-5.8718 Y7.2009
G01 X-5.9005 Y7.1205
G01 X-5.9213 Y7.0377
G01 X-5.9338 Y6.9533
G01 X-5.9380 Y6.8680
G01 X-5.9338 Y6.7827
G01 X-5.9213 Y6.6983
G01 X-5.9005 Y6.6155
G01 X-5.8718 Y6.5351
G01 X-5.8353 Y6.4579
G01 X-5.7914 Y6.3847
G01 X-5.7405 Y6.3161
G01 X-5.6832 Y6.2528
G01 X-5.6199 Y6.1955
G01 X-5.5513 Y6.1446
G01 X-5.4781 Y6.1007
G01 X-5.4009 Y6.0642
G01 X-5.3205 Y6.0355
G01 X-5.2377 Y6.0147
G01 X-5.1533 Y6.0022
G01 X-5.0680 Y5.9980
G01 X-4.9827 Y6.0022
G01 X-4.8983 Y6.0147
G01 X-4.8155 Y6.0355
G01 X-4.7351 Y6.0642
G01 X-4.6579 Y6.1007
G01 X-4.5847 Y6.1446
G01 X-4.5161 Y6.1955
G01 X-4.4528 Y6.2528
G01 X-4.3955 Y6.3161
G01 X-4.3446 Y6.3847
G01 X-4.3007 Y6.4579
G01 X-4.2642 Y6.5351
G01 X-4.2355 Y6.6155
G01 X-4.2147 Y6.6983
G01 X-4.2022 Y6.7827
G01 X-4.1980 Y6.8680
G01 X-4.2022 Y6.9533
G01 X-4.2147 Y7.0377
G01 X-4.2355 Y7.1205
G01 X-4.2642 Y7.2009
G01 X-4.3007 Y7.2781
G01 X-4.3446 Y7.3513
G01 X-4.3955 Y7.4199
G01 X-4.4528 Y7.4832
G01 X-4.5161 Y7.5405
G01 X-4.5847 Y7.5914
G01 X-4.6579 Y7.6353
G01 X-4.7351 Y7.6718
G01 X-4.8155 Y7.7005
G01 X-4.8983 Y7.7213
G01 X-4.9827 Y7.7338
G01 X-5.0646 Y7.7379
G00 Z1.0000
G00 X-8.4080 Y7.7380
G01 F20.00
G01 Z-0.0746
G01 F60.00
G01 X-8.4149 Y7.7377
G01 X-8.4217 Y7.7367
G01 X-8.4283 Y7.7350
G01 X-8.4348 Y7.7327
G01 X-8.4410 Y7.7297
G01 X-8.4469 Y7.7262
G01 X-8.4524 Y7.7221
G01 X-8.4563 Y7.7187
G01 X-8.4610 Y7.7137
G01 X-8.4652 Y7.7083
G01 X-8.4689 Y7.7025
G01 X-8.4713 Y7.6979
G01 X-8.4739 Y7.6916
G01 X-8.4759 Y7.6850
G01 X-8.4772 Y7.6783
G01 X-8.4779 Y7.6714
G01 X-8.4780 Y6.0680
G01 X-8.4777 Y6.0611
G01 X-8.4763 Y6.0527
G01 X-8.4745 Y6.0460
G01 X-8.4720 Y6.0396
G01 X-8.4680 Y6.0320
G01 X-8.4632 Y6.0249
G01 X-8.4575 Y6.0185
G01 X-8.4511 Y6.0128
G01 X-8.4440 Y6.0080
G01 X-8.4364 Y6.0040
G01 X-8.4267 Y6.0005
G01 X-8.4183 Y5.9988
G01 X-8.4080 Y5.9980
G01 X-8.1783 Y5.9980
G01 X-8.1782 Y5.8503
G01 X-8.1757 Y5.7978
G01 X-8.1673 Y5.7407
G01 X-8.1546 Y5.6898
G01 X-8.1526 Y5.6832
G01 X-8.1348 Y5.6338
G01 X-8.1109 Y5.5832
G01 X-8.0821 Y5.5352
G01 X-8.0499 Y5.4916
G01 X-8.0112 Y5.4488
G01 X-6.9952 Y4.4328
G01 X-6.9538 Y4.3952
G01 X-6.9116 Y4.3638
G01 X-6.9059 Y4.3600
G01 X-6.8638 Y4.3348
G01 X-6.8577 Y4.3315
G01 X-6.8102 Y4.3092
G01 X-6.7575 Y4.2903
G01 X-6.7066 Y4.2775
G01 X-6.6999 Y4.2761
G01 X-6.6479 Y4.2685
G01 X-6.5937 Y4.2658
G01 X-2.7642 Y4.2657
G01 X-0.5583 Y2.0598
G01 X-0.5583 Y-0.0960
G01 X-0.6032 Y-0.1368
G01 X-0.6583 Y-0.1975
G01 X-0.6626 Y-0.2028
G01 X-0.7094 Y-0.2658
G01 X-0.7132 Y-0.2716
G01 X-0.7553 Y-0.3419
G01 X-0.7911 Y-0.4175
G01 X-0.8205 Y-0.4995
G01 X-0.8413 Y-0.5823
G01 X-0.8538 Y-0.6667
G01 X-0.8580 Y-0.7537
G01 X-0.8541 Y-0.8338
G01 X-0.8534 Y-0.8407
G01 X-0.8413 Y-0.9217
G01 X-0.8215 Y-1.0012
G01 X-0.8195 Y-1.0078
G01 X-0.7918 Y-1.0849
G01 X-0.7553 Y-1.1621
G01 X-0.7132 Y-1.2324
G01 X-0.7094 Y-1.2382
G01 X-0.6605 Y-1.3039
G01 X-0.6056 Y-1.3647
G01 X-0.6007 Y-1.3696
G01 X-0.5399 Y-1.4245
G01 X-0.4699 Y-1.4763
G01 X-0.4011 Y-1.5176
G01 X-0.3950 Y-1.5208
G01 X-0.3209 Y-1.5558
G01 X-0.2438 Y-1.5835
G01 X-0.2372 Y-1.5855
G01 X-0.1577 Y-1.6053
G01 X-0.0733 Y-1.6178
G01 X0.0120 Y-1.6220
G01 X0.0938 Y-1.6181
G01 X0.1007 Y-1.6174
G01 X0.1783 Y-1.6059
G01 X0.1851 Y-1.6045
G01 X0.2645 Y-1.5845
G01 X0.3417 Y-1.5570
G01 X0.3481 Y-1.5544
G01 X0.4221 Y-1.5193
G01 X0.4953 Y-1.4754
G01 X0.5639 Y-1.4245
G01 X0.6247 Y-1.3696
G01 X0.6296 Y-1.3647
G01 X0.6845 Y-1.3039
G01 X0.7334 Y-1.2382
G01 X0.7372 Y-1.2324
G01 X0.7776 Y-1.1651
G01 X0.7808 Y-1.1590
G01 X0.8158 Y-1.0849
G01 X0.8440 Y-1.0062
G01 X0.8645 Y-0.9251
G01 X0.8659 Y-0.9183
G01 X0.8778 Y-0.8373
G01 X0.8820 Y-0.7520
G01 X0.8781 Y-0.6702
G01 X0.8774 Y-0.6633
G01 X0.8653 Y-0.5823
G01 X0.8450 Y-0.5011
G01 X0.8170 Y-0.4223
G01 X0.8144 Y-0.4159
G01 X0.7793 Y-0.3419
G01 X0.7363 Y-0.2701
G01 X0.6866 Y-0.2028
G01 X0.6823 Y-0.1975
G01 X0.6272 Y-0.1368
G01 X0.5823 Y-0.0960
G01 X0.5823 Y1.7257
G01 X2.8238 Y1.7257
G01 X4.5217 Y0.0278
G01 X4.5217 Y-0.0960
G01 X4.4768 Y-0.1368
G01 X4.4217 Y-0.1975
G01 X4.4174 Y-0.2028
G01 X4.3696 Y-0.2672
G01 X4.3247 Y-0.3419
G01 X4.2876 Y-0.4207
G01 X4.2595 Y-0.4995
G01 X4.2387 Y-0.5823
G01 X4.2262 Y-0.6667
G01 X4.2220 Y-0.7503
G01 X4.2262 Y-0.8373
G01 X4.2387 Y-0.9217
G01 X4.2595 Y-1.0045
G01 X4.2882 Y-1.0849
G01 X4.3247 Y-1.1621
G01 X4.3686 Y-1.2353
G01 X4.4195 Y-1.3039
G01 X4.4768 Y-1.3672
G01 X4.5401 Y-1.4245
G01 X4.6058 Y-1.4734
G01 X4.6116 Y-1.4772
G01 X4.6789 Y-1.5176
G01 X4.6850 Y-1.5208
G01 X4.7591 Y-1.5558
G01 X4.8362 Y-1.5835
G01 X4.8428 Y-1.5855
G01 X4.9223 Y-1.6053
G01 X5.0067 Y-1.6178
G01 X5.0920 Y-1.6220
G01 X5.1773 Y-1.6178
G01 X5.2617 Y-1.6053
G01 X5.3412 Y-1.5855
G01 X5.3478 Y-1.5835
G01 X5.4249 Y-1.5558
G01 X5.4990 Y-1.5208
G01 X5.5051 Y-1.5176
G01 X5.5724 Y-1.4772
G01 X5.5782 Y-1.4734
G01 X5.6439 Y-1.4245
G01 X5.7072 Y-1.3672
G01 X5.7645 Y-1.3039
G01 X5.8163 Y-1.2339
G01 X5.8593 Y-1.1621
G01 X5.8958 Y-1.0849
G01 X5.9245 Y-1.0045
G01 X5.9445 Y-0.9251
G01 X5.9459 Y-0.9183
G01 X5.9578 Y-0.8373
G01 X5.9619 Y-0.7554
G01 X5.9619 Y-0.7486
G01 X5.9581 Y-0.6702
G01 X5.9574 Y-0.6633
G01 X5.9453 Y-0.5823
G01 X5.9245 Y-0.4995
G01 X5.8958 Y-0.4191
G01 X5.8593 Y-0.3419
G01 X5.8154 Y-0.2687
G01 X5.7645 Y-0.2001
G01 X5.7072 Y-0.1368
G01 X5.6623 Y-0.0960
G01 X5.6623 Y0.2640
G01 X5.6598 Y0.3165
G01 X5.6591 Y0.3233
G01 X5.6513 Y0.3753
G01 X5.6386 Y0.4262
G01 X5.6366 Y0.4328
G01 X5.6201 Y0.4790
G01 X5.6175 Y0.4854
G01 X5.5949 Y0.5328
G01 X5.5680 Y0.5779
G01 X5.5642 Y0.5836
G01 X5.5328 Y0.6258
G01 X5.4952 Y0.6672
G01 X3.4632 Y2.6992
G01 X3.4218 Y2.7368
G01 X3.3768 Y2.7701
G01 X3.3318 Y2.7972
G01 X3.3257 Y2.8005
G01 X3.2814 Y2.8215
G01 X3.2750 Y2.8241
G01 X3.2255 Y2.8417
G01 X3.1713 Y2.8553
G01 X3.1159 Y2.8635
G01 X3.0634 Y2.8662
G01 X0.2482 Y2.8663
G01 X-1.9577 Y5.0722
G01 X-1.9577 Y6.2120
G01 X-1.9128 Y6.2528
G01 X-1.8577 Y6.3135
G01 X-1.8534 Y6.3188
G01 X-1.8066 Y6.3818
G01 X-1.8028 Y6.3876
G01 X-1.7607 Y6.4579
G01 X-1.7249 Y6.5335
G01 X-1.6955 Y6.6155
G01 X-1.6747 Y6.6983
G01 X-1.6622 Y6.7827
G01 X-1.6580 Y6.8697
G01 X-1.6619 Y6.9498
G01 X-1.6626 Y6.9567
G01 X-1.6747 Y7.0377
G01 X-1.6945 Y7.1172
G01 X-1.6965 Y7.1238
G01 X-1.7242 Y7.2009
G01 X-1.7607 Y7.2781
G01 X-1.8028 Y7.3484
G01 X-1.8066 Y7.3542
G01 X-1.8555 Y7.4199
G01 X-1.9104 Y7.4807
G01 X-1.9153 Y7.4856
G01 X-1.9761 Y7.5405
G01 X-2.0461 Y7.5923
G01 X-2.1179 Y7.6353
G01 X-2.1951 Y7.6718
G01 X-2.2755 Y7.7005
G01 X-2.3549 Y7.7205
G01 X-2.3617 Y7.7219
G01 X-2.4427 Y7.7338
G01 X-2.5246 Y7.7379
G01 X-2.5314 Y7.7379
G01 X-2.6133 Y7.7338
G01 X-2.6943 Y7.7219
G01 X-2.7011 Y7.7205
G01 X-2.7772 Y7.7015
G01 X-2.7838 Y7.6995
G01 X-2.8609 Y7.6718
G01 X-2.9381 Y7.6353
G01 X-3.0113 Y7.5914
G01 X-3.0799 Y7.5405
G01 X-3.1432 Y7.4832
G01 X-3.2005 Y7.4199
G01 X-3.2514 Y7.3513
G01 X-3.2936 Y7.2811
G01 X-3.2968 Y7.2750
G01 X-3.3318 Y7.2009
G01 X-3.3595 Y7.1238
G01 X-3.3615 Y7.1172
G01 X-3.3813 Y7.0377
G01 X-3.3938 Y6.9533
G01 X-3.3979 Y6.8714
G01 X-3.3979 Y6.8646
G01 X-3.3938 Y6.7827
G01 X-3.3813 Y6.6983
G01 X-3.3605 Y6.6155
G01 X-3.3318 Y6.5351
G01 X-3.2961 Y6.4594
G01 X-3.2514 Y6.3847
G01 X-3.2016 Y6.3174
G01 X-3.1432 Y6.2528
G01 X-3.0983 Y6.2120
G01 X-3.0983 Y5.4063
G01 X-6.3558 Y5.4063
G01 X-6.9475 Y5.9980
G01 X-6.8063 Y5.9980
G01 X-6.7960 Y5.9990
G01 X-6.7877 Y6.0010
G01 X-6.7781 Y6.0047
G01 X-6.7691 Y6.0098
G01 X-6.7610 Y6.0161
G01 X-6.7539 Y6.0236
G01 X-6.7489 Y6.0305
G01 X-6.7440 Y6.0396
G01 X-6.7405 Y6.0493
G01 X-6.7385 Y6.0594
G01 X-6.7380 Y6.0680
G01 X-6.7380 Y7.6680
G01 X-6.7383 Y7.6749
G01 X-6.7393 Y7.6817
G01 X-6.7410 Y7.6883
G01 X-6.7427 Y7.6932
G01 X-6.7455 Y7.6995
G01 X-6.7480 Y7.7040
G01 X-6.7518 Y7.7097
G01 X-6.7550 Y7.7137
G01 X-6.7610 Y7.7199
G01 X-6.7663 Y7.7242
G01 X-6.7720 Y7.7280
G01 X-6.7781 Y7.7313
G01 X-6.7844 Y7.7339
G01 X-6.7927 Y7.7363
G01 X-6.7994 Y7.7375
G01 X-6.8063 Y7.7380
G01 X-8.4080 Y7.7380
G00 Z1.0000
G00 X-8.2208 Y4.7312
G01 F20.00
G01 Z-0.0746
G01 F60.00
G01 X-8.2622 Y4.7688
G01 X-8.3044 Y4.8002
G01 X-8.3101 Y4.8040
G01 X-8.3522 Y4.8292
G01 X-8.3583 Y4.8325
G01 X-8.4058 Y4.8548
G01 X-8.4585 Y4.8737
G01 X-8.5127 Y4.8873
G01 X-8.5681 Y4.8955
G01 X-8.6240 Y4.8983
G01 X-8.6799 Y4.8955
G01 X-8.7353 Y4.8873
G01 X-8.7862 Y4.8746
G01 X-8.7928 Y4.8726
G01 X-8.8422 Y4.8548
G01 X-8.8897 Y4.8325
G01 X-8.8958 Y4.8292
G01 X-8.9379 Y4.8040
G01 X-8.9436 Y4.8002
G01 X-8.9858 Y4.7688
G01 X-9.0272 Y4.7312
G01 X-9.0648 Y4.6898
G01 X-9.0981 Y4.6448
G01 X-9.1269 Y4.5968
G01 X-9.1508 Y4.5462
G01 X-9.1697 Y4.4935
G01 X-9.1825 Y4.4426
G01 X-9.1839 Y4.4359
G01 X-9.1915 Y4.3839
G01 X-9.1942 Y4.3314
G01 X-9.1942 Y4.3246
G01 X-9.1918 Y4.2755
G01 X-9.1911 Y4.2687
G01 X-9.1833 Y4.2167
G01 X-9.1697 Y4.1625
G01 X-9.1508 Y4.1098
G01 X-9.1269 Y4.0592
G01 X-9.0981 Y4.0112
G01 X-9.0669 Y3.9689
G01 X-9.0626 Y3.9636
G01 X-9.0272 Y3.9248
G01 X-6.4872 Y1.3848
G01 X-6.4458 Y1.3472
G01 X-6.4036 Y1.3158
G01 X-6.3979 Y1.3120
G01 X-6.3513 Y1.2843
G01 X-6.3054 Y1.2625
G01 X-6.2990 Y1.2599
G01 X-6.2495 Y1.2423
G01 X-6.1986 Y1.2295
G01 X-6.1919 Y1.2281
G01 X-6.1399 Y1.2205
G01 X-6.0857 Y1.2178
G01 X-2.5280 Y1.2177
G01 X-2.4755 Y1.2202
G01 X-2.4687 Y1.2209
G01 X-2.4167 Y1.2287
G01 X-2.3658 Y1.2414
G01 X-2.3592 Y1.2434
G01 X-2.3098 Y1.2612
G01 X-2.2623 Y1.2835
G01 X-2.2562 Y1.2868
G01 X-2.2112 Y1.3139
G01 X-2.1689 Y1.3451
G01 X-2.1636 Y1.3494
G01 X-2.1248 Y1.3848
G01 X-2.0894 Y1.4236
G01 X-2.0851 Y1.4289
G01 X-2.0539 Y1.4712
G01 X-2.0243 Y1.5207
G01 X-2.0025 Y1.5666
G01 X-1.9999 Y1.5730
G01 X-1.9823 Y1.6225
G01 X-1.9695 Y1.6734
G01 X-1.9681 Y1.6801
G01 X-1.9605 Y1.7321
G01 X-1.9577 Y1.7880
G01 X-1.9605 Y1.8439
G01 X-1.9681 Y1.8959
G01 X-1.9695 Y1.9026
G01 X-1.9814 Y1.9502
G01 X-1.9834 Y1.9568
G01 X-2.0012 Y2.0062
G01 X-2.0235 Y2.0537
G01 X-2.0268 Y2.0598
G01 X-2.0539 Y2.1048
G01 X-2.0872 Y2.1498
G01 X-2.1248 Y2.1912
G01 X-2.1636 Y2.2266
G01 X-2.1689 Y2.2309
G01 X-2.2112 Y2.2621
G01 X-2.2562 Y2.2892
G01 X-2.2623 Y2.2925
G01 X-2.3066 Y2.3135
G01 X-2.3130 Y2.3161
G01 X-2.3625 Y2.3337
G01 X-2.4151 Y2.3469
G01 X-2.4721 Y2.3555
G01 X-2.5280 Y2.3583
G01 X-5.8478 Y2.3583
G01 X-8.2208 Y4.7312
G00 Z1.0000
G00 X-8.7460 Y-0.2820
G01 F20.00
G01 Z-0.0746
G01 F60.00
G01 X-8.3395 Y-0.2820
G01 X-8.3304 Y-0.2672
G01 X-8.2805 Y-0.2001
G01 X-8.2232 Y-0.1368
G01 X-8.1599 Y-0.0795
G01 X-8.0928 Y-0.0296
G01 X-8.0780 Y-0.0205
G01 X-8.0780 Y0.3860
G01 X-8.2123 Y0.3233
G01 X-8.2371 Y0.3090
G01 X-8.3899 Y0.2021
G01 X-8.4118 Y0.1837
G01 X-8.5437 Y0.0518
G01 X-8.5621 Y0.0299
G01 X-8.6690 Y-0.1229
G01 X-8.6833 Y-0.1477
G01 X-8.7460 Y-0.2820
G00 Z1.0000
G00 X-8.7460 Y-1.2220
G01 F20.00
G01 Z-0.0746
G01 F60.00
G01 X-8.6833 Y-1.3563
G01 X-8.6690 Y-1.3811
G01 X-8.5621 Y-1.5339
G01 X-8.5437 Y-1.5558
G01 X-8.4118 Y-1.6877
G01 X-8.3899 Y-1.7061
G01 X-8.2371 Y-1.8130
G01 X-8.2123 Y-1.8273
G01 X-8.0780 Y-1.8900
G01 X-8.0780 Y-1.4835
G01 X-8.0928 Y-1.4744
G01 X-8.1599 Y-1.4245
G01 X-8.2232 Y-1.3672
G01 X-8.2805 Y-1.3039
G01 X-8.3304 Y-1.2368
G01 X-8.3395 Y-1.2220
G01 X-8.7460 Y-1.2220
G00 Z1.0000
G00 X-5.6383 Y-1.4080
G01 F20.00
G01 Z-0.0746
G01 F60.00
G01 X-5.6382 Y-3.2937
G01 X-5.6355 Y-3.3479
G01 X-5.6279 Y-3.3999
G01 X-5.6265 Y-3.4066
G01 X-5.6137 Y-3.4575
G01 X-5.5961 Y-3.5070
G01 X-5.5935 Y-3.5134
G01 X-5.5717 Y-3.5593
G01 X-5.5440 Y-3.6059
G01 X-5.5402 Y-3.6116
G01 X-5.5088 Y-3.6538
G01 X-5.4712 Y-3.6952
G01 X-3.9460 Y-5.2204
G01 X-3.9058 Y-5.2568
G01 X-3.8636 Y-5.2882
G01 X-3.8579 Y-5.2920
G01 X-3.8128 Y-5.3189
G01 X-3.7654 Y-5.3415
G01 X-3.7590 Y-5.3441
G01 X-3.7095 Y-5.3617
G01 X-3.6569 Y-5.3749
G01 X-3.5999 Y-5.3835
G01 X-3.5440 Y-5.3863
G01 X11.4050 Y-5.3863
G01 X11.4575 Y-5.3838
G01 X11.4643 Y-5.3831
G01 X11.5163 Y-5.3753
G01 X11.5672 Y-5.3626
G01 X11.5738 Y-5.3606
G01 X11.6200 Y-5.3441
G01 X11.6264 Y-5.3415
G01 X11.6738 Y-5.3189
G01 X11.7218 Y-5.2901
G01 X11.7668 Y-5.2568
G01 X11.8070 Y-5.2204
G01 X15.8623 Y-1.1651
G01 X15.9230 Y-1.1680
G01 X16.0048 Y-1.1641
G01 X16.0117 Y-1.1634
G01 X16.0893 Y-1.1519
G01 X16.0961 Y-1.1505
G01 X16.1755 Y-1.1305
G01 X16.2527 Y-1.1030
G01 X16.2591 Y-1.1004
G01 X16.3331 Y-1.0653
G01 X16.4063 Y-1.0214
G01 X16.4749 Y-0.9705
G01 X16.5370 Y-0.9144
G01 X16.5955 Y-0.8499
G01 X16.6464 Y-0.7813
G01 X16.6903 Y-0.7081
G01 X16.7254 Y-0.6341
G01 X16.7280 Y-0.6277
G01 X16.7555 Y-0.5505
G01 X16.7755 Y-0.4711
G01 X16.7769 Y-0.4643
G01 X16.7888 Y-0.3833
G01 X16.7929 Y-0.3014
G01 X16.7929 Y-0.2946
G01 X16.7891 Y-0.2162
G01 X16.7884 Y-0.2093
G01 X16.7763 Y-0.1283
G01 X16.7565 Y-0.0488
G01 X16.7545 Y-0.0422
G01 X16.7268 Y0.0349
G01 X16.6918 Y0.1090
G01 X16.6886 Y0.1151
G01 X16.6464 Y0.1853
G01 X16.5976 Y0.2512
G01 X16.5933 Y0.2565
G01 X16.5382 Y0.3172
G01 X16.4775 Y0.3723
G01 X16.4722 Y0.3766
G01 X16.4063 Y0.4254
G01 X16.3361 Y0.4676
G01 X16.3300 Y0.4708
G01 X16.2559 Y0.5058
G01 X16.1788 Y0.5335
G01 X16.1722 Y0.5355
G01 X16.0927 Y0.5553
G01 X16.0117 Y0.5674
G01 X16.0048 Y0.5681
G01 X15.9230 Y0.5720
G01 X15.8412 Y0.5681
G01 X15.8343 Y0.5674
G01 X15.7533 Y0.5553
G01 X15.6738 Y0.5355
G01 X15.6672 Y0.5335
G01 X15.5901 Y0.5058
G01 X15.5160 Y0.4708
G01 X15.5099 Y0.4676
G01 X15.4382 Y0.4244
G01 X15.3738 Y0.3766
G01 X15.3685 Y0.3723
G01 X15.3078 Y0.3172
G01 X15.2527 Y0.2565
G01 X15.2484 Y0.2512
G01 X15.1996 Y0.1853
G01 X15.1549 Y0.1106
G01 X15.1192 Y0.0349
G01 X15.0915 Y-0.0422
G01 X15.0895 Y-0.0488
G01 X15.0697 Y-0.1283
G01 X15.0576 Y-0.2093
G01 X15.0569 Y-0.2162
G01 X15.0530 Y-0.2980
G01 X15.0559 Y-0.3587
G01 X11.1688 Y-4.2457
G01 X-3.3078 Y-4.2457
G01 X-4.4977 Y-3.0558
G01 X-4.4977 Y-1.4080
G01 X-4.4528 Y-1.3672
G01 X-4.3977 Y-1.3065
G01 X-4.3934 Y-1.3012
G01 X-4.3466 Y-1.2382
G01 X-4.3428 Y-1.2324
G01 X-4.3007 Y-1.1621
G01 X-4.2649 Y-1.0865
G01 X-4.2355 Y-1.0045
G01 X-4.2147 Y-0.9217
G01 X-4.2022 Y-0.8373
G01 X-4.1980 Y-0.7520
G01 X-4.2022 Y-0.6667
G01 X-4.2147 Y-0.5823
G01 X-4.2355 Y-0.4995
G01 X-4.2630 Y-0.4223
G01 X-4.2656 Y-0.4159
G01 X-4.2992 Y-0.3450
G01 X-4.3024 Y-0.3389
G01 X-4.3446 Y-0.2687
G01 X-4.3934 Y-0.2028
G01 X-4.3977 Y-0.1975
G01 X-4.4528 Y-0.1368
G01 X-4.5148 Y-0.0806
G01 X-4.5847 Y-0.0286
G01 X-4.6579 Y0.0153
G01 X-4.7351 Y0.0518
G01 X-4.8155 Y0.0805
G01 X-4.8983 Y0.1013
G01 X-4.9827 Y0.1138
G01 X-5.0680 Y0.1180
G01 X-5.1533 Y0.1138
G01 X-5.2377 Y0.1013
G01 X-5.3205 Y0.0805
G01 X-5.4009 Y0.0518
G01 X-5.4781 Y0.0153
G01 X-5.5513 Y-0.0286
G01 X-5.6199 Y-0.0795
G01 X-5.6832 Y-0.1368
G01 X-5.7394 Y-0.1988
G01 X-5.7914 Y-0.2687
G01 X-5.8353 Y-0.3419
G01 X-5.8718 Y-0.4191
G01 X-5.9005 Y-0.4995
G01 X-5.9213 Y-0.5823
G01 X-5.9338 Y-0.6667
G01 X-5.9380 Y-0.7520
G01 X-5.9340 Y-0.8356
G01 X-5.9213 Y-0.9217
G01 X-5.9005 Y-1.0045
G01 X-5.8718 Y-1.0849
G01 X-5.8361 Y-1.1606
G01 X-5.7914 Y-1.2353
G01 X-5.7416 Y-1.3026
G01 X-5.6832 Y-1.3672
G01 X-5.6383 Y-1.4080
G00 Z1.0000
G00 X-3.0983 Y-1.4080
G01 F20.00
G01 Z-0.0746
G01 F60.00
G01 X-3.0983 Y-2.2760
G01 X-3.0957 Y-2.3302
G01 X-3.0873 Y-2.3873
G01 X-3.0746 Y-2.4382
G01 X-3.0726 Y-2.4448
G01 X-3.0548 Y-2.4942
G01 X-3.0325 Y-2.5417
G01 X-3.0292 Y-2.5478
G01 X-3.0040 Y-2.5899
G01 X-3.0002 Y-2.5956
G01 X-2.9688 Y-2.6378
G01 X-2.9312 Y-2.6792
G01 X-1.9127 Y-3.6976
G01 X-1.8738 Y-3.7328
G01 X-1.8316 Y-3.7642
G01 X-1.8259 Y-3.7680
G01 X-1.7808 Y-3.7949
G01 X-1.7302 Y-3.8188
G01 X-1.6808 Y-3.8366
G01 X-1.6742 Y-3.8386
G01 X-1.6216 Y-3.8516
G01 X-1.5679 Y-3.8595
G01 X-1.5120 Y-3.8623
G01 X10.6800 Y-3.8623
G01 X10.7359 Y-3.8595
G01 X10.7913 Y-3.8513
G01 X10.8422 Y-3.8386
G01 X10.8488 Y-3.8366
G01 X10.8982 Y-3.8188
G01 X10.9488 Y-3.7949
G01 X10.9968 Y-3.7661
G01 X11.0391 Y-3.7349
G01 X11.0444 Y-3.7306
G01 X11.0844 Y-3.6940
G01 X11.1208 Y-3.6538
G01 X11.1541 Y-3.6088
G01 X11.1829 Y-3.5608
G01 X11.2055 Y-3.5134
G01 X11.2081 Y-3.5070
G01 X11.2257 Y-3.4575
G01 X11.2385 Y-3.4066
G01 X11.2399 Y-3.3999
G01 X11.2477 Y-3.3462
G01 X11.2502 Y-3.2937
G01 X11.2503 Y-3.2372
G01 X15.8623 Y1.3749
G01 X15.9230 Y1.3720
G01 X16.0048 Y1.3759
G01 X16.0117 Y1.3766
G01 X16.0893 Y1.3881
G01 X16.0961 Y1.3895
G01 X16.1755 Y1.4095
G01 X16.2543 Y1.4376
G01 X16.3331 Y1.4747
G01 X16.4063 Y1.5186
G01 X16.4749 Y1.5695
G01 X16.5394 Y1.6280
G01 X16.5933 Y1.6875
G01 X16.5976 Y1.6928
G01 X16.6464 Y1.7587
G01 X16.6886 Y1.8289
G01 X16.6918 Y1.8350
G01 X16.7268 Y1.9091
G01 X16.7555 Y1.9895
G01 X16.7755 Y2.0689
G01 X16.7769 Y2.0757
G01 X16.7888 Y2.1567
G01 X16.7929 Y2.2386
G01 X16.7929 Y2.2454
G01 X16.7888 Y2.3273
G01 X16.7763 Y2.4117
G01 X16.7555 Y2.4945
G01 X16.7280 Y2.5717
G01 X16.7254 Y2.5781
G01 X16.6903 Y2.6521
G01 X16.6482 Y2.7224
G01 X16.6444 Y2.7282
G01 X16.5955 Y2.7939
G01 X16.5406 Y2.8547
G01 X16.5357 Y2.8596
G01 X16.4749 Y2.9145
G01 X16.4092 Y2.9634
G01 X16.4034 Y2.9672
G01 X16.3331 Y3.0093
G01 X16.2591 Y3.0444
G01 X16.2527 Y3.0470
G01 X16.1755 Y3.0745
G01 X16.0961 Y3.0945
G01 X16.0893 Y3.0959
G01 X16.0083 Y3.1078
G01 X15.9264 Y3.1119
G01 X15.9196 Y3.1119
G01 X15.8377 Y3.1078
G01 X15.7567 Y3.0959
G01 X15.7499 Y3.0945
G01 X15.6705 Y3.0745
G01 X15.5933 Y3.0470
G01 X15.5869 Y3.0444
G01 X15.5129 Y3.0093
G01 X15.4426 Y2.9672
G01 X15.4368 Y2.9634
G01 X15.3724 Y2.9156
G01 X15.3078 Y2.8572
G01 X15.2527 Y2.7965
G01 X15.2484 Y2.7912
G01 X15.1996 Y2.7253
G01 X15.1574 Y2.6551
G01 X15.1542 Y2.6490
G01 X15.1199 Y2.5765
G01 X15.0905 Y2.4945
G01 X15.0694 Y2.4100
G01 X15.0576 Y2.3307
G01 X15.0569 Y2.3238
G01 X15.0530 Y2.2420
G01 X15.0559 Y2.1813
G01 X10.2768 Y-2.5978
G01 X10.2414 Y-2.6366
G01 X10.2371 Y-2.6419
G01 X10.2059 Y-2.6842
G01 X10.1832 Y-2.7217
G01 X-1.2758 Y-2.7217
G01 X-1.9577 Y-2.0398
G01 X-1.9577 Y-1.4080
G01 X-1.9128 Y-1.3672
G01 X-1.8555 Y-1.3039
G01 X-1.8046 Y-1.2353
G01 X-1.7607 Y-1.1621
G01 X-1.7242 Y-1.0849
G01 X-1.6955 Y-1.0045
G01 X-1.6747 Y-0.9217
G01 X-1.6626 Y-0.8407
G01 X-1.6619 Y-0.8338
G01 X-1.6580 Y-0.7520
G01 X-1.6619 Y-0.6702
G01 X-1.6626 Y-0.6633
G01 X-1.6747 Y-0.5823
G01 X-1.6945 Y-0.5028
G01 X-1.6965 Y-0.4962
G01 X-1.7242 Y-0.4191
G01 X-1.7592 Y-0.3450
G01 X-1.7624 Y-0.3389
G01 X-1.8046 Y-0.2687
G01 X-1.8534 Y-0.2028
G01 X-1.8577 Y-0.1975
G01 X-1.9128 Y-0.1368
G01 X-1.9735 Y-0.0817
G01 X-1.9788 Y-0.0774
G01 X-2.0447 Y-0.0286
G01 X-2.1149 Y0.0136
G01 X-2.1210 Y0.0168
G01 X-2.1951 Y0.0518
G01 X-2.2722 Y0.0795
G01 X-2.2788 Y0.0815
G01 X-2.3583 Y0.1013
G01 X-2.4427 Y0.1138
G01 X-2.5246 Y0.1179
G01 X-2.5314 Y0.1179
G01 X-2.6133 Y0.1138
G01 X-2.6977 Y0.1013
G01 X-2.7805 Y0.0805
G01 X-2.8577 Y0.0530
G01 X-2.8641 Y0.0504
G01 X-2.9350 Y0.0168
G01 X-2.9411 Y0.0136
G01 X-3.0113 Y-0.0286
G01 X-3.0799 Y-0.0795
G01 X-3.1432 Y-0.1368
G01 X-3.1983 Y-0.1975
G01 X-3.2026 Y-0.2028
G01 X-3.2494 Y-0.2658
G01 X-3.2532 Y-0.2716
G01 X-3.2953 Y-0.3419
G01 X-3.3311 Y-0.4175
G01 X-3.3595 Y-0.4962
G01 X-3.3615 Y-0.5028
G01 X-3.3813 Y-0.5823
G01 X-3.3938 Y-0.6667
G01 X-3.3980 Y-0.7520
G01 X-3.3941 Y-0.8338
G01 X-3.3934 Y-0.8407
G01 X-3.3809 Y-0.9234
G01 X-3.3605 Y-1.0045
G01 X-3.3330 Y-1.0817
G01 X-3.3304 Y-1.0881
G01 X-3.2968 Y-1.1590
G01 X-3.2936 Y-1.1651
G01 X-3.2514 Y-1.2353
G01 X-3.2005 Y-1.3039
G01 X-3.1432 Y-1.3672
G01 X-3.0983 Y-1.4080
G00 Z1.0000
G00 X-5.0646 Y-9.5341
G01 F20.00
G01 Z-0.0746
G01 F60.00
G01 X-5.0714 Y-9.5341
G01 X-5.1533 Y-9.5382
G01 X-5.2343 Y-9.5501
G01 X-5.2411 Y-9.5515
G01 X-5.3205 Y-9.5715
G01 X-5.3977 Y-9.5990
G01 X-5.4041 Y-9.6016
G01 X-5.4781 Y-9.6367
G01 X-5.5484 Y-9.6788
G01 X-5.5542 Y-9.6826
G01 X-5.6199 Y-9.7315
G01 X-5.6807 Y-9.7864
G01 X-5.6856 Y-9.7913
G01 X-5.7405 Y-9.8521
G01 X-5.7894 Y-9.9178
G01 X-5.7932 Y-9.9236
G01 X-5.8353 Y-9.9939
G01 X-5.8704 Y-10.0679
G01 X-5.8730 Y-10.0743
G01 X-5.9005 Y-10.1515
G01 X-5.9205 Y-10.2309
G01 X-5.9219 Y-10.2377
G01 X-5.9338 Y-10.3187
G01 X-5.9379 Y-10.4006
G01 X-5.9379 Y-10.4074
G01 X-5.9338 Y-10.4893
G01 X-5.9219 Y-10.5703
G01 X-5.9205 Y-10.5771
G01 X-5.9005 Y-10.6565
G01 X-5.8730 Y-10.7337
G01 X-5.8704 Y-10.7401
G01 X-5.8353 Y-10.8141
G01 X-5.7932 Y-10.8844
G01 X-5.7894 Y-10.8902
G01 X-5.7405 Y-10.9559
G01 X-5.6832 Y-11.0192
G01 X-5.6225 Y-11.0743
G01 X-5.6172 Y-11.0786
G01 X-5.5513 Y-11.1274
G01 X-5.4796 Y-11.1704
G01 X-5.4041 Y-11.2064
G01 X-5.3977 Y-11.2090
G01 X-5.3205 Y-11.2365
G01 X-5.2394 Y-11.2569
G01 X-5.1567 Y-11.2694
G01 X-5.1498 Y-11.2701
G01 X-5.0680 Y-11.2740
G01 X-5.0073 Y-11.2711
G01 X-3.4380 Y-12.8404
G01 X-3.3978 Y-12.8768
G01 X-3.3556 Y-12.9082
G01 X-3.3499 Y-12.9120
G01 X-3.3048 Y-12.9389
G01 X-3.2574 Y-12.9615
G01 X-3.2510 Y-12.9641
G01 X-3.2032 Y-12.9812
G01 X-3.1506 Y-12.9945
G01 X-3.1439 Y-12.9959
G01 X-3.0919 Y-13.0035
G01 X-3.0360 Y-13.0063
G01 X5.3638 Y-13.0063
G01 X7.0617 Y-14.7042
G01 X7.0617 Y-17.3680
G01 X7.0168 Y-17.4088
G01 X6.9595 Y-17.4721
G01 X6.9086 Y-17.5407
G01 X6.8656 Y-17.6124
G01 X6.8282 Y-17.6911
G01 X6.8005 Y-17.7682
G01 X6.7985 Y-17.7748
G01 X6.7784 Y-17.8560
G01 X6.7662 Y-17.9387
G01 X6.7620 Y-18.0240
G01 X6.7662 Y-18.1093
G01 X6.7781 Y-18.1903
G01 X6.7795 Y-18.1971
G01 X6.7985 Y-18.2732
G01 X6.8005 Y-18.2798
G01 X6.8282 Y-18.3569
G01 X6.8647 Y-18.4341
G01 X6.9086 Y-18.5073
G01 X6.9574 Y-18.5732
G01 X6.9617 Y-18.5785
G01 X7.0168 Y-18.6392
G01 X7.0775 Y-18.6943
G01 X7.0828 Y-18.6986
G01 X7.1487 Y-18.7474
G01 X7.2189 Y-18.7896
G01 X7.2250 Y-18.7928
G01 X7.2991 Y-18.8278
G01 X7.3762 Y-18.8555
G01 X7.3828 Y-18.8575
G01 X7.4623 Y-18.8773
G01 X7.5433 Y-18.8894
G01 X7.5502 Y-18.8901
G01 X7.6320 Y-18.8940
G01 X7.7138 Y-18.8901
G01 X7.7207 Y-18.8894
G01 X7.8017 Y-18.8773
G01 X7.8812 Y-18.8575
G01 X7.8878 Y-18.8555
G01 X7.9649 Y-18.8278
G01 X8.0390 Y-18.7928
G01 X8.0451 Y-18.7896
G01 X8.1153 Y-18.7474
G01 X8.1812 Y-18.6986
G01 X8.1865 Y-18.6943
G01 X8.2472 Y-18.6392
G01 X8.3023 Y-18.5785
G01 X8.3066 Y-18.5732
G01 X8.3554 Y-18.5073
G01 X8.3976 Y-18.4371
G01 X8.4008 Y-18.4310
G01 X8.4358 Y-18.3569
G01 X8.4645 Y-18.2765
G01 X8.4853 Y-18.1937
G01 X8.4974 Y-18.1127
G01 X8.4981 Y-18.1058
G01 X8.5019 Y-18.0274
G01 X8.5019 Y-18.0206
G01 X8.4978 Y-17.9387
G01 X8.4853 Y-17.8543
G01 X8.4645 Y-17.7715
G01 X8.4370 Y-17.6943
G01 X8.4344 Y-17.6879
G01 X8.3993 Y-17.6139
G01 X8.3572 Y-17.5436
G01 X8.3534 Y-17.5378
G01 X8.3066 Y-17.4748
G01 X8.3023 Y-17.4695
G01 X8.2472 Y-17.4088
G01 X8.2023 Y-17.3680
G01 X8.2022 Y-14.4663
G01 X8.1995 Y-14.4121
G01 X8.1913 Y-14.3567
G01 X8.1777 Y-14.3025
G01 X8.1595 Y-14.2514
G01 X8.1349 Y-14.1992
G01 X8.1061 Y-14.1512
G01 X8.0728 Y-14.1062
G01 X8.0352 Y-14.0648
G01 X6.0032 Y-12.0328
G01 X5.9618 Y-11.9952
G01 X5.9168 Y-11.9619
G01 X5.8718 Y-11.9348
G01 X5.8657 Y-11.9315
G01 X5.8182 Y-11.9092
G01 X5.7655 Y-11.8903
G01 X5.7113 Y-11.8767
G01 X5.6593 Y-11.8689
G01 X5.6525 Y-11.8682
G01 X5.6000 Y-11.8657
G01 X-2.7998 Y-11.8657
G01 X-4.2009 Y-10.4646
G01 X-4.1980 Y-10.4040
G01 X-4.2019 Y-10.3222
G01 X-4.2026 Y-10.3153
G01 X-4.2141 Y-10.2377
G01 X-4.2155 Y-10.2309
G01 X-4.2355 Y-10.1515
G01 X-4.2630 Y-10.0743
G01 X-4.2656 Y-10.0679
G01 X-4.3007 Y-9.9939
G01 X-4.3446 Y-9.9207
G01 X-4.3955 Y-9.8521
G01 X-4.4516 Y-9.7900
G01 X-4.5161 Y-9.7315
G01 X-4.5847 Y-9.6806
G01 X-4.6579 Y-9.6367
G01 X-4.7351 Y-9.6002
G01 X-4.8155 Y-9.5715
G01 X-4.8983 Y-9.5507
G01 X-4.9827 Y-9.5382
G01 X-5.0646 Y-9.5341
G00 Z1.0000
G00 X-8.4080 Y-9.5340
G01 F20.00
G01 Z-0.0746
G01 F60.00
G01 X-8.4149 Y-9.5343
G01 X-8.4200 Y-9.5350
G01 X-8.4267 Y-9.5365
G01 X-8.4332 Y-9.5387
G01 X-8.4395 Y-9.5415
G01 X-8.4455 Y-9.5449
G01 X-8.4511 Y-9.5488
G01 X-8.4563 Y-9.5533
G01 X-8.4610 Y-9.5583
G01 X-8.4652 Y-9.5637
G01 X-8.4689 Y-9.5695
G01 X-8.4720 Y-9.5756
G01 X-8.4745 Y-9.5820
G01 X-8.4759 Y-9.5870
G01 X-8.4772 Y-9.5937
G01 X-8.4779 Y-9.6006
G01 X-8.4778 Y-11.2092
G01 X-8.4770 Y-11.2160
G01 X-8.4759 Y-11.2210
G01 X-8.4727 Y-11.2308
G01 X-8.4697 Y-11.2370
G01 X-8.4671 Y-11.2415
G01 X-8.4610 Y-11.2497
G01 X-8.4537 Y-11.2570
G01 X-8.4483 Y-11.2612
G01 X-8.4440 Y-11.2640
G01 X-8.4395 Y-11.2665
G01 X-8.4332 Y-11.2693
G01 X-8.4233 Y-11.2723
G01 X-8.4149 Y-11.2737
G01 X-8.4080 Y-11.2740
G01 X-8.1783 Y-11.2740
G01 X-8.1782 Y-13.4537
G01 X-8.1755 Y-13.5079
G01 X-8.1673 Y-13.5633
G01 X-8.1537 Y-13.6175
G01 X-8.1361 Y-13.6670
G01 X-8.1335 Y-13.6734
G01 X-8.1109 Y-13.7208
G01 X-8.0821 Y-13.7688
G01 X-8.0488 Y-13.8138
G01 X-8.0112 Y-13.8552
G01 X-4.9632 Y-16.9032
G01 X-4.9204 Y-16.9419
G01 X-4.8768 Y-16.9741
G01 X-4.8288 Y-17.0029
G01 X-4.7782 Y-17.0268
G01 X-4.7288 Y-17.0446
G01 X-4.7222 Y-17.0466
G01 X-4.6746 Y-17.0585
G01 X-4.6679 Y-17.0599
G01 X-4.6159 Y-17.0675
G01 X-4.5617 Y-17.0702
G01 X0.7918 Y-17.0703
G01 X1.6849 Y-17.9633
G01 X1.6820 Y-18.0240
G01 X1.6859 Y-18.1058
G01 X1.6866 Y-18.1127
G01 X1.6987 Y-18.1937
G01 X1.7185 Y-18.2732
G01 X1.7205 Y-18.2798
G01 X1.7482 Y-18.3569
G01 X1.7839 Y-18.4326
G01 X1.8286 Y-18.5073
G01 X1.8774 Y-18.5732
G01 X1.8817 Y-18.5785
G01 X1.9368 Y-18.6392
G01 X1.9975 Y-18.6943
G01 X2.0028 Y-18.6986
G01 X2.0701 Y-18.7483
G01 X2.1419 Y-18.7913
G01 X2.2191 Y-18.8278
G01 X2.2995 Y-18.8565
G01 X2.3823 Y-18.8773
G01 X2.4667 Y-18.8898
G01 X2.5520 Y-18.8940
G01 X2.6373 Y-18.8898
G01 X2.7183 Y-18.8779
G01 X2.7251 Y-18.8765
G01 X2.8045 Y-18.8565
G01 X2.8817 Y-18.8290
G01 X2.8881 Y-18.8264
G01 X2.9590 Y-18.7928
G01 X2.9651 Y-18.7896
G01 X3.0353 Y-18.7474
G01 X3.1039 Y-18.6965
G01 X3.1672 Y-18.6392
G01 X3.2256 Y-18.5746
G01 X3.2754 Y-18.5073
G01 X3.3193 Y-18.4341
G01 X3.3558 Y-18.3569
G01 X3.3835 Y-18.2798
G01 X3.3855 Y-18.2732
G01 X3.4045 Y-18.1971
G01 X3.4059 Y-18.1903
G01 X3.4178 Y-18.1093
G01 X3.4220 Y-18.0240
G01 X3.4178 Y-17.9387
G01 X3.4059 Y-17.8577
G01 X3.4045 Y-17.8509
G01 X3.3855 Y-17.7748
G01 X3.3835 Y-17.7682
G01 X3.3558 Y-17.6911
G01 X3.3193 Y-17.6139
G01 X3.2754 Y-17.5407
G01 X3.2256 Y-17.4734
G01 X3.1672 Y-17.4088
G01 X3.1065 Y-17.3537
G01 X3.1012 Y-17.3494
G01 X3.0353 Y-17.3006
G01 X2.9651 Y-17.2584
G01 X2.9590 Y-17.2552
G01 X2.8865 Y-17.2209
G01 X2.8045 Y-17.1915
G01 X2.7200 Y-17.1704
G01 X2.6407 Y-17.1586
G01 X2.6338 Y-17.1579
G01 X2.5520 Y-17.1540
G01 X2.4914 Y-17.1569
G01 X1.4287 Y-16.0944
G01 X1.3898 Y-16.0592
G01 X1.3476 Y-16.0278
G01 X1.3419 Y-16.0240
G01 X1.2998 Y-15.9988
G01 X1.2937 Y-15.9955
G01 X1.2462 Y-15.9732
G01 X1.1968 Y-15.9554
G01 X1.1902 Y-15.9534
G01 X1.1426 Y-15.9415
G01 X1.1359 Y-15.9401
G01 X1.0839 Y-15.9325
G01 X1.0280 Y-15.9297
G01 X-4.3238 Y-15.9297
G01 X-7.0377 Y-13.2158
G01 X-7.0377 Y-11.2740
G01 X-6.8080 Y-11.2740
G01 X-6.8011 Y-11.2737
G01 X-6.7943 Y-11.2727
G01 X-6.7844 Y-11.2699
G01 X-6.7781 Y-11.2673
G01 X-6.7735 Y-11.2649
G01 X-6.7649 Y-11.2592
G01 X-6.7573 Y-11.2523
G01 X-6.7508 Y-11.2443
G01 X-6.7455 Y-11.2355
G01 X-6.7415 Y-11.2260
G01 X-6.7390 Y-11.2160
G01 X-6.7382 Y-11.2092
G01 X-6.7380 Y-11.2040
G01 X-6.7380 Y-9.6040
G01 X-6.7388 Y-9.5937
G01 X-6.7410 Y-9.5837
G01 X-6.7447 Y-9.5741
G01 X-6.7489 Y-9.5666
G01 X-6.7539 Y-9.5596
G01 X-6.7597 Y-9.5533
G01 X-6.7663 Y-9.5478
G01 X-6.7735 Y-9.5431
G01 X-6.7812 Y-9.5393
G01 X-6.7893 Y-9.5365
G01 X-6.7977 Y-9.5348
G01 X-6.8063 Y-9.5340
G01 X-8.4080 Y-9.5340
G00 Z1.0000
G00 X-12.1485 Y-7.2341
G01 F20.00
G01 Z-0.0746
G01 F60.00
G01 X-12.1510 Y-7.2455
G01 X-12.1515 Y-7.2554
G01 X-12.1499 Y-7.3798
G01 X-12.1488 Y-7.3897
G01 X-12.1468 Y-7.3978
G01 X-12.1074 Y-7.5158
G01 X-12.1029 Y-7.5265
G01 X-12.0976 Y-7.5349
G01 X-12.0218 Y-7.6382
G01 X-10.2336 Y-9.4267
G01 X-10.2130 Y-9.4461
G01 X-10.1806 Y-9.4748
G01 X-10.1547 Y-9.5122
G01 X-10.1392 Y-9.5333
G01 X-10.1125 Y-9.5674
G01 X-10.1041 Y-9.5851
G01 X-10.0936 Y-9.6008
G01 X-10.0775 Y-9.6433
G01 X-10.0674 Y-9.6675
G01 X-10.0496 Y-9.7070
G01 X-10.0459 Y-9.7256
G01 X-10.0393 Y-9.7440
G01 X-10.0341 Y-9.7871
G01 X-10.0302 Y-9.8129
G01 X-10.0220 Y-9.8577
G01 X-10.0246 Y-9.9009
G01 X-10.0255 Y-9.9292
G01 X-10.0255 Y-20.1086
G01 X-10.0249 Y-20.1177
G01 X-10.0113 Y-20.2210
G01 X-10.0097 Y-20.2292
G01 X-10.0066 Y-20.2386
G01 X-9.9654 Y-20.3379
G01 X-9.9614 Y-20.3452
G01 X-9.9576 Y-20.3507
G01 X-9.8942 Y-20.4333
G01 X-9.8881 Y-20.4402
G01 X-7.9922 Y-22.3361
G01 X-7.9853 Y-22.3422
G01 X-7.9027 Y-22.4056
G01 X-7.8958 Y-22.4102
G01 X-7.8884 Y-22.4141
G01 X-7.7906 Y-22.4546
G01 X-7.7812 Y-22.4577
G01 X-7.7730 Y-22.4593
G01 X-7.6697 Y-22.4729
G01 X-7.6606 Y-22.4735
G01 X-5.1824 Y-22.4735
G01 X-5.1722 Y-22.4727
G01 X-5.0546 Y-22.4553
G01 X-5.0446 Y-22.4528
G01 X-5.0367 Y-22.4496
G01 X-4.9293 Y-22.3988
G01 X-4.9219 Y-22.3945
G01 X-4.9137 Y-22.3881
G01 X-4.8270 Y-22.3095
G01 X-4.8199 Y-22.3020
G01 X-4.8140 Y-22.2936
G01 X-4.7538 Y-22.1932
G01 X-4.7498 Y-22.1856
G01 X-4.7463 Y-22.1759
G01 X-4.7174 Y-22.0606
G01 X-4.7159 Y-22.0522
G01 X-4.7154 Y-22.0453
G01 X-4.7154 Y-22.0402
G01 X-4.7212 Y-21.9232
G01 X-4.7224 Y-21.9130
G01 X-4.7252 Y-21.9031
G01 X-4.7646 Y-21.7928
G01 X-4.7688 Y-21.7834
G01 X-4.7743 Y-21.7747
G01 X-4.8462 Y-21.6780
G01 X-4.8508 Y-21.6729
G01 X-5.4904 Y-21.0333
G01 X-5.5110 Y-21.0139
G01 X-5.5434 Y-20.9852
G01 X-5.5693 Y-20.9478
G01 X-5.5848 Y-20.9267
G01 X-5.6115 Y-20.8926
G01 X-5.6195 Y-20.8755
G01 X-5.6304 Y-20.8592
G01 X-5.6457 Y-20.8186
G01 X-5.6557 Y-20.7944
G01 X-5.6744 Y-20.7530
G01 X-5.6783 Y-20.7338
G01 X-5.6847 Y-20.7160
G01 X-5.6902 Y-20.6709
G01 X-5.6942 Y-20.6450
G01 X-5.7020 Y-20.6023
G01 X-5.6994 Y-20.5591
G01 X-5.6985 Y-20.5308
G01 X-5.6986 Y-18.9256
G01 X-5.6992 Y-18.9191
G01 X-5.7149 Y-18.8083
G01 X-5.7172 Y-18.7979
G01 X-5.7203 Y-18.7895
G01 X-5.7661 Y-18.6875
G01 X-5.7712 Y-18.6780
G01 X-5.7765 Y-18.6709
G01 X-5.8488 Y-18.5856
G01 X-5.8564 Y-18.5779
G01 X-5.8635 Y-18.5725
G01 X-5.9581 Y-18.5096
G01 X-5.9660 Y-18.5054
G01 X-5.9743 Y-18.5021
G01 X-6.0810 Y-18.4685
G01 X-6.0914 Y-18.4661
G01 X-6.1003 Y-18.4653
G01 X-6.2121 Y-18.4626
G01 X-6.2211 Y-18.4629
G01 X-6.2299 Y-18.4644
G01 X-6.3449 Y-18.4948
G01 X-6.3515 Y-18.4975
G01 X-6.3579 Y-18.5009
G01 X-6.4539 Y-18.5582
G01 X-6.4612 Y-18.5633
G01 X-6.4679 Y-18.5692
G01 X-6.5455 Y-18.6522
G01 X-6.5497 Y-18.6572
G01 X-6.6539 Y-18.8059
G01 X-6.6723 Y-18.8278
G01 X-6.8042 Y-18.9597
G01 X-6.8261 Y-18.9781
G01 X-6.9789 Y-19.0850
G01 X-7.0037 Y-19.0993
G01 X-7.1380 Y-19.1620
G01 X-7.1380 Y-18.7555
G01 X-7.1232 Y-18.7464
G01 X-7.0561 Y-18.6965
G01 X-6.9953 Y-18.6416
G01 X-6.9904 Y-18.6367
G01 X-6.9355 Y-18.5759
G01 X-6.8866 Y-18.5102
G01 X-6.8828 Y-18.5044
G01 X-6.8407 Y-18.4341
G01 X-6.8056 Y-18.3601
G01 X-6.8030 Y-18.3537
G01 X-6.7755 Y-18.2765
G01 X-6.7555 Y-18.1971
G01 X-6.7541 Y-18.1903
G01 X-6.7422 Y-18.1093
G01 X-6.7380 Y-18.0240
G01 X-6.7419 Y-17.9422
G01 X-6.7426 Y-17.9353
G01 X-6.7547 Y-17.8543
G01 X-6.7745 Y-17.7748
G01 X-6.7765 Y-17.7682
G01 X-6.8042 Y-17.6911
G01 X-6.8407 Y-17.6139
G01 X-6.8828 Y-17.5436
G01 X-6.8866 Y-17.5378
G01 X-6.9355 Y-17.4721
G01 X-6.9904 Y-17.4113
G01 X-6.9953 Y-17.4064
G01 X-7.0561 Y-17.3515
G01 X-7.1232 Y-17.3016
G01 X-7.1380 Y-17.2925
G01 X-7.1380 Y-16.8860
G01 X-7.0037 Y-16.9487
G01 X-6.9789 Y-16.9630
G01 X-6.8261 Y-17.0699
G01 X-6.8042 Y-17.0883
G01 X-6.6723 Y-17.2202
G01 X-6.6539 Y-17.2421
G01 X-6.5339 Y-17.4132
G01 X-6.4458 Y-17.5054
G01 X-6.4371 Y-17.5130
G01 X-6.4288 Y-17.5184
G01 X-6.3215 Y-17.5768
G01 X-6.3110 Y-17.5815
G01 X-6.3014 Y-17.5841
G01 X-6.1799 Y-17.6077
G01 X-6.1717 Y-17.6086
G01 X-6.1617 Y-17.6084
G01 X-6.0388 Y-17.5941
G01 X-6.0275 Y-17.5918
G01 X-6.0181 Y-17.5884
G01 X-5.9068 Y-17.5383
G01 X-5.8980 Y-17.5336
G01 X-5.8888 Y-17.5267
G01 X-5.7952 Y-17.4428
G01 X-5.7904 Y-17.4375
G01 X-5.7291 Y-17.3629
G01 X-5.5875 Y-17.2466
G01 X-5.5685 Y-17.2364
G01 X-5.5624 Y-17.2325
G01 X-5.4623 Y-17.1570
G01 X-5.4536 Y-17.1492
G01 X-5.4473 Y-17.1415
G01 X-5.3761 Y-17.0405
G01 X-5.3710 Y-17.0319
G01 X-5.3666 Y-17.0210
G01 X-5.3297 Y-16.9031
G01 X-5.3272 Y-16.8917
G01 X-5.3266 Y-16.8817
G01 X-5.3276 Y-16.7565
G01 X-5.3284 Y-16.7481
G01 X-5.3306 Y-16.7383
G01 X-5.3698 Y-16.6194
G01 X-5.3744 Y-16.6087
G01 X-5.3798 Y-16.6002
G01 X-5.4525 Y-16.5003
G01 X-5.4583 Y-16.4934
G01 X-8.0304 Y-13.9213
G01 X-8.0510 Y-13.9019
G01 X-8.0834 Y-13.8732
G01 X-8.1093 Y-13.8358
G01 X-8.1248 Y-13.8147
G01 X-8.1515 Y-13.7806
G01 X-8.1595 Y-13.7635
G01 X-8.1704 Y-13.7472
G01 X-8.1857 Y-13.7066
G01 X-8.1957 Y-13.6824
G01 X-8.2144 Y-13.6410
G01 X-8.2183 Y-13.6218
G01 X-8.2247 Y-13.6040
G01 X-8.2302 Y-13.5589
G01 X-8.2342 Y-13.5330
G01 X-8.2420 Y-13.4903
G01 X-8.2394 Y-13.4471
G01 X-8.2385 Y-13.4188
G01 X-8.2385 Y-11.7248
G01 X-8.2391 Y-11.7154
G01 X-8.2538 Y-11.6073
G01 X-8.2557 Y-11.5989
G01 X-8.2586 Y-11.5908
G01 X-8.3016 Y-11.4906
G01 X-8.3048 Y-11.4845
G01 X-8.3085 Y-11.4787
G01 X-8.3777 Y-11.3921
G01 X-8.3847 Y-11.3846
G01 X-8.3914 Y-11.3791
G01 X-8.4300 Y-11.3512
G01 X-8.4367 Y-11.3434
G01 X-8.4445 Y-11.3366
G01 X-8.5021 Y-11.2981
G01 X-8.5309 Y-11.2549
G01 X-8.5385 Y-11.2169
G01 X-8.5385 Y-9.5911
G01 X-8.5309 Y-9.5531
G01 X-8.5021 Y-9.5099
G01 X-8.4589 Y-9.4811
G01 X-8.4209 Y-9.4735
G01 X-6.7951 Y-9.4735
G01 X-6.7571 Y-9.4811
G01 X-6.7139 Y-9.5099
G01 X-6.6851 Y-9.5531
G01 X-6.6775 Y-9.5911
G01 X-6.6773 Y-9.6090
G01 X-6.6745 Y-9.6353
G01 X-6.6720 Y-9.6453
G01 X-6.6679 Y-9.6553
G01 X-6.6580 Y-9.7189
G01 X-6.6561 Y-9.7276
G01 X-6.6538 Y-9.7344
G01 X-6.6516 Y-9.7392
G01 X-6.5958 Y-9.8517
G01 X-6.5909 Y-9.8592
G01 X-6.5863 Y-9.8647
G01 X-6.5005 Y-9.9538
G01 X-6.4957 Y-9.9583
G01 X-6.4905 Y-9.9624
G01 X-6.4835 Y-9.9667
G01 X-6.3763 Y-10.0249
G01 X-6.3665 Y-10.0292
G01 X-6.3562 Y-10.0321
G01 X-6.2364 Y-10.0551
G01 X-6.2249 Y-10.0564
G01 X-6.2150 Y-10.0559
G01 X-6.0907 Y-10.0413
G01 X-6.0826 Y-10.0394
G01 X-6.0748 Y-10.0367
G01 X-5.9622 Y-9.9859
G01 X-5.9527 Y-9.9808
G01 X-5.9456 Y-9.9754
G01 X-5.8534 Y-9.8929
G01 X-5.8483 Y-9.8879
G01 X-5.7291 Y-9.7429
G01 X-5.5875 Y-9.6266
G01 X-5.5685 Y-9.6164
G01 X-5.5624 Y-9.6125
G01 X-5.4623 Y-9.5370
G01 X-5.4560 Y-9.5316
G01 X-5.4514 Y-9.5268
G01 X-5.4473 Y-9.5215
G01 X-5.3752 Y-9.4191
G01 X-5.3702 Y-9.4104
G01 X-5.3666 Y-9.4010
G01 X-5.3293 Y-9.2815
G01 X-5.3272 Y-9.2717
G01 X-5.3266 Y-9.2633
G01 X-5.3276 Y-9.1381
G01 X-5.3286 Y-9.1265
G01 X-5.3311 Y-9.1167
G01 X-5.3698 Y-8.9994
G01 X-5.3729 Y-8.9917
G01 X-5.3761 Y-8.9857
G01 X-5.3798 Y-8.9802
G01 X-5.4525 Y-8.8803
G01 X-5.4596 Y-8.8721
G01 X-7.2251 Y-7.1066
G01 X-7.2307 Y-7.1018
G01 X-7.3133 Y-7.0384
G01 X-7.3217 Y-7.0329
G01 X-7.3291 Y-7.0293
G01 X-7.4254 Y-6.9894
G01 X-7.4348 Y-6.9863
G01 X-7.4430 Y-6.9847
G01 X-7.5463 Y-6.9711
G01 X-7.5554 Y-6.9705
G01 X-11.1308 Y-6.9705
G01 X-11.1591 Y-6.9714
G01 X-11.2024 Y-6.9740
G01 X-11.2471 Y-6.9658
G01 X-11.2730 Y-6.9619
G01 X-11.3160 Y-6.9567
G01 X-11.3337 Y-6.9503
G01 X-11.3530 Y-6.9464
G01 X-11.3925 Y-6.9286
G01 X-11.4167 Y-6.9185
G01 X-11.4592 Y-6.9024
G01 X-11.4747 Y-6.8921
G01 X-11.4868 Y-6.8861
G01 X-11.4990 Y-6.8809
G01 X-11.6257 Y-6.8459
G01 X-11.6339 Y-6.8445
G01 X-11.6422 Y-6.8442
G01 X-11.7681 Y-6.8492
G01 X-11.7764 Y-6.8503
G01 X-11.7860 Y-6.8528
G01 X-11.9029 Y-6.8953
G01 X-11.9120 Y-6.8993
G01 X-11.9218 Y-6.9057
G01 X-12.0189 Y-6.9807
G01 X-12.0263 Y-6.9873
G01 X-12.0337 Y-6.9963
G01 X-12.1034 Y-7.0973
G01 X-12.1085 Y-7.1059
G01 X-12.1128 Y-7.1167
G01 X-12.1485 Y-7.2341
G00 Z1.0000
G00 X-18.6792 Y-6.7432
G01 F20.00
G01 Z-0.0746
G01 F60.00
G01 X-18.6378 Y-6.7808
G01 X-18.5928 Y-6.8141
G01 X-18.5448 Y-6.8429
G01 X-18.4942 Y-6.8668
G01 X-18.4415 Y-6.8857
G01 X-18.3873 Y-6.8993
G01 X-18.3319 Y-6.9075
G01 X-18.2794 Y-6.9102
G01 X-14.4482 Y-6.9103
G01 X-11.2263 Y-10.1322
G01 X-11.2263 Y-20.5640
G01 X-11.2235 Y-20.6199
G01 X-11.2153 Y-20.6753
G01 X-11.2026 Y-20.7262
G01 X-11.2006 Y-20.7328
G01 X-11.1828 Y-20.7822
G01 X-11.1589 Y-20.8328
G01 X-11.1320 Y-20.8779
G01 X-11.1282 Y-20.8836
G01 X-11.0968 Y-20.9258
G01 X-11.0604 Y-20.9660
G01 X-8.5192 Y-23.5072
G01 X-8.4804 Y-23.5426
G01 X-8.4751 Y-23.5469
G01 X-8.4328 Y-23.5781
G01 X-8.3848 Y-23.6069
G01 X-8.3374 Y-23.6295
G01 X-8.3310 Y-23.6321
G01 X-8.2815 Y-23.6497
G01 X-8.2306 Y-23.6625
G01 X-8.2239 Y-23.6639
G01 X-8.1719 Y-23.6715
G01 X-8.1160 Y-23.6743
G01 X12.7120 Y-23.6743
G01 X12.7645 Y-23.6718
G01 X12.7713 Y-23.6711
G01 X12.8233 Y-23.6633
G01 X12.8775 Y-23.6497
G01 X12.9302 Y-23.6308
G01 X12.9777 Y-23.6085
G01 X12.9838 Y-23.6052
G01 X13.0288 Y-23.5781
G01 X13.0738 Y-23.5448
G01 X13.1152 Y-23.5072
G01 X18.7044 Y-17.9180
G01 X18.7408 Y-17.8778
G01 X18.7722 Y-17.8356
G01 X18.7760 Y-17.8299
G01 X18.8012 Y-17.7878
G01 X18.8045 Y-17.7817
G01 X18.8268 Y-17.7342
G01 X18.8457 Y-17.6815
G01 X18.8593 Y-17.6273
G01 X18.8671 Y-17.5753
G01 X18.8678 Y-17.5685
G01 X18.8703 Y-17.5160
G01 X18.8703 Y17.6450
G01 X18.8678 Y17.6975
G01 X18.8671 Y17.7043
G01 X18.8593 Y17.7563
G01 X18.8457 Y17.8105
G01 X18.8268 Y17.8632
G01 X18.8045 Y17.9107
G01 X18.8012 Y17.9168
G01 X18.7741 Y17.9618
G01 X18.7408 Y18.0068
G01 X18.7032 Y18.0482
G01 X16.7901 Y19.9614
G01 X16.7930 Y20.0220
G01 X16.7891 Y20.1038
G01 X16.7884 Y20.1107
G01 X16.7763 Y20.1917
G01 X16.7565 Y20.2712
G01 X16.7545 Y20.2778
G01 X16.7268 Y20.3549
G01 X16.6911 Y20.4306
G01 X16.6464 Y20.5053
G01 X16.5976 Y20.5712
G01 X16.5933 Y20.5765
G01 X16.5382 Y20.6372
G01 X16.4775 Y20.6923
G01 X16.4722 Y20.6966
G01 X16.4078 Y20.7444
G01 X16.3331 Y20.7893
G01 X16.2559 Y20.8258
G01 X16.1755 Y20.8545
G01 X16.0927 Y20.8753
G01 X16.0083 Y20.8878
G01 X15.9230 Y20.8920
G01 X15.8377 Y20.8878
G01 X15.7533 Y20.8753
G01 X15.6705 Y20.8545
G01 X15.5901 Y20.8258
G01 X15.5129 Y20.7893
G01 X15.4397 Y20.7454
G01 X15.3711 Y20.6945
G01 X15.3078 Y20.6372
G01 X15.2505 Y20.5739
G01 X15.2006 Y20.5068
G01 X15.1574 Y20.4351
G01 X15.1542 Y20.4290
G01 X15.1192 Y20.3549
G01 X15.0905 Y20.2745
G01 X15.0697 Y20.1917
G01 X15.0576 Y20.1107
G01 X15.0569 Y20.1038
G01 X15.0531 Y20.0254
G01 X15.0531 Y20.0186
G01 X15.0572 Y19.9367
G01 X15.0697 Y19.8523
G01 X15.0905 Y19.7695
G01 X15.1180 Y19.6923
G01 X15.1206 Y19.6859
G01 X15.1542 Y19.6150
G01 X15.1574 Y19.6089
G01 X15.1996 Y19.5387
G01 X15.2505 Y19.4701
G01 X15.3078 Y19.4068
G01 X15.3685 Y19.3517
G01 X15.3738 Y19.3474
G01 X15.4397 Y19.2986
G01 X15.5099 Y19.2564
G01 X15.5160 Y19.2532
G01 X15.5885 Y19.2189
G01 X15.6705 Y19.1895
G01 X15.7550 Y19.1684
G01 X15.8343 Y19.1566
G01 X15.8412 Y19.1559
G01 X15.9230 Y19.1520
G01 X15.9837 Y19.1549
G01 X17.7297 Y17.4088
G01 X17.7297 Y-17.2798
G01 X12.4758 Y-22.5337
G01 X-7.8798 Y-22.5337
G01 X-10.0857 Y-20.3278
G01 X-10.0857 Y-9.8960
G01 X-10.0882 Y-9.8435
G01 X-10.0889 Y-9.8367
G01 X-10.0967 Y-9.7847
G01 X-10.1103 Y-9.7305
G01 X-10.1292 Y-9.6778
G01 X-10.1515 Y-9.6303
G01 X-10.1548 Y-9.6242
G01 X-10.1819 Y-9.5792
G01 X-10.2152 Y-9.5342
G01 X-10.2528 Y-9.4928
G01 X-13.8088 Y-5.9368
G01 X-13.8476 Y-5.9014
G01 X-13.8529 Y-5.8971
G01 X-13.8952 Y-5.8659
G01 X-13.9402 Y-5.8388
G01 X-13.9463 Y-5.8355
G01 X-13.9938 Y-5.8132
G01 X-14.0432 Y-5.7954
G01 X-14.0498 Y-5.7934
G01 X-14.1007 Y-5.7807
G01 X-14.1527 Y-5.7729
G01 X-14.1595 Y-5.7722
G01 X-14.2103 Y-5.7698
G01 X-18.0398 Y-5.7697
G01 X-20.9208 Y-2.8888
G01 X-20.9622 Y-2.8512
G01 X-21.0072 Y-2.8179
G01 X-21.0552 Y-2.7891
G01 X-21.1058 Y-2.7652
G01 X-21.1552 Y-2.7474
G01 X-21.1618 Y-2.7454
G01 X-21.2094 Y-2.7335
G01 X-21.2161 Y-2.7321
G01 X-21.2681 Y-2.7245
G01 X-21.3240 Y-2.7217
G01 X-21.3799 Y-2.7245
G01 X-21.4319 Y-2.7321
G01 X-21.4386 Y-2.7335
G01 X-21.4862 Y-2.7454
G01 X-21.4928 Y-2.7474
G01 X-21.5422 Y-2.7652
G01 X-21.5928 Y-2.7891
G01 X-21.6408 Y-2.8179
G01 X-21.6844 Y-2.8501
G01 X-21.7272 Y-2.8888
G01 X-21.7648 Y-2.9302
G01 X-21.7981 Y-2.9752
G01 X-21.8269 Y-3.0232
G01 X-21.8508 Y-3.0738
G01 X-21.8697 Y-3.1265
G01 X-21.8833 Y-3.1807
G01 X-21.8915 Y-3.2361
G01 X-21.8943 Y-3.2920
G01 X-21.8915 Y-3.3479
G01 X-21.8833 Y-3.4033
G01 X-21.8697 Y-3.4575
G01 X-21.8508 Y-3.5102
G01 X-21.8269 Y-3.5608
G01 X-21.7981 Y-3.6088
G01 X-21.7659 Y-3.6524
G01 X-21.7272 Y-3.6952
G01 X-18.6792 Y-6.7432
G00 Z1.0000
G00 X-18.2726 Y-9.9921
G01 F20.00
G01 Z-0.0746
G01 F60.00
G01 X-18.2794 Y-9.9921
G01 X-18.3662 Y-9.9964
G01 X-18.4555 Y-10.0097
G01 X-18.5431 Y-10.0316
G01 X-18.6281 Y-10.0620
G01 X-18.7097 Y-10.1006
G01 X-18.7871 Y-10.1470
G01 X-18.8596 Y-10.2008
G01 X-18.9265 Y-10.2615
G01 X-18.9872 Y-10.3284
G01 X-19.0410 Y-10.4009
G01 X-19.0874 Y-10.4783
G01 X-19.1260 Y-10.5599
G01 X-19.1564 Y-10.6449
G01 X-19.1783 Y-10.7325
G01 X-19.1916 Y-10.8218
G01 X-19.1960 Y-10.9120
G01 X-19.1916 Y-11.0022
G01 X-19.1783 Y-11.0915
G01 X-19.1564 Y-11.1791
G01 X-19.1260 Y-11.2641
G01 X-19.0874 Y-11.3457
G01 X-19.0410 Y-11.4231
G01 X-18.9872 Y-11.4956
G01 X-18.9265 Y-11.5625
G01 X-18.8596 Y-11.6232
G01 X-18.7871 Y-11.6770
G01 X-18.7097 Y-11.7234
G01 X-18.6281 Y-11.7620
G01 X-18.5431 Y-11.7924
G01 X-18.4555 Y-11.8143
G01 X-18.3662 Y-11.8276
G01 X-18.2760 Y-11.8320
G01 X-18.1858 Y-11.8276
G01 X-18.0965 Y-11.8143
G01 X-18.0089 Y-11.7924
G01 X-17.9239 Y-11.7620
G01 X-17.8423 Y-11.7234
G01 X-17.7649 Y-11.6770
G01 X-17.6924 Y-11.6232
G01 X-17.6255 Y-11.5625
G01 X-17.5648 Y-11.4956
G01 X-17.5110 Y-11.4231
G01 X-17.4646 Y-11.3457
G01 X-17.4260 Y-11.2641
G01 X-17.3956 Y-11.1791
G01 X-17.3737 Y-11.0915
G01 X-17.3604 Y-11.0022
G01 X-17.3560 Y-10.9120
G01 X-17.3604 Y-10.8218
G01 X-17.3737 Y-10.7325
G01 X-17.3956 Y-10.6449
G01 X-17.4260 Y-10.5599
G01 X-17.4646 Y-10.4783
G01 X-17.5110 Y-10.4009
G01 X-17.5648 Y-10.3284
G01 X-17.6255 Y-10.2615
G01 X-17.6924 Y-10.2008
G01 X-17.7649 Y-10.1470
G01 X-17.8423 Y-10.1006
G01 X-17.9239 Y-10.0620
G01 X-18.0089 Y-10.0316
G01 X-18.0965 Y-10.0097
G01 X-18.1858 Y-9.9964
G01 X-18.2726 Y-9.9921
G00 Z1.0000
G00 X-23.3526 Y-9.9921
G01 F20.00
G01 Z-0.0746
G01 F60.00
G01 X-23.3594 Y-9.9921
G01 X-23.4462 Y-9.9964
G01 X-23.5355 Y-10.0097
G01 X-23.6231 Y-10.0316
G01 X-23.7081 Y-10.0620
G01 X-23.7897 Y-10.1006
G01 X-23.8671 Y-10.1470
G01 X-23.9396 Y-10.2008
G01 X-24.0065 Y-10.2615
G01 X-24.0672 Y-10.3284
G01 X-24.1210 Y-10.4009
G01 X-24.1674 Y-10.4783
G01 X-24.2060 Y-10.5599
G01 X-24.2364 Y-10.6449
G01 X-24.2583 Y-10.7325
G01 X-24.2716 Y-10.8218
G01 X-24.2760 Y-10.9120
G01 X-24.2716 Y-11.0022
G01 X-24.2583 Y-11.0915
G01 X-24.2364 Y-11.1791
G01 X-24.2060 Y-11.2641
G01 X-24.1674 Y-11.3457
G01 X-24.1210 Y-11.4231
G01 X-24.0672 Y-11.4956
G01 X-24.0065 Y-11.5625
G01 X-23.9396 Y-11.6232
G01 X-23.8671 Y-11.6770
G01 X-23.7897 Y-11.7234
G01 X-23.7081 Y-11.7620
G01 X-23.6231 Y-11.7924
G01 X-23.5355 Y-11.8143
G01 X-23.4462 Y-11.8276
G01 X-23.3560 Y-11.8320
G01 X-23.2658 Y-11.8276
G01 X-23.1765 Y-11.8143
G01 X-23.0889 Y-11.7924
G01 X-23.0071 Y-11.7632
G01 X-23.0008 Y-11.7606
G01 X-22.9254 Y-11.7249
G01 X-22.9193 Y-11.7217
G01 X-22.8449 Y-11.6770
G01 X-22.7724 Y-11.6232
G01 X-22.7080 Y-11.5649
G01 X-22.7031 Y-11.5601
G01 X-22.6448 Y-11.4956
G01 X-22.5988 Y-11.4338
G01 X-22.5592 Y-11.4149
G01 X-22.5141 Y-11.3880
G01 X-22.5083 Y-11.3842
G01 X-22.4662 Y-11.3528
G01 X-22.4272 Y-11.3176
G01 X-22.4224 Y-11.3127
G01 X-22.3872 Y-11.2738
G01 X-22.3558 Y-11.2316
G01 X-22.3520 Y-11.2259
G01 X-22.3267 Y-11.1838
G01 X-22.3235 Y-11.1777
G01 X-22.3011 Y-11.1302
G01 X-22.2823 Y-11.0775
G01 X-22.2687 Y-11.0233
G01 X-22.2609 Y-10.9713
G01 X-22.2602 Y-10.9645
G01 X-22.2577 Y-10.9120
G01 X-22.2605 Y-10.8561
G01 X-22.2681 Y-10.8041
G01 X-22.2694 Y-10.7974
G01 X-22.2823 Y-10.7465
G01 X-22.2999 Y-10.6970
G01 X-22.3025 Y-10.6906
G01 X-22.3251 Y-10.6432
G01 X-22.3529 Y-10.5966
G01 X-22.3872 Y-10.5502
G01 X-22.4235 Y-10.5100
G01 X-22.6087 Y-10.3248
G01 X-22.6502 Y-10.2872
G01 X-22.6952 Y-10.2539
G01 X-22.7402 Y-10.2268
G01 X-22.7482 Y-10.2226
G01 X-22.7737 Y-10.1998
G01 X-22.8463 Y-10.1461
G01 X-22.9223 Y-10.1006
G01 X-23.0039 Y-10.0620
G01 X-23.0889 Y-10.0316
G01 X-23.1765 Y-10.0097
G01 X-23.2658 Y-9.9964
G01 X-23.3526 Y-9.9921
G00 Z1.0000
G00 X-25.8926 Y-9.9921
G01 F20.00
G01 Z-0.0746
G01 F60.00
G01 X-25.8994 Y-9.9921
G01 X-25.9862 Y-9.9964
G01 X-26.0755 Y-10.0097
G01 X-26.1631 Y-10.0316
G01 X-26.2481 Y-10.0620
G01 X-26.3297 Y-10.1006
G01 X-26.4071 Y-10.1470
G01 X-26.4796 Y-10.2008
G01 X-26.5465 Y-10.2615
G01 X-26.6072 Y-10.3284
G01 X-26.6610 Y-10.4009
G01 X-26.7074 Y-10.4783
G01 X-26.7460 Y-10.5599
G01 X-26.7764 Y-10.6449
G01 X-26.7983 Y-10.7325
G01 X-26.8116 Y-10.8218
G01 X-26.8160 Y-10.9120
G01 X-26.8116 Y-11.0022
G01 X-26.7983 Y-11.0915
G01 X-26.7764 Y-11.1791
G01 X-26.7460 Y-11.2641
G01 X-26.7074 Y-11.3457
G01 X-26.6610 Y-11.4231
G01 X-26.6072 Y-11.4956
G01 X-26.5465 Y-11.5625
G01 X-26.4796 Y-11.6232
G01 X-26.4071 Y-11.6770
G01 X-26.3297 Y-11.7234
G01 X-26.2481 Y-11.7620
G01 X-26.1631 Y-11.7924
G01 X-26.0755 Y-11.8143
G01 X-25.9862 Y-11.8276
G01 X-25.8960 Y-11.8320
G01 X-25.8058 Y-11.8276
G01 X-25.7165 Y-11.8143
G01 X-25.6289 Y-11.7924
G01 X-25.5439 Y-11.7620
G01 X-25.4623 Y-11.7234
G01 X-25.3849 Y-11.6770
G01 X-25.3124 Y-11.6232
G01 X-25.2455 Y-11.5625
G01 X-25.1848 Y-11.4956
G01 X-25.1310 Y-11.4231
G01 X-25.0846 Y-11.3457
G01 X-25.0460 Y-11.2641
G01 X-25.0156 Y-11.1791
G01 X-24.9937 Y-11.0915
G01 X-24.9804 Y-11.0022
G01 X-24.9760 Y-10.9120
G01 X-24.9804 Y-10.8218
G01 X-24.9937 Y-10.7325
G01 X-25.0156 Y-10.6449
G01 X-25.0460 Y-10.5599
G01 X-25.0846 Y-10.4783
G01 X-25.1310 Y-10.4009
G01 X-25.1848 Y-10.3284
G01 X-25.2455 Y-10.2615
G01 X-25.3124 Y-10.2008
G01 X-25.3849 Y-10.1470
G01 X-25.4623 Y-10.1006
G01 X-25.5439 Y-10.0620
G01 X-25.6289 Y-10.0316
G01 X-25.7165 Y-10.0097
G01 X-25.8058 Y-9.9964
G01 X-25.8926 Y-9.9921
G00 Z1.0000
G00 X-28.4326 Y-9.9921
G01 F20.00
G01 Z-0.0746
G01 F60.00
G01 X-28.4394 Y-9.9921
G01 X-28.5262 Y-9.9964
G01 X-28.6155 Y-10.0097
G01 X-28.7031 Y-10.0316
G01 X-28.7881 Y-10.0620
G01 X-28.8697 Y-10.1006
G01 X-28.9471 Y-10.1470
G01 X-29.0196 Y-10.2008
G01 X-29.0865 Y-10.2615
G01 X-29.1472 Y-10.3284
G01 X-29.2010 Y-10.4009
G01 X-29.2474 Y-10.4783
G01 X-29.2860 Y-10.5599
G01 X-29.3164 Y-10.6449
G01 X-29.3383 Y-10.7325
G01 X-29.3516 Y-10.8218
G01 X-29.3560 Y-10.9120
G01 X-29.3516 Y-11.0022
G01 X-29.3383 Y-11.0915
G01 X-29.3164 Y-11.1791
G01 X-29.2860 Y-11.2641
G01 X-29.2474 Y-11.3457
G01 X-29.2010 Y-11.4231
G01 X-29.1472 Y-11.4956
G01 X-29.0865 Y-11.5625
G01 X-29.0196 Y-11.6232
G01 X-28.9471 Y-11.6770
G01 X-28.8697 Y-11.7234
G01 X-28.7881 Y-11.7620
G01 X-28.7031 Y-11.7924
G01 X-28.6155 Y-11.8143
G01 X-28.5262 Y-11.8276
G01 X-28.4360 Y-11.8320
G01 X-28.3458 Y-11.8276
G01 X-28.2565 Y-11.8143
G01 X-28.1689 Y-11.7924
G01 X-28.0839 Y-11.7620
G01 X-28.0023 Y-11.7234
G01 X-27.9249 Y-11.6770
G01 X-27.8524 Y-11.6232
G01 X-27.7855 Y-11.5625
G01 X-27.7248 Y-11.4956
G01 X-27.6710 Y-11.4231
G01 X-27.6246 Y-11.3457
G01 X-27.5860 Y-11.2641
G01 X-27.5556 Y-11.1791
G01 X-27.5337 Y-11.0915
G01 X-27.5204 Y-11.0022
G01 X-27.5160 Y-10.9120
G01 X-27.5204 Y-10.8218
G01 X-27.5337 Y-10.7325
G01 X-27.5556 Y-10.6449
G01 X-27.5860 Y-10.5599
G01 X-27.6246 Y-10.4783
G01 X-27.6710 Y-10.4009
G01 X-27.7248 Y-10.3284
G01 X-27.7855 Y-10.2615
G01 X-27.8524 Y-10.2008
G01 X-27.9249 Y-10.1470
G01 X-28.0023 Y-10.1006
G01 X-28.0839 Y-10.0620
G01 X-28.1689 Y-10.0316
G01 X-28.2565 Y-10.0097
G01 X-28.3458 Y-9.9964
G01 X-28.4326 Y-9.9921
G00 Z1.0000
G00 X-33.0703 Y-11.4200
G01 F20.00
G01 Z-0.0746
G01 F60.00
G01 X-33.0675 Y-11.4759
G01 X-33.0593 Y-11.5313
G01 X-33.0457 Y-11.5855
G01 X-33.0268 Y-11.6382
G01 X-33.0029 Y-11.6888
G01 X-32.9741 Y-11.7368
G01 X-32.9408 Y-11.7818
G01 X-32.9032 Y-11.8232
G01 X-31.3792 Y-13.3472
G01 X-31.3391 Y-13.3837
G01 X-31.2928 Y-13.4181
G01 X-31.2478 Y-13.4452
G01 X-31.2417 Y-13.4485
G01 X-31.1974 Y-13.4695
G01 X-31.1910 Y-13.4721
G01 X-31.1415 Y-13.4897
G01 X-31.0873 Y-13.5033
G01 X-31.0319 Y-13.5115
G01 X-30.9777 Y-13.5142
G01 X-16.7520 Y-13.5143
G01 X-16.6961 Y-13.5115
G01 X-16.6407 Y-13.5033
G01 X-16.5898 Y-13.4906
G01 X-16.5832 Y-13.4886
G01 X-16.5338 Y-13.4708
G01 X-16.4832 Y-13.4469
G01 X-16.4381 Y-13.4200
G01 X-16.4324 Y-13.4162
G01 X-16.3889 Y-13.3837
G01 X-16.3488 Y-13.3472
G01 X-15.3304 Y-12.3287
G01 X-15.2974 Y-12.2924
G01 X-15.2931 Y-12.2871
G01 X-15.2619 Y-12.2448
G01 X-15.2348 Y-12.1998
G01 X-15.2315 Y-12.1937
G01 X-15.2092 Y-12.1462
G01 X-15.1908 Y-12.0952
G01 X-15.1767 Y-12.0393
G01 X-15.1685 Y-11.9839
G01 X-15.1658 Y-11.9297
G01 X-15.1657 Y-11.8320
G01 X-14.8860 Y-11.8320
G01 X-14.8791 Y-11.8317
G01 X-14.8723 Y-11.8307
G01 X-14.8673 Y-11.8295
G01 X-14.8608 Y-11.8273
G01 X-14.8561 Y-11.8253
G01 X-14.8500 Y-11.8220
G01 X-14.8416 Y-11.8161
G01 X-14.8377 Y-11.8127
G01 X-14.8330 Y-11.8077
G01 X-14.8288 Y-11.8023
G01 X-14.8260 Y-11.7980
G01 X-14.8235 Y-11.7935
G01 X-14.8207 Y-11.7872
G01 X-14.8185 Y-11.7807
G01 X-14.8173 Y-11.7757
G01 X-14.8163 Y-11.7689
G01 X-14.8160 Y-11.7637
G01 X-14.8161 Y-10.0586
G01 X-14.8168 Y-10.0517
G01 X-14.8181 Y-10.0450
G01 X-14.8201 Y-10.0384
G01 X-14.8220 Y-10.0336
G01 X-14.8251 Y-10.0275
G01 X-14.8278 Y-10.0231
G01 X-14.8319 Y-10.0176
G01 X-14.8365 Y-10.0125
G01 X-14.8416 Y-10.0079
G01 X-14.8471 Y-10.0038
G01 X-14.8515 Y-10.0011
G01 X-14.8576 Y-9.9980
G01 X-14.8640 Y-9.9955
G01 X-14.8707 Y-9.9937
G01 X-14.8774 Y-9.9925
G01 X-14.8843 Y-9.9920
G01 X-16.5877 Y-9.9920
G01 X-16.5946 Y-9.9925
G01 X-16.6013 Y-9.9937
G01 X-16.6080 Y-9.9955
G01 X-16.6159 Y-9.9987
G01 X-16.6220 Y-10.0020
G01 X-16.6277 Y-10.0058
G01 X-16.6343 Y-10.0113
G01 X-16.6390 Y-10.0163
G01 X-16.6432 Y-10.0217
G01 X-16.6469 Y-10.0275
G01 X-16.6500 Y-10.0336
G01 X-16.6519 Y-10.0384
G01 X-16.6535 Y-10.0433
G01 X-16.6550 Y-10.0500
G01 X-16.6558 Y-10.0569
G01 X-16.6560 Y-10.0620
G01 X-16.6560 Y-11.7620
G01 X-16.6557 Y-11.7689
G01 X-16.6539 Y-11.7790
G01 X-16.6507 Y-11.7888
G01 X-16.6460 Y-11.7980
G01 X-16.6401 Y-11.8064
G01 X-16.6330 Y-11.8139
G01 X-16.6249 Y-11.8202
G01 X-16.6159 Y-11.8253
G01 X-16.6063 Y-11.8290
G01 X-16.5980 Y-11.8310
G01 X-16.5877 Y-11.8320
G01 X-16.4465 Y-11.8320
G01 X-16.9882 Y-12.3737
G01 X-30.7398 Y-12.3737
G01 X-31.9297 Y-11.1838
G01 X-31.9298 Y19.0617
G01 X-31.9325 Y19.1159
G01 X-31.9407 Y19.1713
G01 X-31.9543 Y19.2255
G01 X-31.9732 Y19.2782
G01 X-31.9971 Y19.3288
G01 X-32.0259 Y19.3768
G01 X-32.0592 Y19.4218
G01 X-32.0968 Y19.4632
G01 X-32.1382 Y19.5008
G01 X-32.1832 Y19.5341
G01 X-32.2312 Y19.5629
G01 X-32.2818 Y19.5868
G01 X-32.3345 Y19.6057
G01 X-32.3887 Y19.6193
G01 X-32.4441 Y19.6275
G01 X-32.4983 Y19.6302
G01 X-32.5559 Y19.6275
G01 X-32.6113 Y19.6193
G01 X-32.6655 Y19.6057
G01 X-32.7182 Y19.5868
G01 X-32.7688 Y19.5629
G01 X-32.8168 Y19.5341
G01 X-32.8618 Y19.5008
G01 X-32.9032 Y19.4632
G01 X-32.9408 Y19.4218
G01 X-32.9741 Y19.3768
G01 X-33.0029 Y19.3288
G01 X-33.0268 Y19.2782
G01 X-33.0457 Y19.2255
G01 X-33.0593 Y19.1713
G01 X-33.0675 Y19.1159
G01 X-33.0702 Y19.0617
G01 X-33.0703 Y-11.4200
G00 Z1.0000
G00 X-35.1650 Y-13.0000
G01 F20.00
G01 Z-0.0746
G01 F60.00
G01 X-35.2552 Y-13.0044
G01 X-35.3411 Y-13.0171
G01 X-35.3478 Y-13.0184
G01 X-35.4321 Y-13.0396
G01 X-35.5139 Y-13.0688
G01 X-35.5202 Y-13.0714
G01 X-35.5987 Y-13.1086
G01 X-35.6732 Y-13.1532
G01 X-35.6789 Y-13.1570
G01 X-35.7486 Y-13.2088
G01 X-35.8131 Y-13.2671
G01 X-35.8179 Y-13.2720
G01 X-35.8762 Y-13.3364
G01 X-35.9300 Y-13.4089
G01 X-35.9747 Y-13.4833
G01 X-35.9779 Y-13.4894
G01 X-36.0150 Y-13.5679
G01 X-36.0443 Y-13.6497
G01 X-36.0463 Y-13.6563
G01 X-36.0673 Y-13.7405
G01 X-36.0806 Y-13.8298
G01 X-36.0849 Y-13.9166
G01 X-36.0849 Y-13.9234
G01 X-36.0806 Y-14.0102
G01 X-36.0679 Y-14.0961
G01 X-36.0666 Y-14.1028
G01 X-36.0454 Y-14.1871
G01 X-36.0150 Y-14.2721
G01 X-35.9764 Y-14.3537
G01 X-35.9318 Y-14.4282
G01 X-35.9280 Y-14.4339
G01 X-35.8762 Y-14.5036
G01 X-35.8179 Y-14.5681
G01 X-35.8131 Y-14.5729
G01 X-35.7486 Y-14.6312
G01 X-35.6761 Y-14.6850
G01 X-35.5987 Y-14.7314
G01 X-35.5171 Y-14.7700
G01 X-35.4321 Y-14.8004
G01 X-35.3445 Y-14.8223
G01 X-35.2552 Y-14.8356
G01 X-35.1684 Y-14.8399
G01 X-34.9265 Y-14.8400
G01 X-34.3872 Y-15.3792
G01 X-34.3458 Y-15.4168
G01 X-34.2994 Y-15.4511
G01 X-34.2543 Y-15.4781
G01 X-34.2413 Y-15.4845
G01 X-34.2022 Y-15.5028
G01 X-34.1528 Y-15.5206
G01 X-34.1462 Y-15.5226
G01 X-34.0953 Y-15.5353
G01 X-34.0399 Y-15.5435
G01 X-33.9840 Y-15.5463
G01 X-22.0682 Y-15.5463
G01 X-16.6560 Y-20.9585
G01 X-16.6560 Y-21.9237
G01 X-16.6555 Y-21.9306
G01 X-16.6539 Y-21.9390
G01 X-16.6519 Y-21.9456
G01 X-16.6493 Y-21.9519
G01 X-16.6460 Y-21.9580
G01 X-16.6422 Y-21.9637
G01 X-16.6367 Y-21.9703
G01 X-16.6317 Y-21.9750
G01 X-16.6263 Y-21.9792
G01 X-16.6205 Y-21.9829
G01 X-16.6144 Y-21.9860
G01 X-16.6096 Y-21.9879
G01 X-16.6030 Y-21.9899
G01 X-16.5980 Y-21.9910
G01 X-16.5929 Y-21.9917
G01 X-16.5860 Y-21.9920
G01 X-14.8843 Y-21.9920
G01 X-14.8740 Y-21.9910
G01 X-14.8640 Y-21.9885
G01 X-14.8545 Y-21.9845
G01 X-14.8471 Y-21.9802
G01 X-14.8390 Y-21.9739
G01 X-14.8319 Y-21.9664
G01 X-14.8269 Y-21.9595
G01 X-14.8220 Y-21.9504
G01 X-14.8195 Y-21.9440
G01 X-14.8173 Y-21.9357
G01 X-14.8163 Y-21.9289
G01 X-14.8160 Y-21.9220
G01 X-14.8160 Y-20.2220
G01 X-14.8163 Y-20.2151
G01 X-14.8170 Y-20.2100
G01 X-14.8185 Y-20.2033
G01 X-14.8207 Y-20.1968
G01 X-14.8227 Y-20.1921
G01 X-14.8260 Y-20.1860
G01 X-14.8298 Y-20.1803
G01 X-14.8341 Y-20.1750
G01 X-14.8390 Y-20.1701
G01 X-14.8443 Y-20.1658
G01 X-14.8500 Y-20.1620
G01 X-14.8561 Y-20.1587
G01 X-14.8624 Y-20.1561
G01 X-14.8707 Y-20.1537
G01 X-14.8774 Y-20.1525
G01 X-14.8843 Y-20.1520
G01 X-15.8495 Y-20.1520
G01 X-21.4288 Y-14.5728
G01 X-21.4702 Y-14.5352
G01 X-21.5152 Y-14.5019
G01 X-21.5632 Y-14.4731
G01 X-21.6122 Y-14.4498
G01 X-21.6665 Y-14.4303
G01 X-21.7207 Y-14.4167
G01 X-21.7761 Y-14.4085
G01 X-21.8320 Y-14.4057
G01 X-33.7478 Y-14.4057
G01 X-34.0209 Y-14.1326
G01 X-34.0124 Y-14.0978
G01 X-33.9996 Y-14.0119
G01 X-33.9950 Y-13.9183
G01 X-33.9992 Y-13.8333
G01 X-33.9999 Y-13.8264
G01 X-34.0127 Y-13.7405
G01 X-34.0341 Y-13.6546
G01 X-34.0650 Y-13.5679
G01 X-34.1021 Y-13.4894
G01 X-34.1053 Y-13.4833
G01 X-34.1500 Y-13.4089
G01 X-34.2017 Y-13.3391
G01 X-34.2061 Y-13.3338
G01 X-34.2645 Y-13.2695
G01 X-34.3288 Y-13.2111
G01 X-34.3341 Y-13.2067
G01 X-34.4039 Y-13.1550
G01 X-34.4783 Y-13.1103
G01 X-34.4844 Y-13.1071
G01 X-34.5629 Y-13.0700
G01 X-34.6479 Y-13.0396
G01 X-34.7355 Y-13.0177
G01 X-34.8265 Y-13.0043
G01 X-34.9133 Y-13.0000
G01 X-35.1650 Y-13.0000
G00 Z1.0000
G00 X-36.1502 Y-13.9200
G01 F20.00
G01 Z-0.0746
G01 F60.00
G01 X-36.1313 Y-14.1122
G01 X-36.0789 Y-14.2849
G01 X-36.0752 Y-14.2970
G01 X-35.9842 Y-14.4674
G01 X-35.8617 Y-14.6167
G01 X-35.7124 Y-14.7392
G01 X-35.6802 Y-14.7564
G01 X-35.6726 Y-14.7611
G01 X-35.5732 Y-14.8359
G01 X-35.5680 Y-14.8402
G01 X-35.5623 Y-14.8461
G01 X-35.5582 Y-14.8513
G01 X-35.4872 Y-14.9514
G01 X-35.4813 Y-14.9613
G01 X-35.4776 Y-14.9706
G01 X-35.4404 Y-15.0874
G01 X-35.4387 Y-15.0938
G01 X-35.4374 Y-15.1021
G01 X-35.4371 Y-15.1087
G01 X-35.4371 Y-15.2330
G01 X-35.4380 Y-15.2429
G01 X-35.4404 Y-15.2526
G01 X-35.4776 Y-15.3694
G01 X-35.4813 Y-15.3787
G01 X-35.4872 Y-15.3886
G01 X-35.5582 Y-15.4887
G01 X-35.5645 Y-15.4963
G01 X-35.5718 Y-15.5031
G01 X-35.6726 Y-15.5789
G01 X-35.6802 Y-15.5836
G01 X-35.7124 Y-15.6008
G01 X-35.8617 Y-15.7233
G01 X-35.9842 Y-15.8726
G01 X-36.0752 Y-16.0430
G01 X-36.1313 Y-16.2278
G01 X-36.1502 Y-16.4200
G01 X-36.1313 Y-16.6122
G01 X-36.0789 Y-16.7849
G01 X-36.0752 Y-16.7970
G01 X-35.9842 Y-16.9674
G01 X-35.8617 Y-17.1167
G01 X-35.7124 Y-17.2392
G01 X-35.6802 Y-17.2564
G01 X-35.6726 Y-17.2611
G01 X-35.5732 Y-17.3359
G01 X-35.5668 Y-17.3413
G01 X-35.5623 Y-17.3461
G01 X-35.5582 Y-17.3513
G01 X-35.4872 Y-17.4514
G01 X-35.4813 Y-17.4613
G01 X-35.4776 Y-17.4706
G01 X-35.4404 Y-17.5874
G01 X-35.4380 Y-17.5971
G01 X-35.4371 Y-17.6087
G01 X-35.4371 Y-17.7313
G01 X-35.4380 Y-17.7429
G01 X-35.4404 Y-17.7526
G01 X-35.4781 Y-17.8710
G01 X-35.4820 Y-17.8801
G01 X-35.4872 Y-17.8886
G01 X-35.5582 Y-17.9887
G01 X-35.5623 Y-17.9939
G01 X-35.5668 Y-17.9987
G01 X-35.5732 Y-18.0041
G01 X-35.6726 Y-18.0789
G01 X-35.6802 Y-18.0836
G01 X-35.7124 Y-18.1008
G01 X-35.8617 Y-18.2233
G01 X-35.9842 Y-18.3726
G01 X-36.0752 Y-18.5430
G01 X-36.1313 Y-18.7278
G01 X-36.1502 Y-18.9200
G01 X-36.1313 Y-19.1122
G01 X-36.0789 Y-19.2849
G01 X-36.0752 Y-19.2970
G01 X-35.9842 Y-19.4674
G01 X-35.8617 Y-19.6167
G01 X-35.8518 Y-19.6247
G01 X-35.7124 Y-19.7392
G01 X-35.5420 Y-19.8302
G01 X-35.3572 Y-19.8863
G01 X-35.2132 Y-19.9005
G01 X-34.8668 Y-19.9005
G01 X-34.7228 Y-19.8863
G01 X-34.5380 Y-19.8302
G01 X-34.3676 Y-19.7392
G01 X-34.2649 Y-19.6550
G01 X-34.1843 Y-19.6028
G01 X-34.1749 Y-19.5977
G01 X-34.0841 Y-19.5650
G01 X-34.0772 Y-19.5630
G01 X-34.0685 Y-19.5614
G01 X-33.9731 Y-19.5506
G01 X-29.4379 Y-19.5505
G01 X-29.4276 Y-19.5513
G01 X-29.3118 Y-19.5684
G01 X-29.3067 Y-19.5694
G01 X-29.3001 Y-19.5712
G01 X-29.2921 Y-19.5744
G01 X-29.1863 Y-19.6245
G01 X-29.1817 Y-19.6268
G01 X-29.1759 Y-19.6305
G01 X-29.1692 Y-19.6359
G01 X-29.0812 Y-19.7157
G01 X-29.0753 Y-19.7220
G01 X-29.0694 Y-19.7304
G01 X-29.0092 Y-19.8308
G01 X-29.0046 Y-19.8400
G01 X-29.0013 Y-19.8498
G01 X-28.9729 Y-19.9634
G01 X-28.9711 Y-19.9735
G01 X-28.9708 Y-19.9821
G01 X-28.9766 Y-20.1008
G01 X-28.9779 Y-20.1110
G01 X-28.9806 Y-20.1209
G01 X-29.0207 Y-20.2328
G01 X-29.0235 Y-20.2391
G01 X-29.0268 Y-20.2450
G01 X-29.1016 Y-20.3460
G01 X-29.1050 Y-20.3499
G01 X-29.1190 Y-20.3638
G01 X-29.1327 Y-20.3753
G01 X-29.2552 Y-20.5246
G01 X-29.3462 Y-20.6950
G01 X-29.4023 Y-20.8798
G01 X-29.4042 Y-20.8988
G01 X-29.4212 Y-21.0720
G01 X-29.4023 Y-21.2642
G01 X-29.3462 Y-21.4490
G01 X-29.3403 Y-21.4602
G01 X-29.2552 Y-21.6194
G01 X-29.1327 Y-21.7687
G01 X-28.9834 Y-21.8912
G01 X-28.8242 Y-21.9763
G01 X-28.8130 Y-21.9822
G01 X-28.6282 Y-22.0383
G01 X-28.4360 Y-22.0572
G01 X-28.2564 Y-22.0396
G01 X-28.2438 Y-22.0383
G01 X-28.0590 Y-21.9822
G01 X-27.8886 Y-21.8912
G01 X-27.7393 Y-21.7687
G01 X-27.6168 Y-21.6194
G01 X-27.5796 Y-21.5498
G01 X-27.5759 Y-21.5437
G01 X-27.4991 Y-21.4414
G01 X-27.4935 Y-21.4352
G01 X-27.4886 Y-21.4308
G01 X-27.3846 Y-21.3568
G01 X-27.3747 Y-21.3509
G01 X-27.3654 Y-21.3472
G01 X-27.2470 Y-21.3095
G01 X-27.2372 Y-21.3074
G01 X-27.2273 Y-21.3066
G01 X-27.1047 Y-21.3066
G01 X-27.0931 Y-21.3076
G01 X-27.0834 Y-21.3099
G01 X-26.9666 Y-21.3472
G01 X-26.9573 Y-21.3509
G01 X-26.9487 Y-21.3558
G01 X-26.8460 Y-21.4287
G01 X-26.8385 Y-21.4352
G01 X-26.8329 Y-21.4414
G01 X-26.7561 Y-21.5437
G01 X-26.7524 Y-21.5498
G01 X-26.7152 Y-21.6194
G01 X-26.5927 Y-21.7687
G01 X-26.4434 Y-21.8912
G01 X-26.2730 Y-21.9822
G01 X-26.2609 Y-21.9859
G01 X-26.0882 Y-22.0383
G01 X-25.8960 Y-22.0572
G01 X-25.7038 Y-22.0383
G01 X-25.5190 Y-21.9822
G01 X-25.3486 Y-21.8912
G01 X-25.1993 Y-21.7687
G01 X-25.0768 Y-21.6194
G01 X-25.0396 Y-21.5498
G01 X-25.0359 Y-21.5437
G01 X-24.9601 Y-21.4427
G01 X-24.9558 Y-21.4376
G01 X-24.9499 Y-21.4318
G01 X-24.9447 Y-21.4277
G01 X-24.8446 Y-21.3568
G01 X-24.8347 Y-21.3509
G01 X-24.8254 Y-21.3472
G01 X-24.7070 Y-21.3095
G01 X-24.6972 Y-21.3074
G01 X-24.6873 Y-21.3066
G01 X-24.5647 Y-21.3066
G01 X-24.5531 Y-21.3076
G01 X-24.5434 Y-21.3099
G01 X-24.4266 Y-21.3472
G01 X-24.4173 Y-21.3509
G01 X-24.4087 Y-21.3558
G01 X-24.3060 Y-21.4287
G01 X-24.2997 Y-21.4341
G01 X-24.2929 Y-21.4414
G01 X-24.2161 Y-21.5437
G01 X-24.2124 Y-21.5498
G01 X-24.1752 Y-21.6194
G01 X-24.0527 Y-21.7687
G01 X-23.9034 Y-21.8912
G01 X-23.7330 Y-21.9822
G01 X-23.7209 Y-21.9859
G01 X-23.5482 Y-22.0383
G01 X-23.3560 Y-22.0572
G01 X-23.1638 Y-22.0383
G01 X-22.9790 Y-21.9822
G01 X-22.8086 Y-21.8912
G01 X-22.6593 Y-21.7687
G01 X-22.5368 Y-21.6194
G01 X-22.4996 Y-21.5498
G01 X-22.4959 Y-21.5437
G01 X-22.4201 Y-21.4427
G01 X-22.4158 Y-21.4376
G01 X-22.4099 Y-21.4318
G01 X-22.4047 Y-21.4277
G01 X-22.3046 Y-21.3568
G01 X-22.2947 Y-21.3509
G01 X-22.2854 Y-21.3472
G01 X-22.1670 Y-21.3095
G01 X-22.1572 Y-21.3074
G01 X-22.1473 Y-21.3066
G01 X-22.0247 Y-21.3066
G01 X-22.0131 Y-21.3076
G01 X-22.0034 Y-21.3099
G01 X-21.8866 Y-21.3472
G01 X-21.8773 Y-21.3509
G01 X-21.8687 Y-21.3558
G01 X-21.7660 Y-21.4287
G01 X-21.7585 Y-21.4352
G01 X-21.7529 Y-21.4414
G01 X-21.6761 Y-21.5437
G01 X-21.6724 Y-21.5498
G01 X-21.6352 Y-21.6194
G01 X-21.5127 Y-21.7687
G01 X-21.3634 Y-21.8912
G01 X-21.1930 Y-21.9822
G01 X-21.1809 Y-21.9859
G01 X-21.0082 Y-22.0383
G01 X-20.8160 Y-22.0572
G01 X-20.6238 Y-22.0383
G01 X-20.4390 Y-21.9822
G01 X-20.2686 Y-21.8912
G01 X-20.1193 Y-21.7687
G01 X-19.9968 Y-21.6194
G01 X-19.9596 Y-21.5498
G01 X-19.9559 Y-21.5437
G01 X-19.8801 Y-21.4427
G01 X-19.8758 Y-21.4376
G01 X-19.8699 Y-21.4318
G01 X-19.8647 Y-21.4277
G01 X-19.7646 Y-21.3568
G01 X-19.7547 Y-21.3509
G01 X-19.7454 Y-21.3472
G01 X-19.6270 Y-21.3095
G01 X-19.6172 Y-21.3074
G01 X-19.6073 Y-21.3066
G01 X-19.4847 Y-21.3066
G01 X-19.4731 Y-21.3076
G01 X-19.4634 Y-21.3099
G01 X-19.3466 Y-21.3472
G01 X-19.3389 Y-21.3502
G01 X-19.3301 Y-21.3549
G01 X-19.2273 Y-21.4277
G01 X-19.2221 Y-21.4318
G01 X-19.2173 Y-21.4364
G01 X-19.2119 Y-21.4427
G01 X-19.1361 Y-21.5437
G01 X-19.1324 Y-21.5498
G01 X-19.0952 Y-21.6194
G01 X-18.9727 Y-21.7687
G01 X-18.8234 Y-21.8912
G01 X-18.6530 Y-21.9822
G01 X-18.4682 Y-22.0383
G01 X-18.2760 Y-22.0572
G01 X-18.0964 Y-22.0396
G01 X-18.0838 Y-22.0383
G01 X-17.8990 Y-21.9822
G01 X-17.7286 Y-21.8912
G01 X-17.5793 Y-21.7687
G01 X-17.5404 Y-21.7213
G01 X-17.5358 Y-21.7162
G01 X-17.4466 Y-21.6352
G01 X-17.4413 Y-21.6309
G01 X-17.4356 Y-21.6270
G01 X-17.4295 Y-21.6238
G01 X-17.3237 Y-21.5737
G01 X-17.3141 Y-21.5700
G01 X-17.3041 Y-21.5678
G01 X-17.1883 Y-21.5506
G01 X-17.1780 Y-21.5498
G01 X-17.1677 Y-21.5506
G01 X-17.0519 Y-21.5677
G01 X-17.0419 Y-21.5700
G01 X-17.0323 Y-21.5737
G01 X-16.9264 Y-21.6237
G01 X-16.9175 Y-21.6288
G01 X-16.9106 Y-21.6340
G01 X-16.8213 Y-21.7149
G01 X-16.8155 Y-21.7212
G01 X-16.8095 Y-21.7296
G01 X-16.7493 Y-21.8300
G01 X-16.7454 Y-21.8376
G01 X-16.7419 Y-21.8473
G01 X-16.7277 Y-21.9038
G01 X-16.7225 Y-21.9134
G01 X-16.7190 Y-21.9231
G01 X-16.7089 Y-21.9729
G01 X-16.6801 Y-22.0161
G01 X-16.6369 Y-22.0449
G01 X-16.5989 Y-22.0525
G01 X-14.8731 Y-22.0525
G01 X-14.8351 Y-22.0449
G01 X-14.7919 Y-22.0161
G01 X-14.7631 Y-21.9729
G01 X-14.7555 Y-21.9349
G01 X-14.7555 Y-20.2091
G01 X-14.7631 Y-20.1711
G01 X-14.7919 Y-20.1279
G01 X-14.8351 Y-20.0991
G01 X-14.8731 Y-20.0915
G01 X-15.6324 Y-20.0915
G01 X-15.6397 Y-20.0909
G01 X-15.7446 Y-20.0771
G01 X-15.7528 Y-20.0753
G01 X-15.7606 Y-20.0726
G01 X-15.8569 Y-20.0327
G01 X-15.8643 Y-20.0291
G01 X-15.8727 Y-20.0236
G01 X-15.9595 Y-19.9567
G01 X-21.3627 Y-14.5536
G01 X-21.3821 Y-14.5330
G01 X-21.4108 Y-14.5006
G01 X-21.4465 Y-14.4760
G01 X-21.4693 Y-14.4592
G01 X-21.5114 Y-14.4262
G01 X-21.5844 Y-14.3662
G01 X-21.5906 Y-14.3604
G01 X-21.5980 Y-14.3513
G01 X-21.6632 Y-14.2547
G01 X-21.6680 Y-14.2459
G01 X-21.6710 Y-14.2380
G01 X-21.7055 Y-14.1286
G01 X-21.7078 Y-14.1187
G01 X-21.7087 Y-14.1087
G01 X-21.7107 Y-13.9922
G01 X-21.7099 Y-13.9822
G01 X-21.7081 Y-13.9740
G01 X-21.6773 Y-13.8634
G01 X-21.6739 Y-13.8539
G01 X-21.6691 Y-13.8450
G01 X-21.6081 Y-13.7478
G01 X-21.6032 Y-13.7409
G01 X-21.5963 Y-13.7336
G01 X-21.5089 Y-13.6566
G01 X-21.5009 Y-13.6505
G01 X-21.4921 Y-13.6456
G01 X-21.3879 Y-13.5975
G01 X-21.3800 Y-13.5944
G01 X-21.3702 Y-13.5920
G01 X-21.2516 Y-13.5748
G01 X-21.2449 Y-13.5745
G01 X-16.7852 Y-13.5745
G01 X-16.7569 Y-13.5754
G01 X-16.7137 Y-13.5780
G01 X-16.6689 Y-13.5698
G01 X-16.6430 Y-13.5659
G01 X-16.6000 Y-13.5607
G01 X-16.5816 Y-13.5541
G01 X-16.5630 Y-13.5504
G01 X-16.5235 Y-13.5326
G01 X-16.4993 Y-13.5225
G01 X-16.4568 Y-13.5064
G01 X-16.4405 Y-13.4955
G01 X-16.4234 Y-13.4875
G01 X-16.3893 Y-13.4608
G01 X-16.3682 Y-13.4453
G01 X-16.3308 Y-13.4194
G01 X-16.3021 Y-13.3870
G01 X-16.2827 Y-13.3664
G01 X-15.3137 Y-12.3973
G01 X-15.2930 Y-12.3779
G01 X-15.2606 Y-12.3492
G01 X-15.2348 Y-12.3118
G01 X-15.2192 Y-12.2907
G01 X-15.1925 Y-12.2566
G01 X-15.1844 Y-12.2395
G01 X-15.1736 Y-12.2232
G01 X-15.1575 Y-12.1807
G01 X-15.1474 Y-12.1565
G01 X-15.1401 Y-12.1406
G01 X-15.0770 Y-12.0408
G01 X-15.0732 Y-12.0354
G01 X-15.0677 Y-12.0291
G01 X-14.9791 Y-11.9510
G01 X-14.9698 Y-11.9441
G01 X-14.9625 Y-11.9402
G01 X-14.8585 Y-11.8916
G01 X-14.8457 Y-11.8872
G01 X-14.8351 Y-11.8849
G01 X-14.7919 Y-11.8561
G01 X-14.7631 Y-11.8129
G01 X-14.7555 Y-11.7749
G01 X-14.7555 Y-10.0491
G01 X-14.7631 Y-10.0111
G01 X-14.7919 Y-9.9679
G01 X-14.8351 Y-9.9391
G01 X-14.8731 Y-9.9315
G01 X-16.5989 Y-9.9315
G01 X-16.6369 Y-9.9391
G01 X-16.6801 Y-9.9679
G01 X-16.7089 Y-10.0111
G01 X-16.7190 Y-10.0609
G01 X-16.7225 Y-10.0706
G01 X-16.7277 Y-10.0802
G01 X-16.7419 Y-10.1367
G01 X-16.7453 Y-10.1463
G01 X-16.7493 Y-10.1540
G01 X-16.8095 Y-10.2544
G01 X-16.8144 Y-10.2614
G01 X-16.8213 Y-10.2691
G01 X-16.9106 Y-10.3500
G01 X-16.9174 Y-10.3552
G01 X-16.9264 Y-10.3603
G01 X-17.0322 Y-10.4103
G01 X-17.0418 Y-10.4140
G01 X-17.0519 Y-10.4163
G01 X-17.1677 Y-10.4334
G01 X-17.1728 Y-10.4340
G01 X-17.1797 Y-10.4341
G01 X-17.1882 Y-10.4334
G01 X-17.3040 Y-10.4162
G01 X-17.3141 Y-10.4140
G01 X-17.3237 Y-10.4103
G01 X-17.4295 Y-10.3602
G01 X-17.4356 Y-10.3570
G01 X-17.4413 Y-10.3531
G01 X-17.4466 Y-10.3488
G01 X-17.5358 Y-10.2678
G01 X-17.5405 Y-10.2627
G01 X-17.5793 Y-10.2153
G01 X-17.7286 Y-10.0928
G01 X-17.8990 Y-10.0018
G01 X-18.0838 Y-9.9457
G01 X-18.2760 Y-9.9268
G01 X-18.4682 Y-9.9457
G01 X-18.6530 Y-10.0018
G01 X-18.8234 Y-10.0928
G01 X-18.9727 Y-10.2153
G01 X-19.0952 Y-10.3646
G01 X-19.1324 Y-10.4342
G01 X-19.1361 Y-10.4403
G01 X-19.2119 Y-10.5413
G01 X-19.2173 Y-10.5476
G01 X-19.2221 Y-10.5522
G01 X-19.2273 Y-10.5563
G01 X-19.3273 Y-10.6272
G01 X-19.3344 Y-10.6316
G01 X-19.3404 Y-10.6345
G01 X-19.3466 Y-10.6368
G01 X-19.4634 Y-10.6741
G01 X-19.4748 Y-10.6767
G01 X-19.4847 Y-10.6774
G01 X-19.6073 Y-10.6774
G01 X-19.6172 Y-10.6767
G01 X-19.6286 Y-10.6741
G01 X-19.7454 Y-10.6368
G01 X-19.7547 Y-10.6331
G01 X-19.7647 Y-10.6272
G01 X-19.8686 Y-10.5532
G01 X-19.8735 Y-10.5488
G01 X-19.8791 Y-10.5426
G01 X-19.9549 Y-10.4418
G01 X-19.9596 Y-10.4342
G01 X-19.9968 Y-10.3646
G01 X-20.0810 Y-10.2619
G01 X-20.1332 Y-10.1813
G01 X-20.1367 Y-10.1751
G01 X-20.1403 Y-10.1669
G01 X-20.1710 Y-10.0811
G01 X-20.1734 Y-10.0725
G01 X-20.1746 Y-10.0655
G01 X-20.1850 Y-9.9749
G01 X-20.1855 Y-9.9669
G01 X-20.1855 Y-8.9132
G01 X-20.1846 Y-8.8849
G01 X-20.1820 Y-8.8417
G01 X-20.1902 Y-8.7969
G01 X-20.1941 Y-8.7710
G01 X-20.1993 Y-8.7280
G01 X-20.2057 Y-8.7103
G01 X-20.2096 Y-8.6910
G01 X-20.2274 Y-8.6515
G01 X-20.2375 Y-8.6273
G01 X-20.2536 Y-8.5848
G01 X-20.2645 Y-8.5685
G01 X-20.2725 Y-8.5514
G01 X-20.3005 Y-8.5156
G01 X-20.3160 Y-8.4945
G01 X-20.3406 Y-8.4588
G01 X-20.3730 Y-8.4301
G01 X-20.3936 Y-8.4107
G01 X-25.1281 Y-3.6762
G01 X-25.1342 Y-3.6693
G01 X-25.1976 Y-3.5867
G01 X-25.2031 Y-3.5783
G01 X-25.2067 Y-3.5709
G01 X-25.2466 Y-3.4746
G01 X-25.2493 Y-3.4668
G01 X-25.2513 Y-3.4570
G01 X-25.2649 Y-3.3537
G01 X-25.2655 Y-3.3464
G01 X-25.2655 Y-2.3549
G01 X-25.2648 Y-2.3467
G01 X-25.2491 Y-2.2357
G01 X-25.2472 Y-2.2269
G01 X-25.2436 Y-2.2168
G01 X-25.1968 Y-2.1129
G01 X-25.1924 Y-2.1051
G01 X-25.1871 Y-2.0979
G01 X-25.1144 Y-2.0125
G01 X-25.1082 Y-2.0060
G01 X-25.0997 Y-1.9994
G01 X-25.0061 Y-1.9376
G01 X-24.9984 Y-1.9332
G01 X-24.9901 Y-1.9297
G01 X-24.8813 Y-1.8958
G01 X-24.8726 Y-1.8937
G01 X-24.8619 Y-1.8927
G01 X-24.7498 Y-1.8904
G01 X-24.7426 Y-1.8906
G01 X-24.7355 Y-1.8916
G01 X-24.6220 Y-1.9218
G01 X-24.6135 Y-1.9247
G01 X-24.6039 Y-1.9295
G01 X-24.5049 Y-1.9895
G01 X-24.4992 Y-1.9938
G01 X-24.4939 Y-1.9987
G01 X-24.4156 Y-2.0836
G01 X-24.4115 Y-2.0887
G01 X-24.3974 Y-2.1091
G01 X-24.3867 Y-2.1288
G01 X-24.3742 Y-2.1431
G01 X-24.3692 Y-2.1500
G01 X-24.3503 Y-2.1736
G01 X-24.3394 Y-2.1892
G01 X-24.3240 Y-2.2030
G01 X-24.3194 Y-2.2081
G01 X-24.2978 Y-2.2292
G01 X-24.2852 Y-2.2434
G01 X-24.2682 Y-2.2553
G01 X-24.2631 Y-2.2598
G01 X-24.2391 Y-2.2782
G01 X-24.2248 Y-2.2907
G01 X-24.2066 Y-2.3005
G01 X-24.2009 Y-2.3043
G01 X-24.1749 Y-2.3197
G01 X-24.1592 Y-2.3304
G01 X-24.1414 Y-2.3372
G01 X-24.1338 Y-2.3410
G01 X-24.1140 Y-2.3499
G01 X-24.1076 Y-2.3524
G01 X-24.0892 Y-2.3619
G01 X-24.0708 Y-2.3665
G01 X-24.0420 Y-2.3758
G01 X-24.0354 Y-2.3775
G01 X-24.0160 Y-2.3847
G01 X-23.9955 Y-2.3874
G01 X-23.9888 Y-2.3889
G01 X-23.9590 Y-2.3940
G01 X-23.9406 Y-2.3985
G01 X-22.3378 Y-2.3986
G01 X-22.3312 Y-2.3992
G01 X-22.2191 Y-2.4153
G01 X-22.2078 Y-2.4179
G01 X-22.2000 Y-2.4209
G01 X-22.0954 Y-2.4685
G01 X-22.0882 Y-2.4726
G01 X-22.0815 Y-2.4774
G01 X-21.9945 Y-2.5525
G01 X-21.9874 Y-2.5595
G01 X-21.9814 Y-2.5675
G01 X-21.9199 Y-2.6626
G01 X-21.9158 Y-2.6698
G01 X-21.9121 Y-2.6791
G01 X-21.8781 Y-2.7940
G01 X-21.8769 Y-2.8006
G01 X-21.8764 Y-2.8089
G01 X-21.8759 Y-2.9221
G01 X-21.8766 Y-2.9321
G01 X-21.8787 Y-2.9418
G01 X-21.8977 Y-3.0079
G01 X-21.8986 Y-3.0149
G01 X-21.9002 Y-3.0216
G01 X-21.9487 Y-3.1775
G01 X-21.9580 Y-3.3303
G01 X-21.9304 Y-3.4810
G01 X-21.8675 Y-3.6206
G01 X-21.7968 Y-3.7109
G01 X-18.7453 Y-6.7624
G01 X-18.7259 Y-6.7830
G01 X-18.6972 Y-6.8154
G01 X-18.6598 Y-6.8413
G01 X-18.6387 Y-6.8568
G01 X-18.6046 Y-6.8835
G01 X-18.5875 Y-6.8915
G01 X-18.5712 Y-6.9024
G01 X-18.5287 Y-6.9185
G01 X-18.5045 Y-6.9286
G01 X-18.4650 Y-6.9464
G01 X-18.4458 Y-6.9502
G01 X-18.4280 Y-6.9567
G01 X-18.3850 Y-6.9619
G01 X-18.3591 Y-6.9658
G01 X-18.3144 Y-6.9740
G01 X-18.2711 Y-6.9714
G01 X-18.2428 Y-6.9705
G01 X-14.6656 Y-6.9705
G01 X-14.6583 Y-6.9711
G01 X-14.5550 Y-6.9847
G01 X-14.5468 Y-6.9863
G01 X-14.5374 Y-6.9894
G01 X-14.4396 Y-7.0299
G01 X-14.4322 Y-7.0338
G01 X-14.4253 Y-7.0384
G01 X-14.3427 Y-7.1018
G01 X-14.3358 Y-7.1079
G01 X-11.4239 Y-10.0198
G01 X-11.4178 Y-10.0267
G01 X-11.3544 Y-10.1093
G01 X-11.3498 Y-10.1162
G01 X-11.3459 Y-10.1236
G01 X-11.3054 Y-10.2214
G01 X-11.3027 Y-10.2292
G01 X-11.3007 Y-10.2390
G01 X-11.2871 Y-10.3423
G01 X-11.2865 Y-10.3514
G01 X-11.2865 Y-20.5308
G01 X-11.2874 Y-20.5591
G01 X-11.2900 Y-20.6023
G01 X-11.2822 Y-20.6450
G01 X-11.2782 Y-20.6709
G01 X-11.2727 Y-20.7160
G01 X-11.2663 Y-20.7338
G01 X-11.2624 Y-20.7530
G01 X-11.2437 Y-20.7944
G01 X-11.2337 Y-20.8186
G01 X-11.2184 Y-20.8592
G01 X-11.2075 Y-20.8755
G01 X-11.1995 Y-20.8926
G01 X-11.1728 Y-20.9267
G01 X-11.1573 Y-20.9478
G01 X-11.1314 Y-20.9852
G01 X-11.0990 Y-21.0139
G01 X-11.0784 Y-21.0333
G01 X-8.5853 Y-23.5264
G01 X-8.5659 Y-23.5470
G01 X-8.5372 Y-23.5794
G01 X-8.5015 Y-23.6040
G01 X-8.4804 Y-23.6195
G01 X-8.4446 Y-23.6475
G01 X-8.4269 Y-23.6559
G01 X-8.4112 Y-23.6664
G01 X-8.3687 Y-23.6825
G01 X-8.3445 Y-23.6926
G01 X-8.3050 Y-23.7104
G01 X-8.2857 Y-23.7143
G01 X-8.2680 Y-23.7207
G01 X-8.2250 Y-23.7259
G01 X-8.1991 Y-23.7298
G01 X-8.1544 Y-23.7380
G01 X-8.1111 Y-23.7354
G01 X-8.0828 Y-23.7345
G01 X12.6788 Y-23.7345
G01 X12.7071 Y-23.7354
G01 X12.7503 Y-23.7380
G01 X12.7951 Y-23.7298
G01 X12.8210 Y-23.7259
G01 X12.8640 Y-23.7207
G01 X12.8824 Y-23.7141
G01 X12.9010 Y-23.7104
G01 X12.9405 Y-23.6926
G01 X12.9647 Y-23.6825
G01 X13.0072 Y-23.6664
G01 X13.0235 Y-23.6555
G01 X13.0406 Y-23.6475
G01 X13.0747 Y-23.6208
G01 X13.0958 Y-23.6053
G01 X13.1332 Y-23.5794
G01 X13.1619 Y-23.5470
G01 X13.1813 Y-23.5264
G01 X18.7223 Y-17.9853
G01 X18.7430 Y-17.9659
G01 X18.7754 Y-17.9372
G01 X18.8013 Y-17.8998
G01 X18.8168 Y-17.8787
G01 X18.8435 Y-17.8446
G01 X18.8519 Y-17.8269
G01 X18.8624 Y-17.8112
G01 X18.8785 Y-17.7687
G01 X18.8886 Y-17.7445
G01 X18.9064 Y-17.7050
G01 X18.9101 Y-17.6864
G01 X18.9167 Y-17.6680
G01 X18.9219 Y-17.6250
G01 X18.9258 Y-17.5991
G01 X18.9340 Y-17.5543
G01 X18.9314 Y-17.5111
G01 X18.9305 Y-17.4828
G01 X18.9305 Y17.6118
G01 X18.9314 Y17.6401
G01 X18.9340 Y17.6833
G01 X18.9258 Y17.7281
G01 X18.9219 Y17.7540
G01 X18.9167 Y17.7970
G01 X18.9103 Y17.8147
G01 X18.9064 Y17.8340
G01 X18.8877 Y17.8754
G01 X18.8777 Y17.8996
G01 X18.8624 Y17.9402
G01 X18.8519 Y17.9559
G01 X18.8435 Y17.9736
G01 X18.8168 Y18.0077
G01 X18.8013 Y18.0288
G01 X18.7754 Y18.0662
G01 X18.7430 Y18.0949
G01 X18.7224 Y18.1143
G01 X16.9814 Y19.8553
G01 X16.9761 Y19.8612
G01 X16.9194 Y19.9327
G01 X16.9143 Y19.9400
G01 X16.9109 Y19.9463
G01 X16.8705 Y20.0320
G01 X16.8681 Y20.0387
G01 X16.8668 Y20.0439
G01 X16.8469 Y20.1362
G01 X16.8400 Y20.2044
G01 X16.7868 Y20.3798
G01 X16.7004 Y20.5415
G01 X16.5841 Y20.6831
G01 X16.4425 Y20.7994
G01 X16.2808 Y20.8858
G01 X16.1054 Y20.9390
G01 X15.9230 Y20.9570
G01 X15.7406 Y20.9390
G01 X15.5652 Y20.8858
G01 X15.4035 Y20.7994
G01 X15.3776 Y20.7782
G01 X15.2619 Y20.6831
G01 X15.1456 Y20.5415
G01 X15.0592 Y20.3798
G01 X15.0188 Y20.2473
G01 X14.9651 Y20.1336
G01 X14.9606 Y20.1263
G01 X14.9553 Y20.1196
G01 X14.8766 Y20.0328
G01 X14.8705 Y20.0269
G01 X14.8665 Y20.0236
G01 X14.8607 Y20.0198
G01 X14.7588 Y19.9588
G01 X14.7495 Y19.9544
G01 X14.7413 Y19.9518
G01 X14.6278 Y19.9233
G01 X14.6176 Y19.9215
G01 X14.6073 Y19.9213
G01 X14.4904 Y19.9270
G01 X14.4818 Y19.9280
G01 X14.4751 Y19.9295
G01 X14.4702 Y19.9310
G01 X14.3600 Y19.9705
G01 X14.3506 Y19.9747
G01 X14.3419 Y19.9802
G01 X14.2478 Y20.0499
G01 X14.2412 Y20.0555
G01 X12.9719 Y21.3248
G01 X12.9658 Y21.3317
G01 X12.9024 Y21.4143
G01 X12.8969 Y21.4227
G01 X12.8933 Y21.4301
G01 X12.8534 Y21.5264
G01 X12.8503 Y21.5358
G01 X12.8487 Y21.5440
G01 X12.8351 Y21.6473
G01 X12.8345 Y21.6564
G01 X12.8345 Y28.7886
G01 X12.8300 Y28.8070
G01 X12.8288 Y28.8155
G01 X12.8249 Y28.8368
G01 X12.8234 Y28.8435
G01 X12.8207 Y28.8640
G01 X12.8140 Y28.8818
G01 X12.8053 Y28.9107
G01 X12.8025 Y28.9188
G01 X12.7979 Y28.9372
G01 X12.7891 Y28.9541
G01 X12.7770 Y28.9817
G01 X12.7732 Y28.9894
G01 X12.7664 Y29.0072
G01 X12.7556 Y29.0229
G01 X12.7403 Y29.0488
G01 X12.7356 Y29.0560
G01 X12.7267 Y29.0728
G01 X12.7141 Y29.0871
G01 X12.7091 Y29.0940
G01 X12.6903 Y29.1175
G01 X12.6794 Y29.1332
G01 X12.6652 Y29.1459
G01 X12.6594 Y29.1521
G01 X12.6379 Y29.1732
G01 X12.6252 Y29.1874
G01 X12.6095 Y29.1983
G01 X12.5860 Y29.2171
G01 X12.5791 Y29.2221
G01 X12.5648 Y29.2347
G01 X12.5480 Y29.2436
G01 X12.5408 Y29.2483
G01 X12.5149 Y29.2636
G01 X12.4992 Y29.2744
G01 X12.4814 Y29.2812
G01 X12.4737 Y29.2850
G01 X12.4461 Y29.2971
G01 X12.4292 Y29.3059
G01 X12.4108 Y29.3105
G01 X12.4027 Y29.3133
G01 X12.3738 Y29.3220
G01 X12.3560 Y29.3287
G01 X12.3355 Y29.3314
G01 X12.3288 Y29.3329
G01 X12.3075 Y29.3368
G01 X12.2990 Y29.3380
G01 X12.2806 Y29.3425
G01 X6.1412 Y29.3425
G01 X6.1129 Y29.3434
G01 X6.0697 Y29.3460
G01 X6.0249 Y29.3378
G01 X5.9990 Y29.3339
G01 X5.9560 Y29.3287
G01 X5.9376 Y29.3221
G01 X5.9190 Y29.3184
G01 X5.8795 Y29.3006
G01 X5.8553 Y29.2905
G01 X5.8128 Y29.2744
G01 X5.7971 Y29.2639
G01 X5.7794 Y29.2555
G01 X5.7453 Y29.2288
G01 X5.7242 Y29.2133
G01 X5.6868 Y29.1874
G01 X5.6581 Y29.1550
G01 X5.6387 Y29.1343
G01 X2.7152 Y26.2111
G01 X2.6413 Y26.1524
G01 X2.6340 Y26.1473
G01 X2.6277 Y26.1439
G01 X2.5420 Y26.1035
G01 X2.5353 Y26.1011
G01 X2.5301 Y26.0998
G01 X2.4378 Y26.0799
G01 X2.3696 Y26.0730
G01 X2.1942 Y26.0198
G01 X2.0325 Y25.9334
G01 X1.8909 Y25.8171
G01 X1.7746 Y25.6755
G01 X1.6929 Y25.5231
G01 X1.6161 Y25.4207
G01 X1.6084 Y25.4120
G01 X1.6007 Y25.4057
G01 X1.5007 Y25.3347
G01 X1.4921 Y25.3296
G01 X1.4814 Y25.3251
G01 X1.3646 Y25.2879
G01 X1.3549 Y25.2855
G01 X1.3433 Y25.2846
G01 X1.2190 Y25.2846
G01 X1.2091 Y25.2855
G01 X1.1994 Y25.2879
G01 X1.0826 Y25.3251
G01 X1.0719 Y25.3296
G01 X1.0633 Y25.3347
G01 X0.9607 Y25.4077
G01 X0.9545 Y25.4132
G01 X0.9489 Y25.4194
G01 X0.8711 Y25.5231
G01 X0.7894 Y25.6755
G01 X0.6731 Y25.8171
G01 X0.5315 Y25.9334
G01 X0.3698 Y26.0198
G01 X0.1944 Y26.0730
G01 X0.0120 Y26.0910
G01 X-0.1704 Y26.0730
G01 X-0.3458 Y26.0198
G01 X-0.5075 Y25.9334
G01 X-0.6491 Y25.8171
G01 X-0.7654 Y25.6755
G01 X-0.8471 Y25.5231
G01 X-0.9239 Y25.4207
G01 X-0.9316 Y25.4120
G01 X-0.9393 Y25.4057
G01 X-1.0393 Y25.3347
G01 X-1.0493 Y25.3288
G01 X-1.0586 Y25.3251
G01 X-1.1770 Y25.2874
G01 X-1.1868 Y25.2853
G01 X-1.1950 Y25.2846
G01 X-1.3193 Y25.2846
G01 X-1.3292 Y25.2853
G01 X-1.3406 Y25.2879
G01 X-1.4574 Y25.3251
G01 X-1.4667 Y25.3288
G01 X-1.4753 Y25.3338
G01 X-1.5793 Y25.4077
G01 X-1.5855 Y25.4132
G01 X-1.5911 Y25.4194
G01 X-1.6689 Y25.5231
G01 X-1.7506 Y25.6755
G01 X-1.8669 Y25.8171
G01 X-2.0085 Y25.9334
G01 X-2.1702 Y26.0198
G01 X-2.3456 Y26.0730
G01 X-2.5280 Y26.0910
G01 X-2.7104 Y26.0730
G01 X-2.8858 Y26.0198
G01 X-3.0475 Y25.9334
G01 X-3.1891 Y25.8171
G01 X-3.3054 Y25.6755
G01 X-3.3871 Y25.5231
G01 X-3.4639 Y25.4207
G01 X-3.4716 Y25.4120
G01 X-3.4793 Y25.4057
G01 X-3.5793 Y25.3347
G01 X-3.5893 Y25.3288
G01 X-3.5986 Y25.3251
G01 X-3.7170 Y25.2874
G01 X-3.7268 Y25.2853
G01 X-3.7350 Y25.2846
G01 X-3.8593 Y25.2846
G01 X-3.8692 Y25.2853
G01 X-3.8806 Y25.2879
G01 X-3.9974 Y25.3251
G01 X-4.0067 Y25.3288
G01 X-4.0153 Y25.3338
G01 X-4.1193 Y25.4077
G01 X-4.1255 Y25.4132
G01 X-4.1311 Y25.4194
G01 X-4.2089 Y25.5231
G01 X-4.2906 Y25.6755
G01 X-4.4069 Y25.8171
G01 X-4.5485 Y25.9334
G01 X-4.7102 Y26.0198
G01 X-4.8856 Y26.0730
G01 X-5.0680 Y26.0910
G01 X-5.2504 Y26.0730
G01 X-5.4258 Y26.0198
G01 X-5.5875 Y25.9334
G01 X-5.7291 Y25.8171
G01 X-5.8495 Y25.6708
G01 X-5.9442 Y25.5857
G01 X-5.9527 Y25.5792
G01 X-5.9622 Y25.5741
G01 X-6.0733 Y25.5240
G01 X-6.0826 Y25.5206
G01 X-6.0939 Y25.5183
G01 X-6.2150 Y25.5041
G01 X-6.2216 Y25.5036
G01 X-6.2299 Y25.5039
G01 X-6.2364 Y25.5049
G01 X-6.3562 Y25.5279
G01 X-6.3665 Y25.5308
G01 X-6.3763 Y25.5351
G01 X-6.4849 Y25.5941
G01 X-6.4931 Y25.5996
G01 X-6.5005 Y25.6062
G01 X-6.5851 Y25.6940
G01 X-6.5919 Y25.7023
G01 X-6.5974 Y25.7115
G01 X-6.6524 Y25.8224
G01 X-6.6556 Y25.8307
G01 X-6.6578 Y25.8394
G01 X-6.6679 Y25.9047
G01 X-6.6720 Y25.9147
G01 X-6.6745 Y25.9247
G01 X-6.6773 Y25.9510
G01 X-6.6775 Y25.9689
G01 X-6.6851 Y26.0069
G01 X-6.7139 Y26.0501
G01 X-6.7571 Y26.0789
G01 X-6.7951 Y26.0865
G01 X-8.4209 Y26.0865
G01 X-8.4589 Y26.0789
G01 X-8.5021 Y26.0501
G01 X-8.5406 Y25.9925
G01 X-8.5474 Y25.9847
G01 X-8.5552 Y25.9780
G01 X-8.5831 Y25.9394
G01 X-8.5886 Y25.9327
G01 X-8.5961 Y25.9257
G01 X-8.6800 Y25.8586
G01 X-8.6885 Y25.8528
G01 X-8.6961 Y25.8489
G01 X-8.7948 Y25.8066
G01 X-8.8029 Y25.8037
G01 X-8.8130 Y25.8016
G01 X-8.9194 Y25.7871
G01 X-8.9257 Y25.7866
G01 X-13.9248 Y25.7865
G01 X-13.9531 Y25.7874
G01 X-13.9963 Y25.7900
G01 X-14.0390 Y25.7822
G01 X-14.0649 Y25.7782
G01 X-14.1100 Y25.7727
G01 X-14.1284 Y25.7661
G01 X-14.1470 Y25.7624
G01 X-14.1884 Y25.7437
G01 X-14.2126 Y25.7337
G01 X-14.2532 Y25.7184
G01 X-14.2689 Y25.7079
G01 X-14.2866 Y25.6995
G01 X-14.3207 Y25.6728
G01 X-14.3418 Y25.6573
G01 X-14.3792 Y25.6314
G01 X-14.4079 Y25.5990
G01 X-14.4273 Y25.5783
G01 X-15.8289 Y24.1768
G01 X-15.8353 Y24.1711
G01 X-15.9307 Y24.1003
G01 X-15.9394 Y24.0948
G01 X-15.9488 Y24.0906
G01 X-16.0591 Y24.0512
G01 X-16.0673 Y24.0488
G01 X-16.0775 Y24.0473
G01 X-16.2013 Y24.0414
G01 X-16.2082 Y24.0419
G01 X-16.2166 Y24.0434
G01 X-16.3302 Y24.0719
G01 X-16.3400 Y24.0751
G01 X-16.3492 Y24.0798
G01 X-16.4496 Y24.1400
G01 X-16.4580 Y24.1459
G01 X-16.4655 Y24.1530
G01 X-16.5441 Y24.2397
G01 X-16.5505 Y24.2479
G01 X-16.5555 Y24.2568
G01 X-16.6056 Y24.3627
G01 X-16.6088 Y24.3706
G01 X-16.6110 Y24.3789
G01 X-16.6287 Y24.4982
G01 X-16.6295 Y24.5084
G01 X-16.6295 Y26.1388
G01 X-16.6286 Y26.1671
G01 X-16.6260 Y26.2103
G01 X-16.6342 Y26.2551
G01 X-16.6381 Y26.2809
G01 X-16.6433 Y26.3240
G01 X-16.6499 Y26.3424
G01 X-16.6536 Y26.3610
G01 X-16.6714 Y26.4005
G01 X-16.6815 Y26.4247
G01 X-16.6976 Y26.4672
G01 X-16.7084 Y26.4835
G01 X-16.7165 Y26.5006
G01 X-16.7432 Y26.5347
G01 X-16.7587 Y26.5558
G01 X-16.7846 Y26.5932
G01 X-16.8170 Y26.6219
G01 X-16.8376 Y26.6413
G01 X-18.3147 Y28.1184
G01 X-18.3341 Y28.1390
G01 X-18.3628 Y28.1714
G01 X-18.3985 Y28.1960
G01 X-18.4213 Y28.2128
G01 X-18.4634 Y28.2458
G01 X-18.5364 Y28.3058
G01 X-18.5426 Y28.3116
G01 X-18.5500 Y28.3207
G01 X-18.6142 Y28.4158
G01 X-18.6193 Y28.4246
G01 X-18.6230 Y28.4340
G01 X-18.6575 Y28.5434
G01 X-18.6598 Y28.5533
G01 X-18.6607 Y28.5616
G01 X-18.6627 Y28.6798
G01 X-18.6619 Y28.6898
G01 X-18.6601 Y28.6980
G01 X-18.6293 Y28.8086
G01 X-18.6259 Y28.8181
G01 X-18.6211 Y28.8270
G01 X-18.5601 Y28.9242
G01 X-18.5542 Y28.9324
G01 X-18.5483 Y28.9384
G01 X-18.4609 Y29.0154
G01 X-18.4543 Y29.0206
G01 X-18.4441 Y29.0264
G01 X-18.3399 Y29.0745
G01 X-18.3320 Y29.0776
G01 X-18.3206 Y29.0803
G01 X-18.2070 Y29.0968
G01 X-18.1969 Y29.0975
G01 X-17.2056 Y29.0975
G01 X-17.1983 Y29.0969
G01 X-17.0950 Y29.0833
G01 X-17.0836 Y29.0808
G01 X-17.0774 Y29.0786
G01 X-16.9811 Y29.0387
G01 X-16.9722 Y29.0342
G01 X-16.9653 Y29.0296
G01 X-16.8827 Y28.9662
G01 X-16.8771 Y28.9614
G01 X-15.1389 Y27.2232
G01 X-15.0486 Y27.1525
G01 X-14.9090 Y27.0896
G01 X-14.7583 Y27.0620
G01 X-14.6055 Y27.0713
G01 X-14.4797 Y27.1105
G01 X-14.4593 Y27.1168
G01 X-14.3283 Y27.1960
G01 X-14.2200 Y27.3043
G01 X-14.1408 Y27.4353
G01 X-14.0953 Y27.5815
G01 X-14.0860 Y27.7343
G01 X-14.1136 Y27.8850
G01 X-14.1765 Y28.0246
G01 X-14.2472 Y28.1149
G01 X-16.2827 Y30.1503
G01 X-16.3021 Y30.1710
G01 X-16.3308 Y30.2034
G01 X-16.3665 Y30.2280
G01 X-16.3876 Y30.2435
G01 X-16.4234 Y30.2715
G01 X-16.4406 Y30.2796
G01 X-16.4568 Y30.2904
G01 X-16.4974 Y30.3057
G01 X-16.5216 Y30.3157
G01 X-16.5630 Y30.3344
G01 X-16.5816 Y30.3381
G01 X-16.6000 Y30.3447
G01 X-16.6451 Y30.3502
G01 X-16.6710 Y30.3542
G01 X-16.7137 Y30.3620
G01 X-16.7569 Y30.3594
G01 X-16.7852 Y30.3585
G01 X-29.4188 Y30.3585
G01 X-29.4471 Y30.3594
G01 X-29.4903 Y30.3620
G01 X-29.5351 Y30.3538
G01 X-29.5610 Y30.3499
G01 X-29.6040 Y30.3447
G01 X-29.6224 Y30.3381
G01 X-29.6410 Y30.3344
G01 X-29.6805 Y30.3166
G01 X-29.7047 Y30.3065
G01 X-29.7472 Y30.2904
G01 X-29.7629 Y30.2799
G01 X-29.7806 Y30.2715
G01 X-29.8147 Y30.2448
G01 X-29.8358 Y30.2293
G01 X-29.8732 Y30.2034
G01 X-29.9019 Y30.1710
G01 X-29.9213 Y30.1503
G01 X-33.4304 Y26.6413
G01 X-33.4510 Y26.6219
G01 X-33.4834 Y26.5932
G01 X-33.5093 Y26.5558
G01 X-33.5248 Y26.5347
G01 X-33.5515 Y26.5006
G01 X-33.5595 Y26.4835
G01 X-33.5704 Y26.4672
G01 X-33.5865 Y26.4247
G01 X-33.5966 Y26.4005
G01 X-33.6144 Y26.3610
G01 X-33.6181 Y26.3424
G01 X-33.6247 Y26.3240
G01 X-33.6299 Y26.2810
G01 X-33.6338 Y26.2551
G01 X-33.6420 Y26.2103
G01 X-33.6394 Y26.1671
G01 X-33.6385 Y26.1388
G01 X-33.6385 Y21.2983
G01 X-33.6394 Y21.2700
G01 X-33.6420 Y21.2267
G01 X-33.6342 Y21.1841
G01 X-33.6302 Y21.1582
G01 X-33.6247 Y21.1131
G01 X-33.6183 Y21.0953
G01 X-33.6144 Y21.0761
G01 X-33.5957 Y21.0346
G01 X-33.5857 Y21.0104
G01 X-33.5704 Y20.9699
G01 X-33.5595 Y20.9536
G01 X-33.5515 Y20.9365
G01 X-33.5248 Y20.9024
G01 X-33.5093 Y20.8813
G01 X-33.4834 Y20.8439
G01 X-33.4510 Y20.8151
G01 X-33.4303 Y20.7957
G01 X-32.8719 Y20.2373
G01 X-32.8666 Y20.2314
G01 X-32.8002 Y20.1440
G01 X-32.7954 Y20.1368
G01 X-32.7909 Y20.1275
G01 X-32.7510 Y20.0269
G01 X-32.7484 Y20.0187
G01 X-32.7467 Y20.0102
G01 X-32.7351 Y19.9010
G01 X-32.7347 Y19.8941
G01 X-32.7349 Y19.8889
G01 X-32.7357 Y19.8820
G01 X-32.7536 Y19.7754
G01 X-32.7555 Y19.7669
G01 X-32.7592 Y19.7573
G01 X-32.8051 Y19.6593
G01 X-32.8083 Y19.6532
G01 X-32.8111 Y19.6489
G01 X-32.8154 Y19.6434
G01 X-32.8891 Y19.5579
G01 X-32.9754 Y19.4812
G01 X-33.0624 Y19.3552
G01 X-33.1167 Y19.2120
G01 X-33.1305 Y19.0981
G01 X-33.1306 Y-10.3626
G01 X-33.1314 Y-10.3698
G01 X-33.1508 Y-10.4928
G01 X-33.1536 Y-10.5042
G01 X-33.1575 Y-10.5135
G01 X-33.2146 Y-10.6260
G01 X-33.2201 Y-10.6345
G01 X-33.2267 Y-10.6422
G01 X-33.3145 Y-10.7304
G01 X-33.3221 Y-10.7371
G01 X-33.3321 Y-10.7433
G01 X-33.4428 Y-10.8002
G01 X-33.4521 Y-10.8041
G01 X-33.4619 Y-10.8067
G01 X-33.5864 Y-10.8270
G01 X-33.5931 Y-10.8277
G01 X-33.5998 Y-10.8279
G01 X-33.6082 Y-10.8271
G01 X-33.7313 Y-10.8083
G01 X-33.7411 Y-10.8060
G01 X-33.7521 Y-10.8016
G01 X-33.8677 Y-10.7434
G01 X-33.8747 Y-10.7386
G01 X-33.8798 Y-10.7342
G01 X-33.9722 Y-10.6430
G01 X-33.9769 Y-10.6374
G01 X-34.0429 Y-10.5479
G01 X-34.1352 Y-10.4798
G01 X-34.2453 Y-10.4412
G01 X-34.2640 Y-10.4395
G01 X-35.8160 Y-10.4395
G01 X-35.8347 Y-10.4412
G01 X-35.9448 Y-10.4798
G01 X-36.0371 Y-10.5479
G01 X-36.1052 Y-10.6402
G01 X-36.1438 Y-10.7503
G01 X-36.1455 Y-10.7690
G01 X-36.1455 Y-12.0710
G01 X-36.1438 Y-12.0897
G01 X-36.1052 Y-12.1998
G01 X-36.0371 Y-12.2921
G01 X-35.9448 Y-12.3602
G01 X-35.9249 Y-12.3672
G01 X-35.9170 Y-12.3708
G01 X-35.8875 Y-12.3864
G01 X-35.8818 Y-12.3902
G01 X-35.8776 Y-12.3936
G01 X-35.8211 Y-12.4235
G01 X-35.8122 Y-12.4292
G01 X-35.8042 Y-12.4361
G01 X-35.7196 Y-12.5216
G01 X-35.7127 Y-12.5296
G01 X-35.7072 Y-12.5386
G01 X-35.6519 Y-12.6454
G01 X-35.6477 Y-12.6552
G01 X-35.6451 Y-12.6654
G01 X-35.6241 Y-12.7838
G01 X-35.6233 Y-12.7908
G01 X-35.6231 Y-12.7979
G01 X-35.6236 Y-12.8049
G01 X-35.6389 Y-12.9242
G01 X-35.6410 Y-12.9345
G01 X-35.6447 Y-12.9445
G01 X-35.6948 Y-13.0538
G01 X-35.6990 Y-13.0615
G01 X-35.7019 Y-13.0659
G01 X-35.7064 Y-13.0714
G01 X-35.7892 Y-13.1634
G01 X-35.7944 Y-13.1681
G01 X-35.8617 Y-13.2233
G01 X-35.9842 Y-13.3726
G01 X-36.0752 Y-13.5430
G01 X-36.1313 Y-13.7278
G01 X-36.1502 Y-13.9200
G00 Z1.0000
G00 X-35.1650 Y-15.5000
G01 F20.00
G01 Z-0.0746
G01 F60.00
G01 X-35.2552 Y-15.5044
G01 X-35.3445 Y-15.5177
G01 X-35.4321 Y-15.5396
G01 X-35.5171 Y-15.5700
G01 X-35.5987 Y-15.6086
