(G-CODE GENERATED BY FLATCAM v8.994 - www.flatcam.org - Version Date: 2020/11/7)

(Name: newPCB-Edge_Cuts.gbr_conv_cnc)
(Type: G-code from Geometry)
(Units: MM)

(Created on Sunday, 09 July 2023 at 16:38)

(This preprocessor is the default preprocessor used by FlatCAM.)
(It is made to work with MACH3 compatible motion controllers.)

(TOOL DIAMETER: 1.0 mm)
(Feedrate_XY: 25.0 mm/min)
(Feedrate_Z: 25.0 mm/min)
(Feedrate rapids 1500.0 mm/min)

(Z_Cut: -2.0 mm)
(DepthPerCut: 1.0 mm <=>2 passes)
(Z_Move: 2.0 mm)
(Z Start: None mm)
(Z End: 15.0 mm)
(X,Y End: None mm)
(Steps per circle: 64)
(Preprocessor Geometry: default)

(X range:  -38.1380 ...   35.1140  mm)
(Y range:  -24.6780 ...   32.3180  mm)

(Spindle Speed: 1000.0 RPM)
G21
G90
G94

G01 F25.00

M5
G00 Z15.0000
G00 X0.0000 Y0.0000
T1
M6    
(MSG, Change to Tool Dia = 1.0000)
M0
G00 Z15.0000

M03 S1000.0
G01 F25.00
G00 X0.5000 Y-24.6780
G01 F25.00
G01 Z-1.0000
G01 F25.00
G01 X31.0000 Y-24.6780
G01 X31.3698 Y-24.6767
G01 X31.7471 Y-24.6393
G01 X32.1145 Y-24.5671
G01 X32.4688 Y-24.4619
G01 X32.8204 Y-24.3200
G01 X33.1527 Y-24.1474
G01 X33.4670 Y-23.9440
G01 X33.7607 Y-23.7118
G01 X34.0310 Y-23.4528
G01 X34.2755 Y-23.1693
G01 X34.4921 Y-22.8639
G01 X34.6765 Y-22.5435
G01 X34.8337 Y-22.1985
G01 X34.9556 Y-21.8445
G01 X35.0435 Y-21.4806
G01 X35.0964 Y-21.1099
G01 X35.1140 Y-20.7383
G01 X35.1140 Y2.5000
G00 X35.1140 Y2.5000
G01 F25.00
G01 Z-2.0000
G01 F25.00
G01 X35.1140 Y-20.7383
G01 X35.0964 Y-21.1099
G01 X35.0435 Y-21.4806
G01 X34.9556 Y-21.8445
G01 X34.8337 Y-22.1985
G01 X34.6765 Y-22.5435
G01 X34.4921 Y-22.8639
G01 X34.2755 Y-23.1693
G01 X34.0310 Y-23.4528
G01 X33.7607 Y-23.7118
G01 X33.4670 Y-23.9440
G01 X33.1527 Y-24.1474
G01 X32.8204 Y-24.3200
G01 X32.4688 Y-24.4619
G01 X32.1145 Y-24.5671
G01 X31.7471 Y-24.6393
G01 X31.3698 Y-24.6767
G01 X31.0000 Y-24.6780
G01 X0.5000 Y-24.6780
G00 Z2.0000
G00 X35.1140 Y5.5000
G01 F25.00
G01 Z-1.0000
G01 F25.00
G01 X35.1140 Y28.2040
G01 X35.0966 Y28.5813
G01 X35.0435 Y28.9622
G01 X34.9563 Y29.3321
G01 X34.8353 Y29.6923
G01 X34.6816 Y30.0398
G01 X34.4966 Y30.3717
G01 X34.2816 Y30.6851
G01 X34.0387 Y30.9773
G01 X33.7699 Y31.2458
G01 X33.4811 Y31.4856
G01 X33.1638 Y31.7030
G01 X32.8317 Y31.8877
G01 X32.4840 Y32.0410
G01 X32.1236 Y32.1616
G01 X31.7537 Y32.2483
G01 X31.3773 Y32.3006
G01 X31.0023 Y32.3180
G01 X0.5000 Y32.3180
G00 X0.5000 Y32.3180
G01 F25.00
G01 Z-2.0000
G01 F25.00
G01 X31.0023 Y32.3180
G01 X31.3773 Y32.3006
G01 X31.7537 Y32.2483
G01 X32.1236 Y32.1616
G01 X32.4840 Y32.0410
G01 X32.8317 Y31.8877
G01 X33.1638 Y31.7030
G01 X33.4811 Y31.4856
G01 X33.7699 Y31.2458
G01 X34.0387 Y30.9773
G01 X34.2816 Y30.6851
G01 X34.4966 Y30.3717
G01 X34.6816 Y30.0398
G01 X34.8353 Y29.6923
G01 X34.9563 Y29.3321
G01 X35.0435 Y28.9622
G01 X35.0966 Y28.5813
G01 X35.1140 Y28.2040
G01 X35.1140 Y5.5000
G00 Z2.0000
G00 X-2.5000 Y32.3180
G01 F25.00
G01 Z-1.0000
G01 F25.00
G01 X-34.0265 Y32.3180
G01 X-34.4297 Y32.2979
G01 X-34.8242 Y32.2394
G01 X-35.2206 Y32.1401
G01 X-35.6006 Y32.0039
G01 X-35.9655 Y31.8310
G01 X-36.3116 Y31.6233
G01 X-36.6320 Y31.3857
G01 X-36.9347 Y31.1113
G01 X-37.2057 Y30.8120
G01 X-37.4460 Y30.4876
G01 X-37.6534 Y30.1411
G01 X-37.8257 Y29.7761
G01 X-37.9615 Y29.3959
G01 X-38.0594 Y29.0042
G01 X-38.1184 Y28.6048
G01 X-38.1380 Y28.2040
G01 X-38.1380 Y5.5000
G00 X-38.1380 Y5.5000
G01 F25.00
G01 Z-2.0000
G01 F25.00
G01 X-38.1380 Y28.2040
G01 X-38.1184 Y28.6048
G01 X-38.0594 Y29.0042
G01 X-37.9615 Y29.3959
G01 X-37.8257 Y29.7761
G01 X-37.6534 Y30.1411
G01 X-37.4460 Y30.4876
G01 X-37.2057 Y30.8120
G01 X-36.9347 Y31.1113
G01 X-36.6320 Y31.3857
G01 X-36.3116 Y31.6233
G01 X-35.9655 Y31.8310
G01 X-35.6006 Y32.0039
G01 X-35.2206 Y32.1401
G01 X-34.8242 Y32.2394
G01 X-34.4297 Y32.2979
G01 X-34.0265 Y32.3180
G01 X-2.5000 Y32.3180
G00 Z2.0000
G00 X-38.1380 Y2.5000
G01 F25.00
G01 Z-1.0000
G01 F25.00
G01 X-38.1380 Y-19.5480
G01 X-38.1161 Y-20.0212
G01 X-38.0494 Y-20.4971
G01 X-37.9397 Y-20.9603
G01 X-37.7876 Y-21.4113
G01 X-37.5943 Y-21.8463
G01 X-37.3616 Y-22.2615
G01 X-37.0913 Y-22.6533
G01 X-36.7860 Y-23.0184
G01 X-36.4480 Y-23.3537
G01 X-36.0842 Y-23.6533
G01 X-35.6865 Y-23.9232
G01 X-35.2695 Y-24.1527
G01 X-34.8330 Y-24.3424
G01 X-34.3808 Y-24.4910
G01 X-33.9167 Y-24.5969
G01 X-33.4448 Y-24.6594
G01 X-32.9719 Y-24.6780
G01 X-2.5000 Y-24.6780
G00 X-2.5000 Y-24.6780
G01 F25.00
G01 Z-2.0000
G01 F25.00
G01 X-32.9719 Y-24.6780
G01 X-33.4448 Y-24.6594
G01 X-33.9167 Y-24.5969
G01 X-34.3808 Y-24.4910
G01 X-34.8330 Y-24.3424
G01 X-35.2695 Y-24.1527
G01 X-35.6865 Y-23.9232
G01 X-36.0842 Y-23.6533
G01 X-36.4480 Y-23.3537
G01 X-36.7860 Y-23.0184
G01 X-37.0913 Y-22.6533
G01 X-37.3616 Y-22.2615
G01 X-37.5943 Y-21.8463
G01 X-37.7876 Y-21.4113
G01 X-37.9397 Y-20.9603
G01 X-38.0494 Y-20.4971
G01 X-38.1161 Y-20.0212
G01 X-38.1380 Y-19.5480
G01 X-38.1380 Y2.5000
G00 Z2.0000
M05
G00 Z2.0000
G00 Z15.00


