(G-CODE GENERATED BY FLATCAM v8.994 - www.flatcam.org - Version Date: 2020/11/7)

(Name: newPCB-F_Cu.gbr_iso_combined_cnc)
(Type: G-code from Geometry)
(Units: MM)

(Created on Friday, 07 July 2023 at 21:53)

(This preprocessor is the default preprocessor used by FlatCAM.)
(It is made to work with MACH3 compatible motion controllers.)

(TOOL DIAMETER: 0.14 mm)
(Feedrate_XY: 60.0 mm/min)
(Feedrate_Z: 20.0 mm/min)
(Feedrate rapids 1500.0 mm/min)

(Z_Cut: -0.0746 mm)
(Z_Move: 2.0 mm)
(Z Start: None mm)
(Z End: 15.0 mm)
(X,Y End: None mm)
(Steps per circle: 64)
(Preprocessor Geometry: default)

(X range:  -38.1575 ...   35.1335  mm)
(Y range:  -32.3375 ...   24.6975  mm)

(Spindle Speed: 1300.0 RPM)
G21
G90
G94

G01 F60.00

M5
G00 Z15.0000
G00 X0.0000 Y0.0000
T1
M6    
(MSG, Change to Tool Dia = 0.1400)
M0
G00 Z15.0000

M03 S1300.0
G01 F60.00
G00 X0.0154 Y-0.1179
G01 F20.00
G01 Z-0.0746
G01 F60.00
G01 X0.0973 Y-0.1138
G01 X0.1817 Y-0.1013
G01 X0.2645 Y-0.0805
G01 X0.3449 Y-0.0518
G01 X0.4221 Y-0.0153
G01 X0.4953 Y0.0286
G01 X0.5639 Y0.0795
G01 X0.6272 Y0.1368
G01 X0.6845 Y0.2001
G01 X0.7354 Y0.2687
G01 X0.7793 Y0.3419
G01 X0.8158 Y0.4191
G01 X0.8445 Y0.4995
G01 X0.8653 Y0.5823
G01 X0.8778 Y0.6667
G01 X0.8820 Y0.7520
G01 X0.8778 Y0.8373
G01 X0.8653 Y0.9217
G01 X0.8445 Y1.0045
G01 X0.8158 Y1.0849
G01 X0.7793 Y1.1621
G01 X0.7354 Y1.2353
G01 X0.6845 Y1.3039
G01 X0.6272 Y1.3672
G01 X0.5639 Y1.4245
G01 X0.4953 Y1.4754
G01 X0.4221 Y1.5193
G01 X0.3449 Y1.5558
G01 X0.2645 Y1.5845
G01 X0.1817 Y1.6053
G01 X0.0973 Y1.6178
G01 X0.0120 Y1.6220
G01 X-0.0733 Y1.6178
G01 X-0.1577 Y1.6053
G01 X-0.2405 Y1.5845
G01 X-0.3209 Y1.5558
G01 X-0.3981 Y1.5193
G01 X-0.4713 Y1.4754
G01 X-0.5399 Y1.4245
G01 X-0.6032 Y1.3672
G01 X-0.6605 Y1.3039
G01 X-0.7114 Y1.2353
G01 X-0.7553 Y1.1621
G01 X-0.7918 Y1.0849
G01 X-0.8205 Y1.0045
G01 X-0.8413 Y0.9217
G01 X-0.8538 Y0.8373
G01 X-0.8580 Y0.7520
G01 X-0.8538 Y0.6667
G01 X-0.8413 Y0.5823
G01 X-0.8205 Y0.4995
G01 X-0.7918 Y0.4191
G01 X-0.7553 Y0.3419
G01 X-0.7114 Y0.2687
G01 X-0.6605 Y0.2001
G01 X-0.6032 Y0.1368
G01 X-0.5399 Y0.0795
G01 X-0.4713 Y0.0286
G01 X-0.3981 Y-0.0153
G01 X-0.3209 Y-0.0518
G01 X-0.2405 Y-0.0805
G01 X-0.1577 Y-0.1013
G01 X-0.0733 Y-0.1138
G01 X0.0086 Y-0.1179
G01 X0.0154 Y-0.1179
G00 Z2.0000
G00 X-2.5246 Y-0.1179
G01 F20.00
G01 Z-0.0746
G01 F60.00
G01 X-2.4427 Y-0.1138
G01 X-2.3583 Y-0.1013
G01 X-2.2755 Y-0.0805
G01 X-2.1951 Y-0.0518
G01 X-2.1179 Y-0.0153
G01 X-2.0447 Y0.0286
G01 X-1.9761 Y0.0795
G01 X-1.9128 Y0.1368
G01 X-1.8555 Y0.2001
G01 X-1.8046 Y0.2687
G01 X-1.7607 Y0.3419
G01 X-1.7242 Y0.4191
G01 X-1.6955 Y0.4995
G01 X-1.6747 Y0.5823
G01 X-1.6622 Y0.6667
G01 X-1.6580 Y0.7520
G01 X-1.6622 Y0.8373
G01 X-1.6747 Y0.9217
G01 X-1.6955 Y1.0045
G01 X-1.7242 Y1.0849
G01 X-1.7607 Y1.1621
G01 X-1.8046 Y1.2353
G01 X-1.8555 Y1.3039
G01 X-1.9128 Y1.3672
G01 X-1.9761 Y1.4245
G01 X-2.0447 Y1.4754
G01 X-2.1179 Y1.5193
G01 X-2.1951 Y1.5558
G01 X-2.2755 Y1.5845
G01 X-2.3583 Y1.6053
G01 X-2.4427 Y1.6178
G01 X-2.5280 Y1.6220
G01 X-2.6133 Y1.6178
G01 X-2.6977 Y1.6053
G01 X-2.7805 Y1.5845
G01 X-2.8609 Y1.5558
G01 X-2.9381 Y1.5193
G01 X-3.0113 Y1.4754
G01 X-3.0799 Y1.4245
G01 X-3.1432 Y1.3672
G01 X-3.2005 Y1.3039
G01 X-3.2514 Y1.2353
G01 X-3.2953 Y1.1621
G01 X-3.3318 Y1.0849
G01 X-3.3605 Y1.0045
G01 X-3.3813 Y0.9217
G01 X-3.3938 Y0.8373
G01 X-3.3980 Y0.7520
G01 X-3.3938 Y0.6667
G01 X-3.3813 Y0.5823
G01 X-3.3605 Y0.4995
G01 X-3.3318 Y0.4191
G01 X-3.2953 Y0.3419
G01 X-3.2514 Y0.2687
G01 X-3.2005 Y0.2001
G01 X-3.1432 Y0.1368
G01 X-3.0799 Y0.0795
G01 X-3.0113 Y0.0286
G01 X-2.9381 Y-0.0153
G01 X-2.8609 Y-0.0518
G01 X-2.7805 Y-0.0805
G01 X-2.6977 Y-0.1013
G01 X-2.6133 Y-0.1138
G01 X-2.5314 Y-0.1179
G01 X-2.5246 Y-0.1179
G00 Z2.0000
G00 X-5.0646 Y-0.1179
G01 F20.00
G01 Z-0.0746
G01 F60.00
G01 X-4.9827 Y-0.1138
G01 X-4.8983 Y-0.1013
G01 X-4.8155 Y-0.0805
G01 X-4.7351 Y-0.0518
G01 X-4.6579 Y-0.0153
G01 X-4.5847 Y0.0286
G01 X-4.5161 Y0.0795
G01 X-4.4528 Y0.1368
G01 X-4.3955 Y0.2001
G01 X-4.3446 Y0.2687
G01 X-4.3007 Y0.3419
G01 X-4.2642 Y0.4191
G01 X-4.2355 Y0.4995
G01 X-4.2147 Y0.5823
G01 X-4.2022 Y0.6667
G01 X-4.1980 Y0.7520
G01 X-4.2022 Y0.8373
G01 X-4.2147 Y0.9217
G01 X-4.2355 Y1.0045
G01 X-4.2642 Y1.0849
G01 X-4.3007 Y1.1621
G01 X-4.3446 Y1.2353
G01 X-4.3955 Y1.3039
G01 X-4.4528 Y1.3672
G01 X-4.5161 Y1.4245
G01 X-4.5847 Y1.4754
G01 X-4.6579 Y1.5193
G01 X-4.7351 Y1.5558
G01 X-4.8155 Y1.5845
G01 X-4.8983 Y1.6053
G01 X-4.9827 Y1.6178
G01 X-5.0680 Y1.6220
G01 X-5.1533 Y1.6178
G01 X-5.2377 Y1.6053
G01 X-5.3205 Y1.5845
G01 X-5.4009 Y1.5558
G01 X-5.4781 Y1.5193
G01 X-5.5513 Y1.4754
G01 X-5.6199 Y1.4245
G01 X-5.6832 Y1.3672
G01 X-5.7405 Y1.3039
G01 X-5.7914 Y1.2353
G01 X-5.8353 Y1.1621
G01 X-5.8718 Y1.0849
G01 X-5.9005 Y1.0045
G01 X-5.9213 Y0.9217
G01 X-5.9338 Y0.8373
G01 X-5.9380 Y0.7520
G01 X-5.9338 Y0.6667
G01 X-5.9213 Y0.5823
G01 X-5.9005 Y0.4995
G01 X-5.8718 Y0.4191
G01 X-5.8353 Y0.3419
G01 X-5.7914 Y0.2687
G01 X-5.7405 Y0.2001
G01 X-5.6832 Y0.1368
G01 X-5.6199 Y0.0795
G01 X-5.5513 Y0.0286
G01 X-5.4781 Y-0.0153
G01 X-5.4009 Y-0.0518
G01 X-5.3205 Y-0.0805
G01 X-5.2377 Y-0.1013
G01 X-5.1533 Y-0.1138
G01 X-5.0714 Y-0.1179
G01 X-5.0646 Y-0.1179
G00 Z2.0000
G00 X-7.6046 Y-0.1179
G01 F20.00
G01 Z-0.0746
G01 F60.00
G01 X-7.5227 Y-0.1138
G01 X-7.4383 Y-0.1013
G01 X-7.3555 Y-0.0805
G01 X-7.2751 Y-0.0518
G01 X-7.1979 Y-0.0153
G01 X-7.1247 Y0.0286
G01 X-7.0561 Y0.0795
G01 X-6.9928 Y0.1368
G01 X-6.9355 Y0.2001
G01 X-6.8846 Y0.2687
G01 X-6.8407 Y0.3419
G01 X-6.8042 Y0.4191
G01 X-6.7755 Y0.4995
G01 X-6.7547 Y0.5823
G01 X-6.7422 Y0.6667
G01 X-6.7380 Y0.7520
G01 X-6.7422 Y0.8373
G01 X-6.7547 Y0.9217
G01 X-6.7755 Y1.0045
G01 X-6.8042 Y1.0849
G01 X-6.8407 Y1.1621
G01 X-6.8846 Y1.2353
G01 X-6.9355 Y1.3039
G01 X-6.9928 Y1.3672
G01 X-7.0561 Y1.4245
G01 X-7.1247 Y1.4754
G01 X-7.1979 Y1.5193
G01 X-7.2751 Y1.5558
G01 X-7.3555 Y1.5845
G01 X-7.4383 Y1.6053
G01 X-7.5227 Y1.6178
G01 X-7.6080 Y1.6220
G01 X-7.6933 Y1.6178
G01 X-7.7777 Y1.6053
G01 X-7.8605 Y1.5845
G01 X-7.9409 Y1.5558
G01 X-8.0181 Y1.5193
G01 X-8.0913 Y1.4754
G01 X-8.1599 Y1.4245
G01 X-8.2232 Y1.3672
G01 X-8.2805 Y1.3039
G01 X-8.3314 Y1.2353
G01 X-8.3753 Y1.1621
G01 X-8.4118 Y1.0849
G01 X-8.4405 Y1.0045
G01 X-8.4613 Y0.9217
G01 X-8.4738 Y0.8373
G01 X-8.4780 Y0.7520
G01 X-8.4738 Y0.6667
G01 X-8.4613 Y0.5823
G01 X-8.4405 Y0.4995
G01 X-8.4118 Y0.4191
G01 X-8.3753 Y0.3419
G01 X-8.3314 Y0.2687
G01 X-8.2805 Y0.2001
G01 X-8.2232 Y0.1368
G01 X-8.1599 Y0.0795
G01 X-8.0913 Y0.0286
G01 X-8.0181 Y-0.0153
G01 X-7.9409 Y-0.0518
G01 X-7.8605 Y-0.0805
G01 X-7.7777 Y-0.1013
G01 X-7.6933 Y-0.1138
G01 X-7.6114 Y-0.1179
G01 X-7.6046 Y-0.1179
G00 Z2.0000
G00 X-8.9970 Y4.4807
G01 F20.00
G01 Z-0.0746
G01 F60.00
G01 X-9.0089 Y4.3904
G01 X-9.0095 Y4.3813
G01 X-9.0093 Y1.6767
G01 X-8.9924 Y1.5660
G01 X-8.9899 Y1.5555
G01 X-8.9859 Y1.5456
G01 X-8.9386 Y1.4500
G01 X-8.9360 Y1.4453
G01 X-8.9320 Y1.4393
G01 X-8.9262 Y1.4325
G01 X-8.8522 Y1.3557
G01 X-8.8442 Y1.3486
G01 X-8.8352 Y1.3428
G01 X-8.7415 Y1.2919
G01 X-8.7334 Y1.2882
G01 X-8.7248 Y1.2855
G01 X-8.6166 Y1.2645
G01 X-8.6113 Y1.2637
G01 X-8.6042 Y1.2633
G01 X-8.5952 Y1.2638
G01 X-8.4875 Y1.2764
G01 X-8.4788 Y1.2782
G01 X-8.4703 Y1.2811
G01 X-8.3714 Y1.3257
G01 X-8.3651 Y1.3289
G01 X-8.3591 Y1.3328
G01 X-8.3535 Y1.3373
G01 X-8.3127 Y1.3739
G01 X-8.3030 Y1.3793
G01 X-8.2949 Y1.3856
G01 X-8.2791 Y1.4014
G01 X-8.2691 Y1.4131
G01 X-8.1275 Y1.5294
G01 X-7.9658 Y1.6158
G01 X-7.7904 Y1.6690
G01 X-7.6080 Y1.6870
G01 X-7.4256 Y1.6690
G01 X-7.2502 Y1.6158
G01 X-7.0885 Y1.5294
G01 X-6.9469 Y1.4131
G01 X-6.8306 Y1.2715
G01 X-6.7442 Y1.1098
G01 X-6.7385 Y1.0911
G01 X-6.7356 Y1.0837
G01 X-6.6862 Y0.9826
G01 X-6.6829 Y0.9766
G01 X-6.6790 Y0.9709
G01 X-6.6746 Y0.9657
G01 X-6.5948 Y0.8838
G01 X-6.5883 Y0.8782
G01 X-6.5797 Y0.8726
G01 X-6.4797 Y0.8207
G01 X-6.4702 Y0.8167
G01 X-6.4653 Y0.8152
G01 X-6.4586 Y0.8138
G01 X-6.3491 Y0.7961
G01 X-6.3406 Y0.7953
G01 X-6.3303 Y0.7957
G01 X-6.2174 Y0.8138
G01 X-6.2124 Y0.8148
G01 X-6.2058 Y0.8167
G01 X-6.1963 Y0.8207
G01 X-6.0963 Y0.8726
G01 X-6.0877 Y0.8782
G01 X-6.0812 Y0.8838
G01 X-6.0014 Y0.9657
G01 X-5.9970 Y0.9709
G01 X-5.9931 Y0.9766
G01 X-5.9898 Y0.9826
G01 X-5.9404 Y1.0837
G01 X-5.9375 Y1.0911
G01 X-5.9318 Y1.1098
G01 X-5.8454 Y1.2715
G01 X-5.7291 Y1.4131
G01 X-5.5875 Y1.5294
G01 X-5.4258 Y1.6158
G01 X-5.2504 Y1.6690
G01 X-5.0680 Y1.6870
G01 X-4.8856 Y1.6690
G01 X-4.7102 Y1.6158
G01 X-4.5485 Y1.5294
G01 X-4.4069 Y1.4131
G01 X-4.2906 Y1.2715
G01 X-4.2042 Y1.1098
G01 X-4.1985 Y1.0911
G01 X-4.1956 Y1.0837
G01 X-4.1462 Y0.9826
G01 X-4.1429 Y0.9766
G01 X-4.1390 Y0.9709
G01 X-4.1346 Y0.9657
G01 X-4.0548 Y0.8838
G01 X-4.0469 Y0.8772
G01 X-4.0397 Y0.8726
G01 X-3.9397 Y0.8207
G01 X-3.9302 Y0.8167
G01 X-3.9253 Y0.8152
G01 X-3.9186 Y0.8138
G01 X-3.8091 Y0.7961
G01 X-3.8023 Y0.7954
G01 X-3.7937 Y0.7954
G01 X-3.7869 Y0.7961
G01 X-3.6774 Y0.8138
G01 X-3.6707 Y0.8152
G01 X-3.6658 Y0.8167
G01 X-3.6563 Y0.8207
G01 X-3.5563 Y0.8726
G01 X-3.5477 Y0.8782
G01 X-3.5412 Y0.8838
G01 X-3.4614 Y0.9657
G01 X-3.4570 Y0.9709
G01 X-3.4531 Y0.9766
G01 X-3.4498 Y0.9826
G01 X-3.4004 Y1.0837
G01 X-3.3975 Y1.0911
G01 X-3.3918 Y1.1098
G01 X-3.3054 Y1.2715
G01 X-3.1891 Y1.4131
G01 X-3.0475 Y1.5294
G01 X-2.8858 Y1.6158
G01 X-2.7202 Y1.6661
G01 X-2.7104 Y1.6690
G01 X-2.5280 Y1.6870
G01 X-2.3456 Y1.6690
G01 X-2.3358 Y1.6661
G01 X-2.1702 Y1.6158
G01 X-2.0085 Y1.5294
G01 X-1.8669 Y1.4131
G01 X-1.7506 Y1.2715
G01 X-1.6642 Y1.1098
G01 X-1.6585 Y1.0911
G01 X-1.6556 Y1.0837
G01 X-1.6062 Y0.9826
G01 X-1.6029 Y0.9766
G01 X-1.5990 Y0.9709
G01 X-1.5946 Y0.9657
G01 X-1.5148 Y0.8838
G01 X-1.5069 Y0.8772
G01 X-1.4997 Y0.8726
G01 X-1.3997 Y0.8207
G01 X-1.3902 Y0.8167
G01 X-1.3836 Y0.8148
G01 X-1.3786 Y0.8138
G01 X-1.2691 Y0.7961
G01 X-1.2623 Y0.7954
G01 X-1.2554 Y0.7953
G01 X-1.2469 Y0.7961
G01 X-1.1374 Y0.8138
G01 X-1.1307 Y0.8152
G01 X-1.1258 Y0.8167
G01 X-1.1163 Y0.8207
G01 X-1.0163 Y0.8726
G01 X-1.0077 Y0.8782
G01 X-1.0012 Y0.8838
G01 X-0.9214 Y0.9657
G01 X-0.9170 Y0.9709
G01 X-0.9131 Y0.9766
G01 X-0.9098 Y0.9826
G01 X-0.8604 Y1.0837
G01 X-0.8575 Y1.0911
G01 X-0.8518 Y1.1098
G01 X-0.7654 Y1.2715
G01 X-0.6491 Y1.4131
G01 X-0.5075 Y1.5294
G01 X-0.3458 Y1.6158
G01 X-0.1802 Y1.6661
G01 X-0.1704 Y1.6690
G01 X0.0120 Y1.6870
G01 X0.1944 Y1.6690
G01 X0.2042 Y1.6661
G01 X0.3698 Y1.6158
G01 X0.5315 Y1.5294
G01 X0.6731 Y1.4131
G01 X0.7894 Y1.2715
G01 X0.8758 Y1.1098
G01 X0.8815 Y1.0911
G01 X0.8844 Y1.0837
G01 X0.9338 Y0.9826
G01 X0.9371 Y0.9766
G01 X0.9410 Y0.9709
G01 X0.9454 Y0.9657
G01 X1.0252 Y0.8838
G01 X1.0331 Y0.8772
G01 X1.0403 Y0.8726
G01 X1.1403 Y0.8207
G01 X1.1498 Y0.8167
G01 X1.1564 Y0.8148
G01 X1.1614 Y0.8138
G01 X1.2709 Y0.7961
G01 X1.2777 Y0.7954
G01 X1.2846 Y0.7953
G01 X1.2931 Y0.7961
G01 X1.4026 Y0.8138
G01 X1.4093 Y0.8152
G01 X1.4142 Y0.8167
G01 X1.4237 Y0.8207
G01 X1.5237 Y0.8726
G01 X1.5323 Y0.8782
G01 X1.5388 Y0.8838
G01 X1.6186 Y0.9657
G01 X1.6230 Y0.9709
G01 X1.6269 Y0.9766
G01 X1.6302 Y0.9826
G01 X1.6796 Y1.0837
G01 X1.6825 Y1.0911
G01 X1.6882 Y1.1098
G01 X1.7746 Y1.2715
G01 X1.8909 Y1.4131
G01 X2.0325 Y1.5294
G01 X2.1942 Y1.6158
G01 X2.3598 Y1.6661
G01 X2.3696 Y1.6690
G01 X2.5520 Y1.6870
G01 X2.7344 Y1.6690
G01 X2.7442 Y1.6661
G01 X2.9098 Y1.6158
G01 X3.0715 Y1.5294
G01 X3.2131 Y1.4131
G01 X3.3294 Y1.2715
G01 X3.4158 Y1.1098
G01 X3.4215 Y1.0911
G01 X3.4244 Y1.0837
G01 X3.4738 Y0.9826
G01 X3.4771 Y0.9766
G01 X3.4810 Y0.9709
G01 X3.4854 Y0.9657
G01 X3.5652 Y0.8838
G01 X3.5717 Y0.8782
G01 X3.5803 Y0.8726
G01 X3.6803 Y0.8207
G01 X3.6898 Y0.8167
G01 X3.6947 Y0.8152
G01 X3.7014 Y0.8138
G01 X3.8109 Y0.7961
G01 X3.8177 Y0.7954
G01 X3.8246 Y0.7953
G01 X3.8331 Y0.7961
G01 X3.9426 Y0.8138
G01 X3.9493 Y0.8152
G01 X3.9542 Y0.8167
G01 X3.9637 Y0.8207
G01 X4.0637 Y0.8726
G01 X4.0723 Y0.8782
G01 X4.0788 Y0.8838
G01 X4.1586 Y0.9657
G01 X4.1630 Y0.9709
G01 X4.1669 Y0.9766
G01 X4.1702 Y0.9826
G01 X4.2196 Y1.0837
G01 X4.2225 Y1.0911
G01 X4.2282 Y1.1098
G01 X4.3146 Y1.2715
G01 X4.4309 Y1.4131
G01 X4.5725 Y1.5294
G01 X4.7342 Y1.6158
G01 X4.8998 Y1.6661
G01 X4.9096 Y1.6690
G01 X5.0920 Y1.6870
G01 X5.2744 Y1.6690
G01 X5.2842 Y1.6661
G01 X5.4498 Y1.6158
G01 X5.6115 Y1.5294
G01 X5.7531 Y1.4131
G01 X5.8694 Y1.2715
G01 X5.9558 Y1.1098
G01 X5.9615 Y1.0911
G01 X5.9644 Y1.0837
G01 X6.0138 Y0.9826
G01 X6.0171 Y0.9766
G01 X6.0210 Y0.9709
G01 X6.0254 Y0.9657
G01 X6.1040 Y0.8850
G01 X6.1104 Y0.8793
G01 X6.1174 Y0.8743
G01 X6.2203 Y0.8207
G01 X6.2298 Y0.8167
G01 X6.2347 Y0.8152
G01 X6.2414 Y0.8138
G01 X6.3526 Y0.7959
G01 X6.3629 Y0.7953
G01 X6.3731 Y0.7961
G01 X6.4843 Y0.8141
G01 X6.4926 Y0.8161
G01 X6.5006 Y0.8192
G01 X6.6021 Y0.8718
G01 X6.6081 Y0.8753
G01 X6.6123 Y0.8782
G01 X6.6200 Y0.8850
G01 X6.7009 Y0.9682
G01 X6.7060 Y0.9751
G01 X6.7095 Y0.9811
G01 X6.7589 Y1.0822
G01 X6.7625 Y1.0911
G01 X6.7682 Y1.1098
G01 X6.8546 Y1.2715
G01 X6.9709 Y1.4131
G01 X7.1125 Y1.5294
G01 X7.2742 Y1.6158
G01 X7.4496 Y1.6690
G01 X7.5356 Y1.6777
G01 X7.6168 Y1.6951
G01 X7.6219 Y1.6965
G01 X7.6287 Y1.6988
G01 X7.7040 Y1.7344
G01 X7.7118 Y1.7387
G01 X7.7176 Y1.7428
G01 X7.7801 Y1.7924
G01 X7.7849 Y1.7966
G01 X12.4668 Y6.4784
G01 X12.4728 Y6.4853
G01 X12.5283 Y6.5576
G01 X12.5329 Y6.5645
G01 X12.5368 Y6.5719
G01 X12.5723 Y6.6576
G01 X12.5754 Y6.6671
G01 X12.5770 Y6.6753
G01 X12.5889 Y6.7656
G01 X12.5895 Y6.7747
G01 X12.5895 Y14.0333
G01 X12.5889 Y14.0424
G01 X12.5770 Y14.1327
G01 X12.5754 Y14.1409
G01 X12.5723 Y14.1504
G01 X12.5368 Y14.2361
G01 X12.5338 Y14.2421
G01 X12.5293 Y14.2491
G01 X12.4728 Y14.3227
G01 X12.4681 Y14.3282
G01 X12.0656 Y14.7308
G01 X12.0601 Y14.7357
G01 X11.9864 Y14.7923
G01 X11.9795 Y14.7969
G01 X11.9706 Y14.8014
G01 X11.8864 Y14.8363
G01 X11.8785 Y14.8390
G01 X11.8704 Y14.8408
G01 X11.7748 Y14.8533
G01 X4.1077 Y14.8535
G01 X4.0824 Y14.8527
G01 X4.0377 Y14.8500
G01 X3.9915 Y14.8585
G01 X3.9685 Y14.8619
G01 X3.9240 Y14.8673
G01 X3.9124 Y14.8717
G01 X3.9044 Y14.8741
G01 X3.8870 Y14.8776
G01 X3.8442 Y14.8969
G01 X3.8228 Y14.9057
G01 X3.7808 Y14.9216
G01 X3.7706 Y14.9287
G01 X3.7634 Y14.9329
G01 X3.7474 Y14.9405
G01 X3.7121 Y14.9681
G01 X3.6935 Y14.9819
G01 X3.6548 Y15.0086
G01 X3.6251 Y15.0422
G01 X3.6077 Y15.0606
G01 X2.1286 Y16.5397
G01 X2.1102 Y16.5571
G01 X2.0766 Y16.5868
G01 X2.0499 Y16.6255
G01 X2.0361 Y16.6441
G01 X2.0085 Y16.6794
G01 X2.0009 Y16.6954
G01 X1.9967 Y16.7026
G01 X1.9896 Y16.7128
G01 X1.9737 Y16.7548
G01 X1.9649 Y16.7762
G01 X1.9456 Y16.8190
G01 X1.9434 Y16.8313
G01 X1.9413 Y16.8393
G01 X1.9353 Y16.8560
G01 X1.9299 Y16.9005
G01 X1.9265 Y16.9234
G01 X1.9180 Y16.9697
G01 X1.9207 Y17.0144
G01 X1.9215 Y17.0397
G01 X1.9215 Y17.1756
G01 X1.9210 Y17.1836
G01 X1.9119 Y17.2628
G01 X1.9103 Y17.2716
G01 X1.9083 Y17.2784
G01 X1.8808 Y17.3552
G01 X1.8787 Y17.3601
G01 X1.8753 Y17.3664
G01 X1.8293 Y17.4376
G01 X1.7746 Y17.5045
G01 X1.6882 Y17.6662
G01 X1.6825 Y17.6849
G01 X1.6789 Y17.6938
G01 X1.6295 Y17.7949
G01 X1.6251 Y17.8023
G01 X1.6198 Y17.8091
G01 X1.5400 Y17.8909
G01 X1.5363 Y17.8945
G01 X1.5309 Y17.8988
G01 X1.5221 Y17.9042
G01 X1.4237 Y17.9553
G01 X1.4175 Y17.9581
G01 X1.4126 Y17.9599
G01 X1.4026 Y17.9622
G01 X1.2931 Y17.9799
G01 X1.2863 Y17.9806
G01 X1.2811 Y17.9807
G01 X1.2709 Y17.9799
G01 X1.1597 Y17.9619
G01 X1.1514 Y17.9599
G01 X1.1434 Y17.9568
G01 X1.0419 Y17.9042
G01 X1.0359 Y17.9007
G01 X1.0317 Y17.8978
G01 X1.0240 Y17.8909
G01 X0.9431 Y17.8078
G01 X0.9380 Y17.8009
G01 X0.9345 Y17.7949
G01 X0.8851 Y17.6938
G01 X0.8815 Y17.6849
G01 X0.8758 Y17.6662
G01 X0.7894 Y17.5045
G01 X0.6731 Y17.3629
G01 X0.5315 Y17.2466
G01 X0.3698 Y17.1602
G01 X0.1944 Y17.1070
G01 X0.1084 Y17.0983
G01 X0.0272 Y17.0809
G01 X0.0170 Y17.0778
G01 X-0.0600 Y17.0416
G01 X-0.0663 Y17.0383
G01 X-0.0736 Y17.0332
G01 X-0.1398 Y16.9805
G01 X-1.7761 Y15.3442
G01 X-1.7808 Y15.3387
G01 X-1.8363 Y15.2664
G01 X-1.8409 Y15.2595
G01 X-1.8454 Y15.2506
G01 X-1.8809 Y15.1649
G01 X-1.8834 Y15.1569
G01 X-1.8850 Y15.1487
G01 X-1.8969 Y15.0584
G01 X-1.8975 Y15.0493
G01 X-1.8973 Y11.2476
G01 X-1.8879 Y11.1652
G01 X-1.8863 Y11.1564
G01 X-1.8843 Y11.1496
G01 X-1.8574 Y11.0745
G01 X-1.8547 Y11.0679
G01 X-1.8503 Y11.0601
G01 X-1.8053 Y10.9904
G01 X-1.7506 Y10.9235
G01 X-1.6642 Y10.7618
G01 X-1.6585 Y10.7431
G01 X-1.6556 Y10.7357
G01 X-1.6062 Y10.6346
G01 X-1.6011 Y10.6257
G01 X-1.5969 Y10.6202
G01 X-1.5934 Y10.6164
G01 X-1.5160 Y10.5370
G01 X-1.5083 Y10.5302
G01 X-1.5026 Y10.5263
G01 X-1.4981 Y10.5238
G01 X-1.3997 Y10.4727
G01 X-1.3935 Y10.4699
G01 X-1.3886 Y10.4681
G01 X-1.3786 Y10.4658
G01 X-1.2691 Y10.4481
G01 X-1.2640 Y10.4475
G01 X-1.2571 Y10.4473
G01 X-1.2469 Y10.4481
G01 X-1.1374 Y10.4658
G01 X-1.1290 Y10.4676
G01 X-1.1209 Y10.4705
G01 X-1.0179 Y10.5238
G01 X-1.0091 Y10.5292
G01 X-1.0037 Y10.5335
G01 X-1.0000 Y10.5370
G01 X-0.9202 Y10.6189
G01 X-0.9149 Y10.6257
G01 X-0.9105 Y10.6331
G01 X-0.8611 Y10.7342
G01 X-0.8575 Y10.7431
G01 X-0.8518 Y10.7618
G01 X-0.7654 Y10.9235
G01 X-0.6491 Y11.0651
G01 X-0.5075 Y11.1814
G01 X-0.3458 Y11.2678
G01 X-0.1802 Y11.3181
G01 X-0.1704 Y11.3210
G01 X0.0120 Y11.3390
G01 X0.1944 Y11.3210
G01 X0.2042 Y11.3181
G01 X0.3698 Y11.2678
G01 X0.5315 Y11.1814
G01 X0.6731 Y11.0651
G01 X0.7894 Y10.9235
G01 X0.8758 Y10.7618
G01 X0.8815 Y10.7431
G01 X0.8844 Y10.7357
G01 X0.9338 Y10.6346
G01 X0.9371 Y10.6286
G01 X0.9410 Y10.6229
G01 X0.9454 Y10.6177
G01 X1.0240 Y10.5370
G01 X1.0304 Y10.5313
G01 X1.0374 Y10.5263
G01 X1.1418 Y10.4720
G01 X1.1514 Y10.4681
G01 X1.1614 Y10.4658
G01 X1.2709 Y10.4481
G01 X1.2811 Y10.4473
G01 X1.2880 Y10.4475
G01 X1.2931 Y10.4481
G01 X1.4026 Y10.4658
G01 X1.4126 Y10.4681
G01 X1.4222 Y10.4720
G01 X1.5221 Y10.5238
G01 X1.5309 Y10.5292
G01 X1.5363 Y10.5335
G01 X1.5400 Y10.5370
G01 X1.6198 Y10.6189
G01 X1.6251 Y10.6257
G01 X1.6295 Y10.6331
G01 X1.6789 Y10.7342
G01 X1.6825 Y10.7431
G01 X1.6882 Y10.7618
G01 X1.7746 Y10.9235
G01 X1.8909 Y11.0651
G01 X2.0325 Y11.1814
G01 X2.1942 Y11.2678
G01 X2.3598 Y11.3181
G01 X2.3696 Y11.3210
G01 X2.5520 Y11.3390
G01 X2.7344 Y11.3210
G01 X2.7442 Y11.3181
G01 X2.9098 Y11.2678
G01 X3.0715 Y11.1814
G01 X3.2131 Y11.0651
G01 X3.3294 Y10.9235
G01 X3.4158 Y10.7618
G01 X3.4215 Y10.7431
G01 X3.4244 Y10.7357
G01 X3.4738 Y10.6346
G01 X3.4771 Y10.6286
G01 X3.4810 Y10.6229
G01 X3.4854 Y10.6177
G01 X3.5652 Y10.5358
G01 X3.5717 Y10.5302
G01 X3.5803 Y10.5246
G01 X3.6803 Y10.4727
G01 X3.6898 Y10.4687
G01 X3.6947 Y10.4672
G01 X3.7014 Y10.4658
G01 X3.8109 Y10.4481
G01 X3.8211 Y10.4473
G01 X3.8297 Y10.4477
G01 X3.9426 Y10.4658
G01 X3.9476 Y10.4668
G01 X3.9542 Y10.4687
G01 X3.9637 Y10.4727
G01 X4.0637 Y10.5246
G01 X4.0709 Y10.5292
G01 X4.0775 Y10.5347
G01 X4.1574 Y10.6164
G01 X4.1620 Y10.6216
G01 X4.1660 Y10.6271
G01 X4.1702 Y10.6346
G01 X4.2196 Y10.7357
G01 X4.2225 Y10.7431
G01 X4.2282 Y10.7618
G01 X4.3146 Y10.9235
G01 X4.4309 Y11.0651
G01 X4.5725 Y11.1814
G01 X4.7342 Y11.2678
G01 X4.9096 Y11.3210
G01 X5.0920 Y11.3390
G01 X5.2744 Y11.3210
G01 X5.4498 Y11.2678
G01 X5.6115 Y11.1814
G01 X5.7531 Y11.0651
G01 X5.8634 Y10.9310
G01 X5.9411 Y10.8599
G01 X5.9504 Y10.8528
G01 X5.9578 Y10.8487
G01 X6.0480 Y10.8050
G01 X6.0590 Y10.8007
G01 X6.0672 Y10.7989
G01 X6.1677 Y10.7824
G01 X6.1761 Y10.7817
G01 X6.1862 Y10.7822
G01 X6.2857 Y10.7948
G01 X6.2972 Y10.7972
G01 X6.3050 Y10.8001
G01 X6.3984 Y10.8411
G01 X6.4043 Y10.8442
G01 X6.4113 Y10.8489
G01 X6.4905 Y10.9158
G01 X6.4988 Y10.9241
G01 X6.5038 Y10.9308
G01 X6.5340 Y10.9769
G01 X6.5404 Y10.9833
G01 X6.5466 Y10.9915
G01 X6.5697 Y11.0313
G01 X6.6792 Y11.1877
G01 X6.6948 Y11.2063
G01 X6.8297 Y11.3412
G01 X6.8483 Y11.3568
G01 X7.0047 Y11.4663
G01 X7.0257 Y11.4784
G01 X7.1987 Y11.5591
G01 X7.2120 Y11.5639
G01 X7.2120 Y11.1654
G01 X7.1487 Y11.1274
G01 X7.0828 Y11.0786
G01 X7.0775 Y11.0743
G01 X7.0168 Y11.0192
G01 X6.9617 Y10.9585
G01 X6.9574 Y10.9532
G01 X6.9086 Y10.8873
G01 X6.8664 Y10.8171
G01 X6.8632 Y10.8110
G01 X6.8282 Y10.7369
G01 X6.8005 Y10.6598
G01 X6.7985 Y10.6532
G01 X6.7787 Y10.5737
G01 X6.7666 Y10.4927
G01 X6.7659 Y10.4858
G01 X6.7620 Y10.4040
G01 X6.7659 Y10.3222
G01 X6.7666 Y10.3153
G01 X6.7787 Y10.2343
G01 X6.7985 Y10.1548
G01 X6.8005 Y10.1482
G01 X6.8282 Y10.0711
G01 X6.8632 Y9.9970
G01 X6.8664 Y9.9909
G01 X6.9086 Y9.9207
G01 X6.9574 Y9.8548
G01 X6.9617 Y9.8495
G01 X7.0168 Y9.7888
G01 X7.0775 Y9.7337
G01 X7.0828 Y9.7294
G01 X7.1487 Y9.6806
G01 X7.2120 Y9.6426
G01 X7.2120 Y9.2441
G01 X7.1987 Y9.2489
G01 X7.0257 Y9.3296
G01 X7.0047 Y9.3417
G01 X6.8483 Y9.4512
G01 X6.8297 Y9.4668
G01 X6.6948 Y9.6017
G01 X6.6792 Y9.6203
G01 X6.5697 Y9.7767
G01 X6.5466 Y9.8165
G01 X6.5404 Y9.8247
G01 X6.5340 Y9.8311
G01 X6.5038 Y9.8771
G01 X6.4988 Y9.8839
G01 X6.4905 Y9.8922
G01 X6.4113 Y9.9590
G01 X6.4058 Y9.9629
G01 X6.3984 Y9.9669
G01 X6.3051 Y10.0079
G01 X6.2972 Y10.0108
G01 X6.2857 Y10.0132
G01 X6.1862 Y10.0258
G01 X6.1761 Y10.0263
G01 X6.1678 Y10.0256
G01 X6.0672 Y10.0091
G01 X6.0590 Y10.0073
G01 X6.0480 Y10.0031
G01 X5.9578 Y9.9593
G01 X5.9504 Y9.9552
G01 X5.9411 Y9.9481
G01 X5.8635 Y9.8770
G01 X5.7531 Y9.7429
G01 X5.6115 Y9.6266
G01 X5.4498 Y9.5402
G01 X5.2744 Y9.4870
G01 X5.0920 Y9.4690
G01 X4.9096 Y9.4870
G01 X4.7342 Y9.5402
G01 X4.5725 Y9.6266
G01 X4.4309 Y9.7429
G01 X4.3146 Y9.8845
G01 X4.2282 Y10.0462
G01 X4.2224 Y10.0651
G01 X4.2197 Y10.0721
G01 X4.1702 Y10.1734
G01 X4.1660 Y10.1809
G01 X4.1620 Y10.1864
G01 X4.1574 Y10.1916
G01 X4.0763 Y10.2745
G01 X4.0695 Y10.2798
G01 X4.0621 Y10.2842
G01 X3.9637 Y10.3353
G01 X3.9542 Y10.3393
G01 X3.9477 Y10.3412
G01 X3.9426 Y10.3422
G01 X3.8280 Y10.3605
G01 X3.8194 Y10.3607
G01 X3.8109 Y10.3599
G01 X3.7014 Y10.3422
G01 X3.6963 Y10.3412
G01 X3.6898 Y10.3393
G01 X3.6803 Y10.3353
G01 X3.5803 Y10.2834
G01 X3.5731 Y10.2788
G01 X3.5652 Y10.2722
G01 X3.4854 Y10.1903
G01 X3.4810 Y10.1851
G01 X3.4771 Y10.1794
G01 X3.4738 Y10.1734
G01 X3.4244 Y10.0723
G01 X3.4215 Y10.0649
G01 X3.4158 Y10.0462
G01 X3.3294 Y9.8845
G01 X3.2131 Y9.7429
G01 X3.0715 Y9.6266
G01 X2.9098 Y9.5402
G01 X2.7344 Y9.4870
G01 X2.5520 Y9.4690
G01 X2.3696 Y9.4870
G01 X2.1942 Y9.5402
G01 X2.0325 Y9.6266
G01 X1.8909 Y9.7429
G01 X1.7746 Y9.8845
G01 X1.6882 Y10.0462
G01 X1.6824 Y10.0651
G01 X1.6797 Y10.0721
G01 X1.6302 Y10.1734
G01 X1.6269 Y10.1794
G01 X1.6230 Y10.1851
G01 X1.6186 Y10.1903
G01 X1.5388 Y10.2722
G01 X1.5323 Y10.2778
G01 X1.5237 Y10.2834
G01 X1.4237 Y10.3353
G01 X1.4142 Y10.3393
G01 X1.4093 Y10.3408
G01 X1.4026 Y10.3422
G01 X1.2914 Y10.3601
G01 X1.2829 Y10.3607
G01 X1.2726 Y10.3601
G01 X1.1614 Y10.3422
G01 X1.1514 Y10.3399
G01 X1.1449 Y10.3375
G01 X1.1403 Y10.3353
G01 X1.0403 Y10.2834
G01 X1.0331 Y10.2788
G01 X1.0252 Y10.2722
G01 X0.9454 Y10.1903
G01 X0.9410 Y10.1851
G01 X0.9371 Y10.1794
G01 X0.9338 Y10.1734
G01 X0.8844 Y10.0723
G01 X0.8815 Y10.0649
G01 X0.8758 Y10.0462
G01 X0.7894 Y9.8845
G01 X0.6731 Y9.7429
G01 X0.5315 Y9.6266
G01 X0.3698 Y9.5402
G01 X0.1944 Y9.4870
G01 X0.0120 Y9.4690
G01 X-0.1704 Y9.4870
G01 X-0.3458 Y9.5402
G01 X-0.5075 Y9.6266
G01 X-0.6491 Y9.7429
G01 X-0.7654 Y9.8845
G01 X-0.8518 Y10.0462
G01 X-0.8576 Y10.0651
G01 X-0.8611 Y10.0738
G01 X-0.9105 Y10.1749
G01 X-0.9149 Y10.1823
G01 X-0.9202 Y10.1891
G01 X-1.0000 Y10.2709
G01 X-1.0037 Y10.2745
G01 X-1.0091 Y10.2788
G01 X-1.0179 Y10.2842
G01 X-1.1178 Y10.3360
G01 X-1.1258 Y10.3393
G01 X-1.1340 Y10.3416
G01 X-1.2469 Y10.3599
G01 X-1.2571 Y10.3607
G01 X-1.2640 Y10.3605
G01 X-1.2691 Y10.3599
G01 X-1.3786 Y10.3422
G01 X-1.3886 Y10.3399
G01 X-1.3982 Y10.3360
G01 X-1.5026 Y10.2817
G01 X-1.5096 Y10.2767
G01 X-1.5160 Y10.2709
G01 X-1.5946 Y10.1903
G01 X-1.5990 Y10.1851
G01 X-1.6029 Y10.1794
G01 X-1.6062 Y10.1734
G01 X-1.6556 Y10.0723
G01 X-1.6585 Y10.0649
G01 X-1.6642 Y10.0462
G01 X-1.7506 Y9.8845
G01 X-1.8669 Y9.7429
G01 X-2.0085 Y9.6266
G01 X-2.1702 Y9.5402
G01 X-2.3456 Y9.4870
G01 X-2.5280 Y9.4690
G01 X-2.7104 Y9.4870
G01 X-2.8858 Y9.5402
G01 X-3.0475 Y9.6266
G01 X-3.1891 Y9.7429
G01 X-3.3054 Y9.8845
G01 X-3.3918 Y10.0462
G01 X-3.3976 Y10.0651
G01 X-3.4003 Y10.0721
G01 X-3.4498 Y10.1734
G01 X-3.4531 Y10.1794
G01 X-3.4570 Y10.1851
G01 X-3.4614 Y10.1903
G01 X-3.5400 Y10.2709
G01 X-3.5464 Y10.2767
G01 X-3.5534 Y10.2817
G01 X-3.6563 Y10.3353
G01 X-3.6658 Y10.3393
G01 X-3.6707 Y10.3408
G01 X-3.6774 Y10.3422
G01 X-3.7869 Y10.3599
G01 X-3.7971 Y10.3607
G01 X-3.8074 Y10.3601
G01 X-3.9186 Y10.3422
G01 X-3.9270 Y10.3404
G01 X-3.9335 Y10.3381
G01 X-3.9397 Y10.3353
G01 X-4.0381 Y10.2842
G01 X-4.0469 Y10.2788
G01 X-4.0510 Y10.2756
G01 X-4.0560 Y10.2709
G01 X-4.1334 Y10.1916
G01 X-4.1390 Y10.1851
G01 X-4.1429 Y10.1794
G01 X-4.1462 Y10.1734
G01 X-4.1956 Y10.0723
G01 X-4.1985 Y10.0649
G01 X-4.2042 Y10.0462
G01 X-4.2906 Y9.8845
G01 X-4.3453 Y9.8176
G01 X-4.3903 Y9.7479
G01 X-4.3947 Y9.7401
G01 X-4.3974 Y9.7335
G01 X-4.4243 Y9.6584
G01 X-4.4263 Y9.6516
G01 X-4.4279 Y9.6428
G01 X-4.4370 Y9.5636
G01 X-4.4375 Y9.5556
G01 X-4.4375 Y9.4197
G01 X-4.4367 Y9.3944
G01 X-4.4340 Y9.3497
G01 X-4.4421 Y9.3056
G01 X-4.4456 Y9.2826
G01 X-4.4513 Y9.2360
G01 X-4.4557 Y9.2244
G01 X-4.4581 Y9.2164
G01 X-4.4616 Y9.1990
G01 X-4.4809 Y9.1562
G01 X-4.4897 Y9.1348
G01 X-4.5056 Y9.0928
G01 X-4.5127 Y9.0826
G01 X-4.5169 Y9.0754
G01 X-4.5245 Y9.0594
G01 X-4.5521 Y9.0241
G01 X-4.5659 Y9.0055
G01 X-4.5926 Y8.9668
G01 X-4.6262 Y8.9371
G01 X-4.6446 Y8.9198
G01 X-8.8868 Y4.6776
G01 X-8.8928 Y4.6707
G01 X-8.9483 Y4.5984
G01 X-8.9538 Y4.5901
G01 X-8.9574 Y4.5826
G01 X-8.9929 Y4.4969
G01 X-8.9954 Y4.4889
G01 X-8.9970 Y4.4807
G00 Z2.0000
G00 X-10.2103 Y4.8160
G01 F20.00
G01 Z-0.0746
G01 F60.00
G01 X-10.2102 Y-1.7897
G01 X-10.2075 Y-1.8439
G01 X-10.1999 Y-1.8959
G01 X-10.1985 Y-1.9026
G01 X-10.1866 Y-1.9502
G01 X-10.1846 Y-1.9568
G01 X-10.1668 Y-2.0062
G01 X-10.1429 Y-2.0568
G01 X-10.1141 Y-2.1048
G01 X-10.0819 Y-2.1484
G01 X-10.0432 Y-2.1912
G01 X-9.5352 Y-2.6992
G01 X-9.4938 Y-2.7368
G01 X-9.4488 Y-2.7701
G01 X-9.4038 Y-2.7972
G01 X-9.3977 Y-2.8005
G01 X-9.3502 Y-2.8228
G01 X-9.3008 Y-2.8406
G01 X-9.2942 Y-2.8426
G01 X-9.2433 Y-2.8553
G01 X-9.1896 Y-2.8633
G01 X-9.1320 Y-2.8663
G01 X-4.7962 Y-2.8663
G01 X-0.8551 Y-6.8073
G01 X-0.8580 Y-6.8680
G01 X-0.8541 Y-6.9498
G01 X-0.8534 Y-6.9567
G01 X-0.8416 Y-7.0360
G01 X-0.8205 Y-7.1205
G01 X-0.7918 Y-7.2009
G01 X-0.7553 Y-7.2781
G01 X-0.7104 Y-7.3528
G01 X-0.6626 Y-7.4172
G01 X-0.6583 Y-7.4225
G01 X-0.6032 Y-7.4832
G01 X-0.5583 Y-7.5240
G01 X-0.5582 Y-9.9194
G01 X-0.5555 Y-9.9719
G01 X-0.5473 Y-10.0273
G01 X-0.5337 Y-10.0815
G01 X-0.5161 Y-10.1310
G01 X-0.5135 Y-10.1374
G01 X-0.4925 Y-10.1817
G01 X-0.4892 Y-10.1878
G01 X-0.4621 Y-10.2328
G01 X-0.4277 Y-10.2791
G01 X-0.3912 Y-10.3192
G01 X6.7649 Y-17.4753
G01 X6.7620 Y-17.5360
G01 X6.7659 Y-17.6178
G01 X6.7666 Y-17.6247
G01 X6.7781 Y-17.7023
G01 X6.7795 Y-17.7091
G01 X6.7995 Y-17.7885
G01 X6.8276 Y-17.8673
G01 X6.8647 Y-17.9461
G01 X6.9086 Y-18.0193
G01 X6.9595 Y-18.0879
G01 X7.0144 Y-18.1487
G01 X7.0193 Y-18.1536
G01 X7.0801 Y-18.2085
G01 X7.1487 Y-18.2594
G01 X7.2219 Y-18.3033
G01 X7.2991 Y-18.3398
G01 X7.3795 Y-18.3685
G01 X7.4623 Y-18.3893
G01 X7.5467 Y-18.4018
G01 X7.6286 Y-18.4059
G01 X7.6354 Y-18.4059
G01 X7.7138 Y-18.4021
G01 X7.7207 Y-18.4014
G01 X7.8017 Y-18.3893
G01 X7.8812 Y-18.3695
G01 X7.8878 Y-18.3675
G01 X7.9649 Y-18.3398
G01 X8.0421 Y-18.3033
G01 X8.1153 Y-18.2594
G01 X8.1826 Y-18.2096
G01 X8.2472 Y-18.1512
G01 X8.3045 Y-18.0879
G01 X8.3554 Y-18.0193
G01 X8.3993 Y-17.9461
G01 X8.4358 Y-17.8689
G01 X8.4645 Y-17.7885
G01 X8.4853 Y-17.7057
G01 X8.4978 Y-17.6213
G01 X8.5020 Y-17.5360
G01 X8.4978 Y-17.4507
G01 X8.4853 Y-17.3663
G01 X8.4645 Y-17.2835
G01 X8.4358 Y-17.2031
G01 X8.3993 Y-17.1259
G01 X8.3554 Y-17.0527
G01 X8.3066 Y-16.9868
G01 X8.3023 Y-16.9815
G01 X8.2496 Y-16.9233
G01 X8.2447 Y-16.9184
G01 X8.1839 Y-16.8635
G01 X8.1182 Y-16.8146
G01 X8.1124 Y-16.8108
G01 X8.0421 Y-16.7687
G01 X7.9649 Y-16.7322
G01 X7.8845 Y-16.7035
G01 X7.8000 Y-16.6824
G01 X7.7207 Y-16.6706
G01 X7.7138 Y-16.6699
G01 X7.6320 Y-16.6660
G01 X7.5713 Y-16.6689
G01 X0.5823 Y-9.6798
G01 X0.5823 Y-7.5240
G01 X0.6272 Y-7.4832
G01 X0.6823 Y-7.4225
G01 X0.6866 Y-7.4172
G01 X0.7334 Y-7.3542
G01 X0.7372 Y-7.3484
G01 X0.7793 Y-7.2781
G01 X0.8144 Y-7.2041
G01 X0.8170 Y-7.1977
G01 X0.8445 Y-7.1205
G01 X0.8653 Y-7.0377
G01 X0.8778 Y-6.9533
G01 X0.8820 Y-6.8697
G01 X0.8778 Y-6.7827
G01 X0.8653 Y-6.6983
G01 X0.8445 Y-6.6155
G01 X0.8158 Y-6.5351
G01 X0.7793 Y-6.4579
G01 X0.7354 Y-6.3847
G01 X0.6845 Y-6.3161
G01 X0.6260 Y-6.2516
G01 X0.5639 Y-6.1955
G01 X0.4953 Y-6.1446
G01 X0.4221 Y-6.1007
G01 X0.3481 Y-6.0656
G01 X0.3417 Y-6.0630
G01 X0.2645 Y-6.0355
G01 X0.1851 Y-6.0155
G01 X0.1783 Y-6.0141
G01 X0.1007 Y-6.0026
G01 X0.0938 Y-6.0019
G01 X0.0120 Y-5.9980
G01 X-0.0487 Y-6.0009
G01 X-4.1568 Y-1.8928
G01 X-4.1982 Y-1.8552
G01 X-4.2404 Y-1.8238
G01 X-4.2461 Y-1.8200
G01 X-4.2882 Y-1.7948
G01 X-4.2943 Y-1.7915
G01 X-4.3418 Y-1.7692
G01 X-4.3912 Y-1.7514
G01 X-4.3978 Y-1.7494
G01 X-4.4454 Y-1.7375
G01 X-4.4521 Y-1.7361
G01 X-4.5041 Y-1.7285
G01 X-4.5583 Y-1.7258
G01 X-8.8958 Y-1.7257
G01 X-9.0697 Y-1.5518
G01 X-9.0697 Y4.5798
G01 X-4.6648 Y8.9848
G01 X-4.6272 Y9.0262
G01 X-4.5948 Y9.0698
G01 X-4.5651 Y9.1192
G01 X-4.5425 Y9.1666
G01 X-4.5399 Y9.1730
G01 X-4.5234 Y9.2192
G01 X-4.5214 Y9.2258
G01 X-4.5087 Y9.2767
G01 X-4.5009 Y9.3287
G01 X-4.5002 Y9.3355
G01 X-4.4977 Y9.3880
G01 X-4.4977 Y9.7480
G01 X-4.4528 Y9.7888
G01 X-4.3944 Y9.8534
G01 X-4.3446 Y9.9207
G01 X-4.2999 Y9.9954
G01 X-4.2642 Y10.0711
G01 X-4.2355 Y10.1515
G01 X-4.2147 Y10.2343
G01 X-4.2020 Y10.3204
G01 X-4.1980 Y10.4040
G01 X-4.2019 Y10.4858
G01 X-4.2026 Y10.4927
G01 X-4.2147 Y10.5737
G01 X-4.2345 Y10.6532
G01 X-4.2365 Y10.6598
G01 X-4.2630 Y10.7337
G01 X-4.2656 Y10.7401
G01 X-4.3007 Y10.8141
G01 X-4.3446 Y10.8873
G01 X-4.3955 Y10.9559
G01 X-4.4504 Y11.0167
G01 X-4.4553 Y11.0216
G01 X-4.5161 Y11.0765
G01 X-4.5847 Y11.1274
G01 X-4.6579 Y11.1713
G01 X-4.7351 Y11.2078
G01 X-4.8155 Y11.2365
G01 X-4.8983 Y11.2573
G01 X-4.9827 Y11.2698
G01 X-5.0680 Y11.2740
G01 X-5.1533 Y11.2698
G01 X-5.2377 Y11.2573
G01 X-5.3205 Y11.2365
G01 X-5.4009 Y11.2078
G01 X-5.4781 Y11.1713
G01 X-5.5513 Y11.1274
G01 X-5.6199 Y11.0765
G01 X-5.6807 Y11.0216
G01 X-5.6856 Y11.0167
G01 X-5.7405 Y10.9559
G01 X-5.7914 Y10.8873
G01 X-5.8353 Y10.8141
G01 X-5.8718 Y10.7369
G01 X-5.9005 Y10.6565
G01 X-5.9213 Y10.5737
G01 X-5.9338 Y10.4893
G01 X-5.9380 Y10.4023
G01 X-5.9338 Y10.3187
G01 X-5.9213 Y10.2343
G01 X-5.9005 Y10.1515
G01 X-5.8724 Y10.0727
G01 X-5.8353 Y9.9939
G01 X-5.7904 Y9.9192
G01 X-5.7426 Y9.8548
G01 X-5.7383 Y9.8495
G01 X-5.6832 Y9.7888
G01 X-5.6383 Y9.7480
G01 X-5.6383 Y9.6242
G01 X-10.0444 Y5.2180
G01 X-10.0808 Y5.1778
G01 X-10.1141 Y5.1328
G01 X-10.1429 Y5.0848
G01 X-10.1668 Y5.0342
G01 X-10.1857 Y4.9815
G01 X-10.1993 Y4.9273
G01 X-10.2075 Y4.8719
G01 X-10.2103 Y4.8160
G00 Z2.0000
G00 X-8.4080 Y9.5340
G01 F20.00
G01 Z-0.0746
G01 F60.00
G01 X-6.8063 Y9.5340
G01 X-6.7994 Y9.5345
G01 X-6.7927 Y9.5357
G01 X-6.7860 Y9.5375
G01 X-6.7796 Y9.5400
G01 X-6.7735 Y9.5431
G01 X-6.7677 Y9.5468
G01 X-6.7623 Y9.5510
G01 X-6.7573 Y9.5557
G01 X-6.7528 Y9.5609
G01 X-6.7489 Y9.5666
G01 X-6.7455 Y9.5725
G01 X-6.7427 Y9.5788
G01 X-6.7410 Y9.5837
G01 X-6.7393 Y9.5903
G01 X-6.7383 Y9.5971
G01 X-6.7380 Y9.6040
G01 X-6.7380 Y11.2040
G01 X-6.7383 Y11.2109
G01 X-6.7393 Y11.2177
G01 X-6.7410 Y11.2243
G01 X-6.7433 Y11.2308
G01 X-6.7463 Y11.2370
G01 X-6.7508 Y11.2443
G01 X-6.7550 Y11.2497
G01 X-6.7597 Y11.2547
G01 X-6.7649 Y11.2592
G01 X-6.7706 Y11.2631
G01 X-6.7750 Y11.2657
G01 X-6.7812 Y11.2687
G01 X-6.7877 Y11.2710
G01 X-6.7943 Y11.2727
G01 X-6.8011 Y11.2737
G01 X-6.8080 Y11.2740
G01 X-8.4080 Y11.2740
G01 X-8.4149 Y11.2737
G01 X-8.4217 Y11.2727
G01 X-8.4283 Y11.2710
G01 X-8.4348 Y11.2687
G01 X-8.4410 Y11.2657
G01 X-8.4469 Y11.2622
G01 X-8.4524 Y11.2581
G01 X-8.4587 Y11.2523
G01 X-8.4632 Y11.2471
G01 X-8.4671 Y11.2415
G01 X-8.4705 Y11.2355
G01 X-8.4733 Y11.2292
G01 X-8.4755 Y11.2227
G01 X-8.4770 Y11.2160
G01 X-8.4778 Y11.2092
G01 X-8.4780 Y11.2040
G01 X-8.4780 Y9.6023
G01 X-8.4775 Y9.5954
G01 X-8.4763 Y9.5887
G01 X-8.4745 Y9.5820
G01 X-8.4720 Y9.5756
G01 X-8.4689 Y9.5695
G01 X-8.4652 Y9.5637
G01 X-8.4610 Y9.5583
G01 X-8.4563 Y9.5533
G01 X-8.4511 Y9.5488
G01 X-8.4455 Y9.5449
G01 X-8.4395 Y9.5415
G01 X-8.4332 Y9.5387
G01 X-8.4267 Y9.5365
G01 X-8.4200 Y9.5350
G01 X-8.4149 Y9.5343
G01 X-8.4080 Y9.5340
G00 Z2.0000
G00 X-3.0983 Y11.0600
G01 F20.00
G01 Z-0.0746
G01 F60.00
G01 X-3.1432 Y11.0192
G01 X-3.2016 Y10.9546
G01 X-3.2514 Y10.8873
G01 X-3.2961 Y10.8126
G01 X-3.3318 Y10.7369
G01 X-3.3605 Y10.6565
G01 X-3.3813 Y10.5737
G01 X-3.3940 Y10.4876
G01 X-3.3980 Y10.4040
G01 X-3.3938 Y10.3187
G01 X-3.3813 Y10.2343
G01 X-3.3605 Y10.1515
G01 X-3.3318 Y10.0711
G01 X-3.2953 Y9.9939
G01 X-3.2514 Y9.9207
G01 X-3.1994 Y9.8508
G01 X-3.1432 Y9.7888
G01 X-3.0799 Y9.7315
G01 X-3.0113 Y9.6806
G01 X-2.9381 Y9.6367
G01 X-2.8609 Y9.6002
G01 X-2.7805 Y9.5715
G01 X-2.6977 Y9.5507
G01 X-2.6133 Y9.5382
G01 X-2.5280 Y9.5340
G01 X-2.4427 Y9.5382
G01 X-2.3583 Y9.5507
G01 X-2.2755 Y9.5715
G01 X-2.1951 Y9.6002
G01 X-2.1179 Y9.6367
G01 X-2.0447 Y9.6806
G01 X-1.9748 Y9.7326
G01 X-1.9128 Y9.7888
G01 X-1.8577 Y9.8495
G01 X-1.8534 Y9.8548
G01 X-1.8046 Y9.9207
G01 X-1.7624 Y9.9909
G01 X-1.7592 Y9.9970
G01 X-1.7256 Y10.0679
G01 X-1.7230 Y10.0743
G01 X-1.6955 Y10.1515
G01 X-1.6747 Y10.2343
G01 X-1.6622 Y10.3187
G01 X-1.6580 Y10.4040
G01 X-1.6622 Y10.4893
G01 X-1.6747 Y10.5737
G01 X-1.6955 Y10.6565
G01 X-1.7249 Y10.7385
G01 X-1.7607 Y10.8141
G01 X-1.8028 Y10.8844
G01 X-1.8066 Y10.8902
G01 X-1.8534 Y10.9532
G01 X-1.8577 Y10.9585
G01 X-1.9128 Y11.0192
G01 X-1.9577 Y11.0600
G01 X-1.9577 Y15.2478
G01 X-0.0486 Y17.1569
G01 X0.0120 Y17.1540
G01 X0.0938 Y17.1579
G01 X0.1007 Y17.1586
G01 X0.1783 Y17.1701
G01 X0.1851 Y17.1715
G01 X0.2645 Y17.1915
G01 X0.3433 Y17.2196
G01 X0.4221 Y17.2567
G01 X0.4953 Y17.3006
G01 X0.5639 Y17.3515
G01 X0.6272 Y17.4088
G01 X0.6845 Y17.4721
G01 X0.7354 Y17.5407
G01 X0.7793 Y17.6139
G01 X0.8164 Y17.6927
G01 X0.8445 Y17.7715
G01 X0.8645 Y17.8509
G01 X0.8659 Y17.8577
G01 X0.8774 Y17.9353
G01 X0.8781 Y17.9422
G01 X0.8820 Y18.0240
G01 X0.8791 Y18.0846
G01 X2.2802 Y19.4857
G01 X2.8238 Y19.4857
G01 X4.2249 Y18.0847
G01 X4.2220 Y18.0240
G01 X4.2264 Y17.9370
G01 X4.2387 Y17.8543
G01 X4.2600 Y17.7698
G01 X4.2882 Y17.6911
G01 X4.3247 Y17.6139
G01 X4.3686 Y17.5407
G01 X4.4206 Y17.4708
G01 X4.4768 Y17.4088
G01 X4.5375 Y17.3537
G01 X4.5428 Y17.3494
G01 X4.6087 Y17.3006
G01 X4.6819 Y17.2567
G01 X4.7559 Y17.2216
G01 X4.7623 Y17.2190
G01 X4.8362 Y17.1925
G01 X4.8428 Y17.1905
G01 X4.9223 Y17.1707
G01 X5.0067 Y17.1582
G01 X5.0920 Y17.1540
G01 X5.1738 Y17.1579
G01 X5.1807 Y17.1586
G01 X5.2583 Y17.1701
G01 X5.2651 Y17.1715
G01 X5.3445 Y17.1915
G01 X5.4217 Y17.2190
G01 X5.4281 Y17.2216
G01 X5.4990 Y17.2552
G01 X5.5051 Y17.2584
G01 X5.5753 Y17.3006
G01 X5.6439 Y17.3515
G01 X5.7072 Y17.4088
G01 X5.7623 Y17.4695
G01 X5.7666 Y17.4748
G01 X5.8154 Y17.5407
G01 X5.8593 Y17.6139
G01 X5.8944 Y17.6879
G01 X5.8970 Y17.6943
G01 X5.9235 Y17.7682
G01 X5.9255 Y17.7748
G01 X5.9453 Y17.8543
G01 X5.9578 Y17.9387
G01 X5.9620 Y18.0240
G01 X5.9581 Y18.1058
G01 X5.9574 Y18.1127
G01 X5.9459 Y18.1903
G01 X5.9445 Y18.1971
G01 X5.9245 Y18.2765
G01 X5.8958 Y18.3569
G01 X5.8593 Y18.4341
G01 X5.8172 Y18.5044
G01 X5.8134 Y18.5102
G01 X5.7634 Y18.5772
G01 X5.7072 Y18.6392
G01 X5.6465 Y18.6943
G01 X5.6412 Y18.6986
G01 X5.5753 Y18.7474
G01 X5.5051 Y18.7896
G01 X5.4990 Y18.7928
G01 X5.4265 Y18.8271
G01 X5.3445 Y18.8565
G01 X5.2600 Y18.8776
G01 X5.1807 Y18.8894
G01 X5.1738 Y18.8901
G01 X5.0920 Y18.8940
G01 X5.0313 Y18.8911
G01 X3.4632 Y20.4592
G01 X3.4231 Y20.4957
G01 X3.3768 Y20.5301
G01 X3.3318 Y20.5572
G01 X3.3257 Y20.5605
G01 X3.2814 Y20.5815
G01 X3.2750 Y20.5841
G01 X3.2255 Y20.6017
G01 X3.1713 Y20.6153
G01 X3.1159 Y20.6235
G01 X3.0617 Y20.6262
G01 X2.0440 Y20.6263
G01 X1.9915 Y20.6238
G01 X1.9847 Y20.6231
G01 X1.9327 Y20.6153
G01 X1.8785 Y20.6017
G01 X1.8258 Y20.5828
G01 X1.7752 Y20.5589
G01 X1.7272 Y20.5301
G01 X1.6849 Y20.4989
G01 X1.6796 Y20.4946
G01 X1.6408 Y20.4592
G01 X0.0727 Y18.8911
G01 X0.0120 Y18.8940
G01 X-0.0750 Y18.8896
G01 X-0.1577 Y18.8773
G01 X-0.2422 Y18.8560
G01 X-0.3209 Y18.8278
G01 X-0.3981 Y18.7913
G01 X-0.4713 Y18.7474
G01 X-0.5412 Y18.6954
G01 X-0.6007 Y18.6416
G01 X-0.6056 Y18.6367
G01 X-0.6605 Y18.5759
G01 X-0.7094 Y18.5102
G01 X-0.7132 Y18.5044
G01 X-0.7553 Y18.4341
G01 X-0.7911 Y18.3585
G01 X-0.8205 Y18.2765
G01 X-0.8416 Y18.1920
G01 X-0.8534 Y18.1127
G01 X-0.8541 Y18.1058
G01 X-0.8580 Y18.0240
G01 X-0.8551 Y17.9633
G01 X-2.9324 Y15.8860
G01 X-2.9688 Y15.8458
G01 X-3.0002 Y15.8036
G01 X-3.0040 Y15.7979
G01 X-3.0309 Y15.7528
G01 X-3.0535 Y15.7054
G01 X-3.0561 Y15.6990
G01 X-3.0732 Y15.6512
G01 X-3.0865 Y15.5986
G01 X-3.0879 Y15.5919
G01 X-3.0955 Y15.5399
G01 X-3.0983 Y15.4840
G01 X-3.0983 Y11.0600
G00 Z2.0000
G00 X0.0154 Y9.5341
G01 F20.00
G01 Z-0.0746
G01 F60.00
G01 X0.0973 Y9.5382
G01 X0.1817 Y9.5507
G01 X0.2645 Y9.5715
G01 X0.3449 Y9.6002
G01 X0.4221 Y9.6367
G01 X0.4953 Y9.6806
G01 X0.5639 Y9.7315
G01 X0.6272 Y9.7888
G01 X0.6845 Y9.8521
G01 X0.7354 Y9.9207
G01 X0.7793 Y9.9939
G01 X0.8158 Y10.0711
G01 X0.8445 Y10.1515
G01 X0.8653 Y10.2343
G01 X0.8778 Y10.3187
G01 X0.8820 Y10.4040
G01 X0.8778 Y10.4893
G01 X0.8653 Y10.5737
G01 X0.8445 Y10.6565
G01 X0.8158 Y10.7369
G01 X0.7793 Y10.8141
G01 X0.7354 Y10.8873
G01 X0.6845 Y10.9559
G01 X0.6272 Y11.0192
G01 X0.5639 Y11.0765
G01 X0.4953 Y11.1274
G01 X0.4221 Y11.1713
G01 X0.3449 Y11.2078
G01 X0.2645 Y11.2365
G01 X0.1817 Y11.2573
G01 X0.0973 Y11.2698
G01 X0.0120 Y11.2740
G01 X-0.0733 Y11.2698
G01 X-0.1577 Y11.2573
G01 X-0.2405 Y11.2365
G01 X-0.3209 Y11.2078
G01 X-0.3981 Y11.1713
G01 X-0.4713 Y11.1274
G01 X-0.5399 Y11.0765
G01 X-0.6032 Y11.0192
G01 X-0.6605 Y10.9559
G01 X-0.7114 Y10.8873
G01 X-0.7553 Y10.8141
G01 X-0.7918 Y10.7369
G01 X-0.8205 Y10.6565
G01 X-0.8413 Y10.5737
G01 X-0.8538 Y10.4893
G01 X-0.8580 Y10.4040
G01 X-0.8538 Y10.3187
G01 X-0.8413 Y10.2343
G01 X-0.8205 Y10.1515
G01 X-0.7918 Y10.0711
G01 X-0.7553 Y9.9939
G01 X-0.7114 Y9.9207
G01 X-0.6605 Y9.8521
G01 X-0.6032 Y9.7888
G01 X-0.5399 Y9.7315
G01 X-0.4713 Y9.6806
G01 X-0.3981 Y9.6367
G01 X-0.3209 Y9.6002
G01 X-0.2405 Y9.5715
G01 X-0.1577 Y9.5507
G01 X-0.0733 Y9.5382
G01 X0.0086 Y9.5341
G01 X0.0154 Y9.5341
G00 Z2.0000
G00 X2.5554 Y9.5341
G01 F20.00
G01 Z-0.0746
G01 F60.00
G01 X2.6373 Y9.5382
G01 X2.7217 Y9.5507
G01 X2.8045 Y9.5715
G01 X2.8849 Y9.6002
G01 X2.9621 Y9.6367
G01 X3.0353 Y9.6806
G01 X3.1039 Y9.7315
G01 X3.1672 Y9.7888
G01 X3.2245 Y9.8521
G01 X3.2754 Y9.9207
G01 X3.3193 Y9.9939
G01 X3.3558 Y10.0711
G01 X3.3845 Y10.1515
G01 X3.4053 Y10.2343
G01 X3.4178 Y10.3187
G01 X3.4220 Y10.4040
G01 X3.4178 Y10.4893
G01 X3.4053 Y10.5737
G01 X3.3845 Y10.6565
G01 X3.3558 Y10.7369
G01 X3.3193 Y10.8141
G01 X3.2754 Y10.8873
G01 X3.2245 Y10.9559
G01 X3.1672 Y11.0192
G01 X3.1039 Y11.0765
G01 X3.0353 Y11.1274
G01 X2.9621 Y11.1713
G01 X2.8849 Y11.2078
G01 X2.8045 Y11.2365
G01 X2.7217 Y11.2573
G01 X2.6373 Y11.2698
G01 X2.5520 Y11.2740
G01 X2.4667 Y11.2698
G01 X2.3823 Y11.2573
G01 X2.2995 Y11.2365
G01 X2.2191 Y11.2078
G01 X2.1419 Y11.1713
G01 X2.0687 Y11.1274
G01 X2.0001 Y11.0765
G01 X1.9368 Y11.0192
G01 X1.8795 Y10.9559
G01 X1.8286 Y10.8873
G01 X1.7847 Y10.8141
G01 X1.7482 Y10.7369
G01 X1.7195 Y10.6565
G01 X1.6987 Y10.5737
G01 X1.6862 Y10.4893
G01 X1.6820 Y10.4040
G01 X1.6862 Y10.3187
G01 X1.6987 Y10.2343
G01 X1.7195 Y10.1515
G01 X1.7482 Y10.0711
G01 X1.7847 Y9.9939
G01 X1.8286 Y9.9207
G01 X1.8795 Y9.8521
G01 X1.9368 Y9.7888
G01 X2.0001 Y9.7315
G01 X2.0687 Y9.6806
G01 X2.1419 Y9.6367
G01 X2.2191 Y9.6002
G01 X2.2995 Y9.5715
G01 X2.3823 Y9.5507
G01 X2.4667 Y9.5382
G01 X2.5486 Y9.5341
G01 X2.5554 Y9.5341
G00 Z2.0000
G00 X5.0954 Y9.5341
G01 F20.00
G01 Z-0.0746
G01 F60.00
G01 X5.1773 Y9.5382
G01 X5.2617 Y9.5507
G01 X5.3445 Y9.5715
G01 X5.4249 Y9.6002
G01 X5.5021 Y9.6367
G01 X5.5753 Y9.6806
G01 X5.6439 Y9.7315
G01 X5.7072 Y9.7888
G01 X5.7645 Y9.8521
G01 X5.8154 Y9.9207
G01 X5.8593 Y9.9939
G01 X5.8958 Y10.0711
G01 X5.9245 Y10.1515
G01 X5.9453 Y10.2343
G01 X5.9578 Y10.3187
G01 X5.9620 Y10.4040
G01 X5.9578 Y10.4893
G01 X5.9453 Y10.5737
G01 X5.9245 Y10.6565
G01 X5.8958 Y10.7369
G01 X5.8593 Y10.8141
G01 X5.8154 Y10.8873
G01 X5.7645 Y10.9559
G01 X5.7072 Y11.0192
G01 X5.6439 Y11.0765
G01 X5.5753 Y11.1274
G01 X5.5021 Y11.1713
G01 X5.4249 Y11.2078
G01 X5.3445 Y11.2365
G01 X5.2617 Y11.2573
G01 X5.1773 Y11.2698
G01 X5.0920 Y11.2740
G01 X5.0067 Y11.2698
G01 X4.9223 Y11.2573
G01 X4.8395 Y11.2365
G01 X4.7591 Y11.2078
G01 X4.6819 Y11.1713
G01 X4.6087 Y11.1274
G01 X4.5401 Y11.0765
G01 X4.4768 Y11.0192
G01 X4.4195 Y10.9559
G01 X4.3686 Y10.8873
G01 X4.3247 Y10.8141
G01 X4.2882 Y10.7369
G01 X4.2595 Y10.6565
G01 X4.2387 Y10.5737
G01 X4.2262 Y10.4893
G01 X4.2220 Y10.4040
G01 X4.2262 Y10.3187
G01 X4.2387 Y10.2343
G01 X4.2595 Y10.1515
G01 X4.2882 Y10.0711
G01 X4.3247 Y9.9939
G01 X4.3686 Y9.9207
G01 X4.4195 Y9.8521
G01 X4.4768 Y9.7888
G01 X4.5401 Y9.7315
G01 X4.6087 Y9.6806
G01 X4.6819 Y9.6367
G01 X4.7591 Y9.6002
G01 X4.8395 Y9.5715
G01 X4.9223 Y9.5507
G01 X5.0067 Y9.5382
G01 X5.0886 Y9.5341
G01 X5.0954 Y9.5341
G00 Z2.0000
G00 X8.0520 Y9.6426
G01 F20.00
G01 Z-0.0746
G01 F60.00
G01 X8.0520 Y9.2441
G01 X8.0653 Y9.2489
G01 X8.2383 Y9.3296
G01 X8.2593 Y9.3417
G01 X8.4157 Y9.4512
G01 X8.4343 Y9.4668
G01 X8.5692 Y9.6017
G01 X8.5848 Y9.6203
G01 X8.6943 Y9.7767
G01 X8.7064 Y9.7977
G01 X8.7871 Y9.9707
G01 X8.7919 Y9.9840
G01 X8.3934 Y9.9840
G01 X8.3554 Y9.9207
G01 X8.3066 Y9.8548
G01 X8.3023 Y9.8495
G01 X8.2472 Y9.7888
G01 X8.1865 Y9.7337
G01 X8.1812 Y9.7294
G01 X8.1153 Y9.6806
G01 X8.0520 Y9.6426
G00 Z2.0000
G00 X8.0520 Y11.1654
G01 F20.00
G01 Z-0.0746
G01 F60.00
G01 X8.1153 Y11.1274
G01 X8.1812 Y11.0786
G01 X8.1865 Y11.0743
G01 X8.2472 Y11.0192
G01 X8.3023 Y10.9585
G01 X8.3066 Y10.9532
G01 X8.3554 Y10.8873
G01 X8.3934 Y10.8240
G01 X8.7919 Y10.8240
G01 X8.7871 Y10.8373
G01 X8.7064 Y11.0103
G01 X8.6943 Y11.0313
G01 X8.5848 Y11.1877
G01 X8.5692 Y11.2063
G01 X8.4343 Y11.3412
G01 X8.4157 Y11.3568
G01 X8.2593 Y11.4663
G01 X8.2383 Y11.4784
G01 X8.0653 Y11.5591
G01 X8.0520 Y11.5639
G01 X8.0520 Y11.1654
G00 Z2.0000
G00 X7.6354 Y17.1541
G01 F20.00
G01 Z-0.0746
G01 F60.00
G01 X7.7173 Y17.1582
G01 X7.8017 Y17.1707
G01 X7.8845 Y17.1915
G01 X7.9649 Y17.2202
G01 X8.0421 Y17.2567
G01 X8.1153 Y17.3006
G01 X8.1839 Y17.3515
G01 X8.2472 Y17.4088
G01 X8.3045 Y17.4721
G01 X8.3554 Y17.5407
G01 X8.3993 Y17.6139
G01 X8.4358 Y17.6911
G01 X8.4645 Y17.7715
G01 X8.4853 Y17.8543
G01 X8.4978 Y17.9387
G01 X8.5020 Y18.0240
G01 X8.4978 Y18.1093
G01 X8.4853 Y18.1937
G01 X8.4645 Y18.2765
G01 X8.4358 Y18.3569
G01 X8.3993 Y18.4341
G01 X8.3554 Y18.5073
G01 X8.3045 Y18.5759
G01 X8.2472 Y18.6392
G01 X8.1839 Y18.6965
G01 X8.1153 Y18.7474
G01 X8.0421 Y18.7913
G01 X7.9649 Y18.8278
G01 X7.8845 Y18.8565
G01 X7.8017 Y18.8773
G01 X7.7173 Y18.8898
G01 X7.6320 Y18.8940
G01 X7.5467 Y18.8898
G01 X7.4623 Y18.8773
G01 X7.3795 Y18.8565
G01 X7.2991 Y18.8278
G01 X7.2219 Y18.7913
G01 X7.1487 Y18.7474
G01 X7.0801 Y18.6965
G01 X7.0168 Y18.6392
G01 X6.9595 Y18.5759
G01 X6.9086 Y18.5073
G01 X6.8647 Y18.4341
G01 X6.8282 Y18.3569
G01 X6.7995 Y18.2765
G01 X6.7787 Y18.1937
G01 X6.7662 Y18.1093
G01 X6.7620 Y18.0240
G01 X6.7662 Y17.9387
G01 X6.7787 Y17.8543
G01 X6.7995 Y17.7715
G01 X6.8282 Y17.6911
G01 X6.8647 Y17.6139
G01 X6.9086 Y17.5407
G01 X6.9595 Y17.4721
G01 X7.0168 Y17.4088
G01 X7.0801 Y17.3515
G01 X7.1487 Y17.3006
G01 X7.2219 Y17.2567
G01 X7.2991 Y17.2202
G01 X7.3795 Y17.1915
G01 X7.4623 Y17.1707
G01 X7.5467 Y17.1582
G01 X7.6286 Y17.1541
G01 X7.6354 Y17.1541
G00 Z2.0000
G00 X15.1230 Y14.6680
G01 F20.00
G01 Z-0.0746
G01 F60.00
G01 X16.7247 Y14.6680
G01 X16.7316 Y14.6685
G01 X16.7383 Y14.6697
G01 X16.7450 Y14.6715
G01 X16.7514 Y14.6740
G01 X16.7575 Y14.6771
G01 X16.7633 Y14.6808
G01 X16.7687 Y14.6850
G01 X16.7737 Y14.6897
G01 X16.7782 Y14.6949
G01 X16.7821 Y14.7006
G01 X16.7855 Y14.7065
G01 X16.7883 Y14.7128
G01 X16.7905 Y14.7193
G01 X16.7917 Y14.7243
G01 X16.7927 Y14.7311
G01 X16.7930 Y14.7380
G01 X16.7930 Y16.3380
G01 X16.7925 Y16.3466
G01 X16.7913 Y16.3533
G01 X16.7895 Y16.3600
G01 X16.7870 Y16.3664
G01 X16.7839 Y16.3725
G01 X16.7802 Y16.3783
G01 X16.7760 Y16.3837
G01 X16.7713 Y16.3887
G01 X16.7661 Y16.3932
G01 X16.7619 Y16.3962
G01 X16.7560 Y16.3997
G01 X16.7498 Y16.4027
G01 X16.7433 Y16.4050
G01 X16.7367 Y16.4067
G01 X16.7299 Y16.4077
G01 X16.7230 Y16.4080
G01 X15.1230 Y16.4080
G01 X15.1161 Y16.4077
G01 X15.1093 Y16.4067
G01 X15.1027 Y16.4050
G01 X15.0962 Y16.4027
G01 X15.0900 Y16.3997
G01 X15.0841 Y16.3962
G01 X15.0786 Y16.3921
G01 X15.0723 Y16.3863
G01 X15.0678 Y16.3811
G01 X15.0639 Y16.3755
G01 X15.0605 Y16.3695
G01 X15.0577 Y16.3632
G01 X15.0555 Y16.3567
G01 X15.0540 Y16.3500
G01 X15.0532 Y16.3432
G01 X15.0530 Y16.3380
G01 X15.0530 Y14.7363
G01 X15.0535 Y14.7294
G01 X15.0547 Y14.7227
G01 X15.0565 Y14.7160
G01 X15.0590 Y14.7096
G01 X15.0621 Y14.7035
G01 X15.0658 Y14.6977
G01 X15.0700 Y14.6923
G01 X15.0747 Y14.6873
G01 X15.0799 Y14.6828
G01 X15.0855 Y14.6789
G01 X15.0915 Y14.6755
G01 X15.0978 Y14.6727
G01 X15.1043 Y14.6705
G01 X15.1110 Y14.6690
G01 X15.1161 Y14.6683
G01 X15.1230 Y14.6680
G00 Z2.0000
G00 X15.9264 Y12.1281
G01 F20.00
G01 Z-0.0746
G01 F60.00
G01 X16.0083 Y12.1322
G01 X16.0927 Y12.1447
G01 X16.1755 Y12.1655
G01 X16.2559 Y12.1942
G01 X16.3331 Y12.2307
G01 X16.4063 Y12.2746
G01 X16.4749 Y12.3255
G01 X16.5382 Y12.3828
G01 X16.5955 Y12.4461
G01 X16.6464 Y12.5147
G01 X16.6903 Y12.5879
G01 X16.7268 Y12.6651
G01 X16.7555 Y12.7455
G01 X16.7763 Y12.8283
G01 X16.7888 Y12.9127
G01 X16.7930 Y12.9980
G01 X16.7888 Y13.0833
G01 X16.7763 Y13.1677
G01 X16.7555 Y13.2505
G01 X16.7268 Y13.3309
G01 X16.6903 Y13.4081
G01 X16.6464 Y13.4813
G01 X16.5955 Y13.5499
G01 X16.5382 Y13.6132
G01 X16.4749 Y13.6705
G01 X16.4063 Y13.7214
G01 X16.3331 Y13.7653
G01 X16.2559 Y13.8018
G01 X16.1755 Y13.8305
G01 X16.0927 Y13.8513
G01 X16.0083 Y13.8638
G01 X15.9230 Y13.8680
G01 X15.8377 Y13.8638
G01 X15.7533 Y13.8513
G01 X15.6705 Y13.8305
G01 X15.5901 Y13.8018
G01 X15.5129 Y13.7653
G01 X15.4397 Y13.7214
G01 X15.3711 Y13.6705
G01 X15.3078 Y13.6132
G01 X15.2505 Y13.5499
G01 X15.1996 Y13.4813
G01 X15.1557 Y13.4081
G01 X15.1192 Y13.3309
G01 X15.0905 Y13.2505
G01 X15.0697 Y13.1677
G01 X15.0572 Y13.0833
G01 X15.0530 Y12.9980
G01 X15.0572 Y12.9127
G01 X15.0697 Y12.8283
G01 X15.0905 Y12.7455
G01 X15.1192 Y12.6651
G01 X15.1557 Y12.5879
G01 X15.1996 Y12.5147
G01 X15.2505 Y12.4461
G01 X15.3078 Y12.3828
G01 X15.3711 Y12.3255
G01 X15.4397 Y12.2746
G01 X15.5129 Y12.2307
G01 X15.5901 Y12.1942
G01 X15.6705 Y12.1655
G01 X15.7533 Y12.1447
G01 X15.8377 Y12.1322
G01 X15.9196 Y12.1281
G01 X15.9264 Y12.1281
G00 Z2.0000
G00 X15.9264 Y9.5881
G01 F20.00
G01 Z-0.0746
G01 F60.00
G01 X16.0083 Y9.5922
G01 X16.0927 Y9.6047
G01 X16.1755 Y9.6255
G01 X16.2559 Y9.6542
G01 X16.3331 Y9.6907
G01 X16.4063 Y9.7346
G01 X16.4749 Y9.7855
G01 X16.5382 Y9.8428
G01 X16.5955 Y9.9061
G01 X16.6464 Y9.9747
G01 X16.6903 Y10.0479
G01 X16.7268 Y10.1251
G01 X16.7555 Y10.2055
G01 X16.7763 Y10.2883
G01 X16.7888 Y10.3727
G01 X16.7930 Y10.4580
G01 X16.7888 Y10.5433
G01 X16.7763 Y10.6277
G01 X16.7555 Y10.7105
G01 X16.7268 Y10.7909
G01 X16.6903 Y10.8681
G01 X16.6464 Y10.9413
G01 X16.5955 Y11.0099
G01 X16.5382 Y11.0732
G01 X16.4749 Y11.1305
G01 X16.4063 Y11.1814
G01 X16.3331 Y11.2253
G01 X16.2559 Y11.2618
G01 X16.1755 Y11.2905
G01 X16.0927 Y11.3113
G01 X16.0083 Y11.3238
G01 X15.9230 Y11.3280
G01 X15.8377 Y11.3238
G01 X15.7533 Y11.3113
G01 X15.6705 Y11.2905
G01 X15.5901 Y11.2618
G01 X15.5129 Y11.2253
G01 X15.4397 Y11.1814
G01 X15.3711 Y11.1305
G01 X15.3078 Y11.0732
G01 X15.2505 Y11.0099
G01 X15.1996 Y10.9413
G01 X15.1557 Y10.8681
G01 X15.1192 Y10.7909
G01 X15.0905 Y10.7105
G01 X15.0697 Y10.6277
G01 X15.0572 Y10.5433
G01 X15.0530 Y10.4580
G01 X15.0572 Y10.3727
G01 X15.0697 Y10.2883
G01 X15.0905 Y10.2055
G01 X15.1192 Y10.1251
G01 X15.1557 Y10.0479
G01 X15.1996 Y9.9747
G01 X15.2505 Y9.9061
G01 X15.3078 Y9.8428
G01 X15.3711 Y9.7855
G01 X15.4397 Y9.7346
G01 X15.5129 Y9.6907
G01 X15.5901 Y9.6542
G01 X15.6705 Y9.6255
G01 X15.7533 Y9.6047
G01 X15.8377 Y9.5922
G01 X15.9196 Y9.5881
G01 X15.9264 Y9.5881
G00 Z2.0000
G00 X14.7631 Y8.3380
G01 F20.00
G01 Z-0.0746
G01 F60.00
G01 X15.1616 Y8.3380
G01 X15.1996 Y8.4013
G01 X15.2484 Y8.4672
G01 X15.2527 Y8.4725
G01 X15.3078 Y8.5332
G01 X15.3685 Y8.5883
G01 X15.3738 Y8.5926
G01 X15.4397 Y8.6414
G01 X15.5099 Y8.6836
G01 X15.5160 Y8.6868
G01 X15.5901 Y8.7218
G01 X15.6672 Y8.7495
G01 X15.6738 Y8.7515
G01 X15.7533 Y8.7713
G01 X15.8343 Y8.7834
G01 X15.8412 Y8.7841
G01 X15.9230 Y8.7880
G01 X16.0048 Y8.7841
G01 X16.0117 Y8.7834
G01 X16.0927 Y8.7713
G01 X16.1722 Y8.7515
G01 X16.1788 Y8.7495
G01 X16.2559 Y8.7218
G01 X16.3300 Y8.6868
G01 X16.3361 Y8.6836
G01 X16.4063 Y8.6414
G01 X16.4722 Y8.5926
G01 X16.4775 Y8.5883
G01 X16.5382 Y8.5332
G01 X16.5933 Y8.4725
G01 X16.5976 Y8.4672
G01 X16.6464 Y8.4013
G01 X16.6844 Y8.3380
G01 X17.0829 Y8.3380
G01 X17.0781 Y8.3513
G01 X16.9974 Y8.5243
G01 X16.9853 Y8.5453
G01 X16.8758 Y8.7017
G01 X16.8602 Y8.7203
G01 X16.7253 Y8.8552
G01 X16.7067 Y8.8708
G01 X16.5503 Y8.9803
G01 X16.5105 Y9.0034
G01 X16.5023 Y9.0096
G01 X16.4959 Y9.0160
G01 X16.4499 Y9.0462
G01 X16.4431 Y9.0512
G01 X16.4348 Y9.0595
G01 X16.3680 Y9.1387
G01 X16.3641 Y9.1442
G01 X16.3601 Y9.1516
G01 X16.3191 Y9.2449
G01 X16.3162 Y9.2528
G01 X16.3138 Y9.2643
G01 X16.3012 Y9.3638
G01 X16.3007 Y9.3722
G01 X16.3014 Y9.3822
G01 X16.3179 Y9.4828
G01 X16.3197 Y9.4910
G01 X16.3239 Y9.5020
G01 X16.3677 Y9.5922
G01 X16.3718 Y9.5996
G01 X16.3789 Y9.6089
G01 X16.4500 Y9.6865
G01 X16.5841 Y9.7969
G01 X16.7004 Y9.9385
G01 X16.7868 Y10.1002
G01 X16.8400 Y10.2756
G01 X16.8580 Y10.4580
G01 X16.8400 Y10.6404
G01 X16.7868 Y10.8158
G01 X16.7004 Y10.9775
G01 X16.5841 Y11.1191
G01 X16.4425 Y11.2354
G01 X16.2808 Y11.3218
G01 X16.2621 Y11.3275
G01 X16.2547 Y11.3304
G01 X16.1536 Y11.3798
G01 X16.1461 Y11.3840
G01 X16.1406 Y11.3880
G01 X16.1354 Y11.3926
G01 X16.0525 Y11.4737
G01 X16.0472 Y11.4805
G01 X16.0428 Y11.4879
G01 X15.9917 Y11.5863
G01 X15.9877 Y11.5958
G01 X15.9858 Y11.6023
G01 X15.9848 Y11.6074
G01 X15.9671 Y11.7169
G01 X15.9663 Y11.7254
G01 X15.9664 Y11.7323
G01 X15.9671 Y11.7391
G01 X15.9848 Y11.8486
G01 X15.9862 Y11.8553
G01 X15.9877 Y11.8602
G01 X15.9917 Y11.8697
G01 X16.0436 Y11.9697
G01 X16.0492 Y11.9783
G01 X16.0548 Y11.9848
G01 X16.1367 Y12.0646
G01 X16.1419 Y12.0690
G01 X16.1476 Y12.0729
G01 X16.1536 Y12.0762
G01 X16.2547 Y12.1256
G01 X16.2621 Y12.1285
G01 X16.2808 Y12.1342
G01 X16.4425 Y12.2206
G01 X16.5841 Y12.3369
G01 X16.7004 Y12.4785
G01 X16.7868 Y12.6402
G01 X16.8400 Y12.8156
G01 X16.8580 Y12.9980
G01 X16.8400 Y13.1804
G01 X16.7868 Y13.3558
G01 X16.7004 Y13.5175
G01 X16.5841 Y13.6591
G01 X16.4425 Y13.7754
G01 X16.3610 Y13.8190
G01 X16.3551 Y13.8225
G01 X16.2687 Y13.8865
G01 X16.2610 Y13.8935
G01 X16.2555 Y13.9000
G01 X16.1945 Y13.9823
G01 X16.1890 Y13.9910
G01 X16.1848 Y14.0004
G01 X16.1503 Y14.0968
G01 X16.1476 Y14.1068
G01 X16.1464 Y14.1153
G01 X16.1412 Y14.2210
G01 X16.1415 Y14.2296
G01 X16.1429 Y14.2380
G01 X16.1682 Y14.3391
G01 X16.1714 Y14.3488
G01 X16.1760 Y14.3580
G01 X16.2287 Y14.4459
G01 X16.2346 Y14.4543
G01 X16.2417 Y14.4618
G01 X16.3176 Y14.5305
G01 X16.3257 Y14.5369
G01 X16.3347 Y14.5420
G01 X16.4288 Y14.5865
G01 X16.4369 Y14.5895
G01 X16.4452 Y14.5914
G01 X16.5533 Y14.6073
G01 X16.7359 Y14.6075
G01 X16.7739 Y14.6151
G01 X16.8171 Y14.6439
G01 X16.8459 Y14.6871
G01 X16.8535 Y14.7251
G01 X16.8535 Y16.3509
G01 X16.8459 Y16.3889
G01 X16.8171 Y16.4321
G01 X16.7739 Y16.4609
G01 X16.7359 Y16.4685
G01 X15.1101 Y16.4685
G01 X15.0721 Y16.4609
G01 X15.0289 Y16.4321
G01 X15.0001 Y16.3889
G01 X14.9925 Y16.3509
G01 X14.9925 Y14.7251
G01 X15.0001 Y14.6871
G01 X15.0289 Y14.6439
G01 X15.0721 Y14.6151
G01 X15.1101 Y14.6075
G01 X15.2927 Y14.6073
G01 X15.4008 Y14.5914
G01 X15.4091 Y14.5895
G01 X15.4172 Y14.5865
G01 X15.5113 Y14.5420
G01 X15.5203 Y14.5369
G01 X15.5284 Y14.5305
G01 X15.6043 Y14.4618
G01 X15.6114 Y14.4543
G01 X15.6173 Y14.4459
G01 X15.6700 Y14.3580
G01 X15.6746 Y14.3488
G01 X15.6778 Y14.3391
G01 X15.7031 Y14.2380
G01 X15.7043 Y14.2313
G01 X15.7048 Y14.2227
G01 X15.6996 Y14.1153
G01 X15.6981 Y14.1051
G01 X15.6957 Y14.0968
G01 X15.6612 Y14.0004
G01 X15.6570 Y13.9910
G01 X15.6515 Y13.9823
G01 X15.5905 Y13.9000
G01 X15.5850 Y13.8935
G01 X15.5773 Y13.8865
G01 X15.4909 Y13.8225
G01 X15.4850 Y13.8190
G01 X15.4035 Y13.7754
G01 X15.2619 Y13.6591
G01 X15.1456 Y13.5175
G01 X15.0592 Y13.3558
G01 X15.0060 Y13.1804
G01 X15.0050 Y13.1702
G01 X14.9880 Y12.9980
G01 X15.0060 Y12.8156
G01 X15.0592 Y12.6402
G01 X15.1456 Y12.4785
G01 X15.2619 Y12.3369
G01 X15.4035 Y12.2206
G01 X15.5652 Y12.1342
G01 X15.5839 Y12.1285
G01 X15.5913 Y12.1256
G01 X15.6924 Y12.0762
G01 X15.6984 Y12.0729
G01 X15.7041 Y12.0690
G01 X15.7093 Y12.0646
G01 X15.7912 Y11.9848
G01 X15.7968 Y11.9783
G01 X15.8024 Y11.9697
G01 X15.8543 Y11.8697
G01 X15.8583 Y11.8602
G01 X15.8602 Y11.8536
G01 X15.8612 Y11.8486
G01 X15.8789 Y11.7391
G01 X15.8796 Y11.7323
G01 X15.8797 Y11.7254
G01 X15.8789 Y11.7169
G01 X15.8612 Y11.6074
G01 X15.8602 Y11.6024
G01 X15.8583 Y11.5958
G01 X15.8543 Y11.5863
G01 X15.8032 Y11.4879
G01 X15.7988 Y11.4805
G01 X15.7935 Y11.4737
G01 X15.7106 Y11.3926
G01 X15.7054 Y11.3880
G01 X15.6999 Y11.3840
G01 X15.6924 Y11.3798
G01 X15.5911 Y11.3303
G01 X15.5842 Y11.3276
G01 X15.5652 Y11.3218
G01 X15.4035 Y11.2354
G01 X15.2619 Y11.1191
G01 X15.1456 Y10.9775
G01 X15.0592 Y10.8158
G01 X15.0060 Y10.6404
G01 X14.9880 Y10.4580
G01 X15.0060 Y10.2756
G01 X15.0592 Y10.1002
G01 X15.1456 Y9.9385
G01 X15.2619 Y9.7969
G01 X15.3960 Y9.6866
G01 X15.4671 Y9.6089
G01 X15.4742 Y9.5996
G01 X15.4783 Y9.5922
G01 X15.5220 Y9.5020
G01 X15.5263 Y9.4910
G01 X15.5281 Y9.4828
G01 X15.5446 Y9.3823
G01 X15.5453 Y9.3739
G01 X15.5448 Y9.3638
G01 X15.5322 Y9.2643
G01 X15.5298 Y9.2528
G01 X15.5269 Y9.2450
G01 X15.4859 Y9.1516
G01 X15.4828 Y9.1457
G01 X15.4781 Y9.1387
G01 X15.4112 Y9.0595
G01 X15.4029 Y9.0512
G01 X15.3962 Y9.0462
G01 X15.3501 Y9.0160
G01 X15.3437 Y9.0096
G01 X15.3355 Y9.0034
G01 X15.2957 Y8.9803
G01 X15.1393 Y8.8708
G01 X15.1207 Y8.8552
G01 X14.9858 Y8.7203
G01 X14.9702 Y8.7017
G01 X14.8607 Y8.5453
G01 X14.8486 Y8.5243
G01 X14.7679 Y8.3513
G01 X14.7631 Y8.3380
G00 Z2.0000
G00 X14.7631 Y7.4980
G01 F20.00
G01 Z-0.0746
G01 F60.00
G01 X14.7679 Y7.4847
G01 X14.8486 Y7.3117
G01 X14.8607 Y7.2907
G01 X14.9702 Y7.1343
G01 X14.9858 Y7.1157
G01 X15.1207 Y6.9808
G01 X15.1393 Y6.9652
G01 X15.2957 Y6.8557
G01 X15.3355 Y6.8326
G01 X15.3437 Y6.8264
G01 X15.3501 Y6.8200
G01 X15.3961 Y6.7898
G01 X15.4028 Y6.7848
G01 X15.4112 Y6.7765
G01 X15.4780 Y6.6973
G01 X15.4827 Y6.6904
G01 X15.4859 Y6.6844
G01 X15.5269 Y6.5911
G01 X15.5298 Y6.5832
G01 X15.5322 Y6.5717
G01 X15.5448 Y6.4722
G01 X15.5453 Y6.4622
G01 X15.5446 Y6.4538
G01 X15.5281 Y6.3532
G01 X15.5263 Y6.3450
G01 X15.5221 Y6.3340
G01 X15.4783 Y6.2438
G01 X15.4742 Y6.2365
G01 X15.4671 Y6.2271
G01 X15.3960 Y6.1494
G01 X15.2619 Y6.0391
G01 X15.1456 Y5.8975
G01 X15.0592 Y5.7358
G01 X15.0060 Y5.5604
G01 X14.9880 Y5.3780
G01 X15.0060 Y5.1956
G01 X15.0592 Y5.0202
G01 X15.1456 Y4.8585
G01 X15.2619 Y4.7169
G01 X15.4035 Y4.6006
G01 X15.5652 Y4.5142
G01 X15.5839 Y4.5085
G01 X15.5913 Y4.5056
G01 X15.6924 Y4.4562
G01 X15.6999 Y4.4520
G01 X15.7054 Y4.4480
G01 X15.7106 Y4.4434
G01 X15.7935 Y4.3623
G01 X15.7988 Y4.3555
G01 X15.8032 Y4.3481
G01 X15.8543 Y4.2497
G01 X15.8583 Y4.2402
G01 X15.8602 Y4.2336
G01 X15.8612 Y4.2286
G01 X15.8789 Y4.1191
G01 X15.8797 Y4.1106
G01 X15.8796 Y4.1037
G01 X15.8789 Y4.0969
G01 X15.8612 Y3.9874
G01 X15.8602 Y3.9824
G01 X15.8583 Y3.9758
G01 X15.8543 Y3.9663
G01 X15.8024 Y3.8663
G01 X15.7968 Y3.8577
G01 X15.7912 Y3.8512
G01 X15.7093 Y3.7714
G01 X15.7041 Y3.7670
G01 X15.6984 Y3.7631
G01 X15.6924 Y3.7598
G01 X15.5911 Y3.7103
G01 X15.5842 Y3.7076
G01 X15.5652 Y3.7018
G01 X15.4035 Y3.6154
G01 X15.2619 Y3.4991
G01 X15.1456 Y3.3575
G01 X15.0592 Y3.1958
G01 X15.0060 Y3.0204
G01 X14.9880 Y2.8380
G01 X15.0060 Y2.6556
G01 X15.0592 Y2.4802
G01 X15.1456 Y2.3185
G01 X15.2619 Y2.1769
G01 X15.4035 Y2.0606
G01 X15.5652 Y1.9742
G01 X15.5839 Y1.9685
G01 X15.5913 Y1.9656
G01 X15.6924 Y1.9162
G01 X15.6984 Y1.9129
G01 X15.7041 Y1.9090
G01 X15.7093 Y1.9046
G01 X15.7912 Y1.8248
G01 X15.7968 Y1.8183
G01 X15.8024 Y1.8097
G01 X15.8543 Y1.7097
G01 X15.8583 Y1.7002
G01 X15.8602 Y1.6936
G01 X15.8612 Y1.6886
G01 X15.8789 Y1.5791
G01 X15.8795 Y1.5740
G01 X15.8797 Y1.5671
G01 X15.8789 Y1.5569
G01 X15.8612 Y1.4474
G01 X15.8602 Y1.4424
G01 X15.8583 Y1.4358
G01 X15.8543 Y1.4263
G01 X15.8024 Y1.3263
G01 X15.7978 Y1.3191
G01 X15.7912 Y1.3112
G01 X15.7093 Y1.2314
G01 X15.7041 Y1.2270
G01 X15.6984 Y1.2231
G01 X15.6924 Y1.2198
G01 X15.5911 Y1.1703
G01 X15.5842 Y1.1676
G01 X15.5652 Y1.1618
G01 X15.4035 Y1.0754
G01 X15.2619 Y0.9591
G01 X15.1456 Y0.8175
G01 X15.0592 Y0.6558
G01 X15.0089 Y0.4902
G01 X15.0060 Y0.4804
G01 X14.9880 Y0.2980
G01 X15.0060 Y0.1156
G01 X15.0562 Y-0.0500
G01 X15.0592 Y-0.0598
G01 X15.1456 Y-0.2215
G01 X15.2619 Y-0.3631
G01 X15.4035 Y-0.4794
G01 X15.5652 Y-0.5658
G01 X15.5839 Y-0.5715
G01 X15.5913 Y-0.5744
G01 X15.6924 Y-0.6238
G01 X15.6984 Y-0.6271
G01 X15.7041 Y-0.6310
G01 X15.7093 Y-0.6354
G01 X15.7912 Y-0.7152
G01 X15.7968 Y-0.7217
G01 X15.8024 Y-0.7303
G01 X15.8543 Y-0.8303
G01 X15.8583 Y-0.8398
G01 X15.8602 Y-0.8464
G01 X15.8612 Y-0.8514
G01 X15.8789 Y-0.9609
G01 X15.8796 Y-0.9677
G01 X15.8796 Y-0.9763
G01 X15.8789 Y-0.9831
G01 X15.8612 Y-1.0926
G01 X15.8602 Y-1.0976
G01 X15.8583 Y-1.1042
G01 X15.8543 Y-1.1137
G01 X15.8024 Y-1.2137
G01 X15.7968 Y-1.2223
G01 X15.7912 Y-1.2288
G01 X15.7093 Y-1.3086
G01 X15.7041 Y-1.3130
G01 X15.6984 Y-1.3169
G01 X15.6924 Y-1.3202
G01 X15.5911 Y-1.3697
G01 X15.5842 Y-1.3724
G01 X15.5652 Y-1.3782
G01 X15.4035 Y-1.4646
G01 X15.2619 Y-1.5809
G01 X15.1456 Y-1.7225
G01 X15.0592 Y-1.8842
G01 X15.0089 Y-2.0498
G01 X15.0060 Y-2.0596
G01 X14.9880 Y-2.2420
G01 X15.0060 Y-2.4244
G01 X15.0562 Y-2.5900
G01 X15.0592 Y-2.5998
G01 X15.1456 Y-2.7615
G01 X15.2619 Y-2.9031
G01 X15.4035 Y-3.0194
G01 X15.5652 Y-3.1058
G01 X15.5839 Y-3.1115
G01 X15.5913 Y-3.1144
G01 X15.6924 Y-3.1638
G01 X15.6984 Y-3.1671
G01 X15.7041 Y-3.1710
G01 X15.7093 Y-3.1754
G01 X15.7912 Y-3.2552
G01 X15.7968 Y-3.2617
G01 X15.8024 Y-3.2703
G01 X15.8543 Y-3.3703
G01 X15.8583 Y-3.3798
G01 X15.8602 Y-3.3864
G01 X15.8612 Y-3.3914
G01 X15.8793 Y-3.5043
G01 X15.8797 Y-3.5129
G01 X15.8789 Y-3.5231
G01 X15.8612 Y-3.6326
G01 X15.8602 Y-3.6376
G01 X15.8583 Y-3.6442
G01 X15.8543 Y-3.6537
G01 X15.8024 Y-3.7537
G01 X15.7978 Y-3.7609
G01 X15.7912 Y-3.7688
G01 X15.7093 Y-3.8486
G01 X15.7041 Y-3.8530
G01 X15.6984 Y-3.8569
G01 X15.6924 Y-3.8602
G01 X15.5911 Y-3.9097
G01 X15.5842 Y-3.9124
G01 X15.5652 Y-3.9182
G01 X15.4035 Y-4.0046
G01 X15.2619 Y-4.1209
G01 X15.1456 Y-4.2625
G01 X15.0592 Y-4.4242
G01 X15.0060 Y-4.5996
G01 X14.9880 Y-4.7820
G01 X15.0060 Y-4.9644
G01 X15.0592 Y-5.1398
G01 X15.1456 Y-5.3015
G01 X15.2619 Y-5.4431
G01 X15.4035 Y-5.5594
G01 X15.5652 Y-5.6458
G01 X15.5839 Y-5.6515
G01 X15.5913 Y-5.6544
G01 X15.6924 Y-5.7038
G01 X15.6984 Y-5.7071
G01 X15.7041 Y-5.7110
G01 X15.7093 Y-5.7154
G01 X15.7912 Y-5.7952
G01 X15.7968 Y-5.8017
G01 X15.8024 Y-5.8103
G01 X15.8543 Y-5.9103
G01 X15.8583 Y-5.9198
G01 X15.8602 Y-5.9264
G01 X15.8612 Y-5.9314
G01 X15.8789 Y-6.0409
G01 X15.8795 Y-6.0460
G01 X15.8797 Y-6.0529
G01 X15.8789 Y-6.0631
G01 X15.8612 Y-6.1726
G01 X15.8602 Y-6.1776
G01 X15.8583 Y-6.1842
G01 X15.8543 Y-6.1937
G01 X15.8024 Y-6.2937
G01 X15.7968 Y-6.3023
G01 X15.7912 Y-6.3088
G01 X15.7093 Y-6.3886
G01 X15.7041 Y-6.3930
G01 X15.6984 Y-6.3969
G01 X15.6924 Y-6.4002
G01 X15.5911 Y-6.4497
G01 X15.5842 Y-6.4524
G01 X15.5652 Y-6.4582
G01 X15.4035 Y-6.5446
G01 X15.2619 Y-6.6609
G01 X15.1456 Y-6.8025
G01 X15.0592 Y-6.9642
G01 X15.0060 Y-7.1396
G01 X14.9880 Y-7.3220
G01 X15.0060 Y-7.5044
G01 X15.0592 Y-7.6798
G01 X15.1456 Y-7.8415
G01 X15.2619 Y-7.9831
G01 X15.4035 Y-8.0994
G01 X15.5652 Y-8.1858
G01 X15.5841 Y-8.1916
G01 X15.5911 Y-8.1943
G01 X15.6924 Y-8.2437
G01 X15.6984 Y-8.2471
G01 X15.7041 Y-8.2509
G01 X15.7093 Y-8.2554
G01 X15.7912 Y-8.3352
G01 X15.7978 Y-8.3431
G01 X15.8024 Y-8.3503
G01 X15.8543 Y-8.4503
G01 X15.8583 Y-8.4597
G01 X15.8602 Y-8.4663
G01 X15.8612 Y-8.4714
G01 X15.8789 Y-8.5809
G01 X15.8795 Y-8.5860
G01 X15.8797 Y-8.5928
G01 X15.8789 Y-8.6031
G01 X15.8612 Y-8.7126
G01 X15.8598 Y-8.7193
G01 X15.8583 Y-8.7242
G01 X15.8543 Y-8.7337
G01 X15.8024 Y-8.8336
G01 X15.7968 Y-8.8423
G01 X15.7912 Y-8.8488
G01 X15.7094 Y-8.9286
G01 X15.7041 Y-8.9330
G01 X15.6984 Y-8.9369
G01 X15.6924 Y-8.9402
G01 X15.5913 Y-8.9896
G01 X15.5839 Y-8.9925
G01 X15.5652 Y-8.9982
G01 X15.4035 Y-9.0846
G01 X15.2619 Y-9.2009
G01 X15.1456 Y-9.3425
G01 X15.0592 Y-9.5042
G01 X15.0089 Y-9.6698
G01 X15.0060 Y-9.6796
G01 X14.9880 Y-9.8620
G01 X15.0060 Y-10.0444
G01 X15.0562 Y-10.2100
G01 X15.0592 Y-10.2198
G01 X15.1456 Y-10.3815
G01 X15.2619 Y-10.5231
G01 X15.4035 Y-10.6394
G01 X15.5652 Y-10.7258
G01 X15.5839 Y-10.7315
G01 X15.5913 Y-10.7344
G01 X15.6924 Y-10.7838
G01 X15.6984 Y-10.7871
G01 X15.7041 Y-10.7910
G01 X15.7093 Y-10.7954
G01 X15.7912 Y-10.8752
G01 X15.7968 Y-10.8817
G01 X15.8024 Y-10.8903
G01 X15.8543 Y-10.9903
G01 X15.8583 Y-10.9998
G01 X15.8602 Y-11.0064
G01 X15.8612 Y-11.0114
G01 X15.8789 Y-11.1209
G01 X15.8797 Y-11.1294
G01 X15.8795 Y-11.1380
G01 X15.8612 Y-11.2526
G01 X15.8602 Y-11.2576
G01 X15.8583 Y-11.2642
G01 X15.8543 Y-11.2737
G01 X15.8024 Y-11.3737
G01 X15.7968 Y-11.3823
G01 X15.7912 Y-11.3888
G01 X15.7093 Y-11.4686
G01 X15.7041 Y-11.4730
G01 X15.6984 Y-11.4769
G01 X15.6924 Y-11.4802
G01 X15.5911 Y-11.5297
G01 X15.5842 Y-11.5324
G01 X15.5652 Y-11.5382
G01 X15.4035 Y-11.6246
G01 X15.2619 Y-11.7409
G01 X15.1456 Y-11.8825
G01 X15.0592 Y-12.0442
G01 X15.0089 Y-12.2098
G01 X15.0060 Y-12.2196
G01 X14.9880 Y-12.4020
G01 X15.0060 Y-12.5844
G01 X15.0562 Y-12.7500
G01 X15.0592 Y-12.7598
G01 X15.1456 Y-12.9215
G01 X15.2619 Y-13.0631
G01 X15.4035 Y-13.1794
G01 X15.5652 Y-13.2658
G01 X15.5839 Y-13.2715
G01 X15.5913 Y-13.2744
G01 X15.6924 Y-13.3238
G01 X15.6984 Y-13.3271
G01 X15.7041 Y-13.3310
G01 X15.7093 Y-13.3354
G01 X15.7912 Y-13.4152
G01 X15.7968 Y-13.4217
G01 X15.8024 Y-13.4303
G01 X15.8543 Y-13.5303
G01 X15.8583 Y-13.5398
G01 X15.8602 Y-13.5464
G01 X15.8612 Y-13.5514
G01 X15.8789 Y-13.6609
G01 X15.8796 Y-13.6677
G01 X15.8797 Y-13.6746
G01 X15.8789 Y-13.6831
G01 X15.8612 Y-13.7926
G01 X15.8602 Y-13.7976
G01 X15.8583 Y-13.8042
G01 X15.8543 Y-13.8137
G01 X15.8024 Y-13.9137
G01 X15.7968 Y-13.9223
G01 X15.7912 Y-13.9288
G01 X15.7093 Y-14.0086
G01 X15.7041 Y-14.0130
G01 X15.6984 Y-14.0169
G01 X15.6924 Y-14.0202
G01 X15.5911 Y-14.0697
G01 X15.5842 Y-14.0724
G01 X15.5652 Y-14.0782
G01 X15.4035 Y-14.1646
G01 X15.2619 Y-14.2809
G01 X15.1456 Y-14.4225
G01 X15.0592 Y-14.5842
G01 X15.0089 Y-14.7498
G01 X15.0060 Y-14.7596
G01 X14.9880 Y-14.9420
G01 X15.0060 Y-15.1244
G01 X15.0562 Y-15.2900
G01 X15.0592 Y-15.2998
G01 X15.1456 Y-15.4615
G01 X15.2619 Y-15.6031
G01 X15.4035 Y-15.7194
G01 X15.5652 Y-15.8058
G01 X15.5841 Y-15.8116
G01 X15.5911 Y-15.8143
G01 X15.6924 Y-15.8637
G01 X15.6984 Y-15.8671
G01 X15.7041 Y-15.8709
G01 X15.7093 Y-15.8754
G01 X15.7912 Y-15.9552
G01 X15.7968 Y-15.9617
G01 X15.8024 Y-15.9703
G01 X15.8543 Y-16.0703
G01 X15.8583 Y-16.0797
G01 X15.8598 Y-16.0847
G01 X15.8612 Y-16.0914
G01 X15.8789 Y-16.2009
G01 X15.8797 Y-16.2111
G01 X15.8795 Y-16.2180
G01 X15.8789 Y-16.2231
G01 X15.8612 Y-16.3326
G01 X15.8598 Y-16.3393
G01 X15.8583 Y-16.3442
G01 X15.8543 Y-16.3537
G01 X15.8024 Y-16.4536
G01 X15.7968 Y-16.4623
G01 X15.7912 Y-16.4688
G01 X15.7094 Y-16.5486
G01 X15.7041 Y-16.5530
G01 X15.6984 Y-16.5569
G01 X15.6924 Y-16.5602
G01 X15.5913 Y-16.6096
G01 X15.5839 Y-16.6125
G01 X15.5652 Y-16.6182
G01 X15.4035 Y-16.7046
G01 X15.2619 Y-16.8209
G01 X15.1456 Y-16.9625
G01 X15.0592 Y-17.1242
G01 X15.0060 Y-17.2996
G01 X14.9880 Y-17.4820
G01 X15.0060 Y-17.6644
G01 X15.0592 Y-17.8398
G01 X15.1456 Y-18.0015
G01 X15.2619 Y-18.1431
G01 X15.4035 Y-18.2594
G01 X15.5652 Y-18.3458
G01 X15.5839 Y-18.3515
G01 X15.5913 Y-18.3544
G01 X15.6924 Y-18.4038
G01 X15.6984 Y-18.4071
G01 X15.7041 Y-18.4110
G01 X15.7093 Y-18.4154
G01 X15.7912 Y-18.4952
G01 X15.7968 Y-18.5017
G01 X15.8024 Y-18.5103
G01 X15.8543 Y-18.6103
G01 X15.8583 Y-18.6198
G01 X15.8598 Y-18.6247
G01 X15.8612 Y-18.6314
G01 X15.8789 Y-18.7409
G01 X15.8796 Y-18.7477
G01 X15.8797 Y-18.7546
G01 X15.8789 Y-18.7631
G01 X15.8612 Y-18.8726
G01 X15.8602 Y-18.8776
G01 X15.8583 Y-18.8842
G01 X15.8543 Y-18.8937
G01 X15.8024 Y-18.9937
G01 X15.7978 Y-19.0009
G01 X15.7912 Y-19.0088
G01 X15.7093 Y-19.0886
G01 X15.7041 Y-19.0930
G01 X15.6984 Y-19.0969
G01 X15.6924 Y-19.1002
G01 X15.5911 Y-19.1497
G01 X15.5842 Y-19.1524
G01 X15.5652 Y-19.1582
G01 X15.4035 Y-19.2446
G01 X15.2619 Y-19.3609
G01 X15.1456 Y-19.5025
G01 X15.0592 Y-19.6642
G01 X15.0089 Y-19.8298
G01 X15.0060 Y-19.8396
G01 X14.9880 Y-20.0220
G01 X15.0060 Y-20.2044
G01 X15.0592 Y-20.3798
G01 X15.1456 Y-20.5415
G01 X15.2619 Y-20.6831
G01 X15.4035 Y-20.7994
G01 X15.5652 Y-20.8858
G01 X15.7406 Y-20.9390
G01 X15.9230 Y-20.9570
G01 X16.1054 Y-20.9390
G01 X16.2808 Y-20.8858
G01 X16.4425 Y-20.7994
G01 X16.5841 Y-20.6831
G01 X16.7004 Y-20.5415
G01 X16.7868 Y-20.3798
G01 X16.8400 Y-20.2044
G01 X16.8580 Y-20.0220
G01 X16.8400 Y-19.8396
G01 X16.7868 Y-19.6642
G01 X16.7004 Y-19.5025
G01 X16.5841 Y-19.3609
G01 X16.4425 Y-19.2446
G01 X16.2808 Y-19.1582
G01 X16.2621 Y-19.1525
G01 X16.2547 Y-19.1496
G01 X16.1536 Y-19.1002
G01 X16.1476 Y-19.0969
G01 X16.1419 Y-19.0930
G01 X16.1367 Y-19.0886
G01 X16.0548 Y-19.0088
G01 X16.0482 Y-19.0009
G01 X16.0436 Y-18.9937
G01 X15.9917 Y-18.8937
G01 X15.9877 Y-18.8842
G01 X15.9858 Y-18.8777
G01 X15.9848 Y-18.8726
G01 X15.9671 Y-18.7631
G01 X15.9663 Y-18.7546
G01 X15.9664 Y-18.7477
G01 X15.9671 Y-18.7409
G01 X15.9848 Y-18.6314
G01 X15.9862 Y-18.6247
G01 X15.9877 Y-18.6198
G01 X15.9917 Y-18.6103
G01 X16.0436 Y-18.5103
G01 X16.0482 Y-18.5031
G01 X16.0548 Y-18.4952
G01 X16.1367 Y-18.4154
G01 X16.1419 Y-18.4110
G01 X16.1476 Y-18.4071
G01 X16.1536 Y-18.4038
G01 X16.2547 Y-18.3544
G01 X16.2621 Y-18.3515
G01 X16.2808 Y-18.3458
G01 X16.4425 Y-18.2594
G01 X16.5841 Y-18.1431
G01 X16.7004 Y-18.0015
G01 X16.7868 Y-17.8398
G01 X16.8400 Y-17.6644
G01 X16.8580 Y-17.4820
G01 X16.8400 Y-17.2996
G01 X16.7868 Y-17.1242
G01 X16.7004 Y-16.9625
G01 X16.5841 Y-16.8209
G01 X16.4425 Y-16.7046
G01 X16.2808 Y-16.6182
G01 X16.2618 Y-16.6124
G01 X16.2549 Y-16.6097
G01 X16.1536 Y-16.5602
G01 X16.1476 Y-16.5569
G01 X16.1419 Y-16.5530
G01 X16.1366 Y-16.5486
G01 X16.0548 Y-16.4688
G01 X16.0492 Y-16.4623
G01 X16.0436 Y-16.4536
G01 X15.9917 Y-16.3537
G01 X15.9877 Y-16.3442
G01 X15.9862 Y-16.3393
G01 X15.9848 Y-16.3326
G01 X15.9671 Y-16.2231
G01 X15.9663 Y-16.2128
G01 X15.9664 Y-16.2077
G01 X15.9671 Y-16.2009
G01 X15.9848 Y-16.0914
G01 X15.9858 Y-16.0863
G01 X15.9877 Y-16.0797
G01 X15.9917 Y-16.0703
G01 X16.0436 Y-15.9703
G01 X16.0492 Y-15.9617
G01 X16.0548 Y-15.9552
G01 X16.1367 Y-15.8754
G01 X16.1419 Y-15.8709
G01 X16.1476 Y-15.8671
G01 X16.1536 Y-15.8637
G01 X16.2549 Y-15.8143
G01 X16.2619 Y-15.8116
G01 X16.2808 Y-15.8058
G01 X16.4425 Y-15.7194
G01 X16.5841 Y-15.6031
G01 X16.7004 Y-15.4615
G01 X16.7868 Y-15.2998
G01 X16.8400 Y-15.1244
G01 X16.8580 Y-14.9420
G01 X16.8400 Y-14.7596
G01 X16.7868 Y-14.5842
G01 X16.7004 Y-14.4225
G01 X16.5841 Y-14.2809
G01 X16.4425 Y-14.1646
G01 X16.2808 Y-14.0782
G01 X16.2621 Y-14.0725
G01 X16.2547 Y-14.0696
G01 X16.1536 Y-14.0202
G01 X16.1476 Y-14.0169
G01 X16.1419 Y-14.0130
G01 X16.1367 Y-14.0086
G01 X16.0548 Y-13.9288
G01 X16.0482 Y-13.9209
G01 X16.0436 Y-13.9137
G01 X15.9917 Y-13.8137
G01 X15.9877 Y-13.8042
G01 X15.9858 Y-13.7977
G01 X15.9848 Y-13.7926
G01 X15.9671 Y-13.6831
G01 X15.9665 Y-13.6780
G01 X15.9663 Y-13.6711
G01 X15.9671 Y-13.6609
G01 X15.9848 Y-13.5514
G01 X15.9862 Y-13.5447
G01 X15.9877 Y-13.5398
G01 X15.9917 Y-13.5303
G01 X16.0436 Y-13.4303
G01 X16.0492 Y-13.4217
G01 X16.0548 Y-13.4152
G01 X16.1367 Y-13.3354
G01 X16.1419 Y-13.3310
G01 X16.1476 Y-13.3271
G01 X16.1536 Y-13.3238
G01 X16.2547 Y-13.2744
G01 X16.2621 Y-13.2715
G01 X16.2808 Y-13.2658
G01 X16.4425 Y-13.1794
G01 X16.5841 Y-13.0631
G01 X16.7004 Y-12.9215
G01 X16.7868 Y-12.7598
G01 X16.8400 Y-12.5844
G01 X16.8580 Y-12.4020
G01 X16.8400 Y-12.2196
G01 X16.7868 Y-12.0442
G01 X16.7004 Y-11.8825
G01 X16.5841 Y-11.7409
G01 X16.4425 Y-11.6246
G01 X16.2808 Y-11.5382
G01 X16.2621 Y-11.5325
G01 X16.2547 Y-11.5296
G01 X16.1536 Y-11.4802
G01 X16.1476 Y-11.4769
G01 X16.1419 Y-11.4730
G01 X16.1367 Y-11.4686
G01 X16.0548 Y-11.3888
G01 X16.0482 Y-11.3809
G01 X16.0436 Y-11.3737
G01 X15.9917 Y-11.2737
G01 X15.9877 Y-11.2642
G01 X15.9858 Y-11.2577
G01 X15.9848 Y-11.2526
G01 X15.9671 Y-11.1431
G01 X15.9663 Y-11.1346
G01 X15.9667 Y-11.1243
G01 X15.9848 Y-11.0114
G01 X15.9862 Y-11.0047
G01 X15.9877 Y-10.9998
G01 X15.9917 Y-10.9903
G01 X16.0436 Y-10.8903
G01 X16.0492 Y-10.8817
G01 X16.0548 Y-10.8752
G01 X16.1367 Y-10.7954
G01 X16.1419 Y-10.7910
G01 X16.1476 Y-10.7871
G01 X16.1536 Y-10.7838
G01 X16.2547 Y-10.7344
G01 X16.2621 Y-10.7315
G01 X16.2808 Y-10.7258
G01 X16.4425 Y-10.6394
G01 X16.5841 Y-10.5231
G01 X16.7004 Y-10.3815
G01 X16.7868 Y-10.2198
G01 X16.8400 Y-10.0444
G01 X16.8580 Y-9.8620
G01 X16.8400 Y-9.6796
G01 X16.7868 Y-9.5042
G01 X16.7004 Y-9.3425
G01 X16.5841 Y-9.2009
G01 X16.4425 Y-9.0846
G01 X16.2808 Y-8.9982
G01 X16.2618 Y-8.9924
G01 X16.2549 Y-8.9897
G01 X16.1536 Y-8.9402
G01 X16.1476 Y-8.9369
G01 X16.1419 Y-8.9330
G01 X16.1366 Y-8.9286
G01 X16.0548 Y-8.8488
G01 X16.0492 Y-8.8423
G01 X16.0436 Y-8.8336
G01 X15.9917 Y-8.7337
G01 X15.9877 Y-8.7242
G01 X15.9862 Y-8.7193
G01 X15.9848 Y-8.7126
G01 X15.9671 Y-8.6031
G01 X15.9664 Y-8.5963
G01 X15.9664 Y-8.5877
G01 X15.9671 Y-8.5809
G01 X15.9848 Y-8.4714
G01 X15.9862 Y-8.4647
G01 X15.9877 Y-8.4597
G01 X15.9917 Y-8.4503
G01 X16.0436 Y-8.3503
G01 X16.0492 Y-8.3417
G01 X16.0548 Y-8.3352
G01 X16.1367 Y-8.2554
G01 X16.1419 Y-8.2509
G01 X16.1476 Y-8.2471
G01 X16.1536 Y-8.2437
G01 X16.2549 Y-8.1943
G01 X16.2619 Y-8.1916
G01 X16.2808 Y-8.1858
G01 X16.4425 Y-8.0994
G01 X16.5841 Y-7.9831
G01 X16.7004 Y-7.8415
G01 X16.7868 Y-7.6798
G01 X16.8400 Y-7.5044
G01 X16.8580 Y-7.3220
G01 X16.8400 Y-7.1396
G01 X16.7868 Y-6.9642
G01 X16.7004 Y-6.8025
G01 X16.5841 Y-6.6609
G01 X16.4425 Y-6.5446
G01 X16.2808 Y-6.4582
G01 X16.2621 Y-6.4525
G01 X16.2547 Y-6.4496
G01 X16.1536 Y-6.4002
G01 X16.1476 Y-6.3969
G01 X16.1419 Y-6.3930
G01 X16.1367 Y-6.3886
G01 X16.0548 Y-6.3088
G01 X16.0492 Y-6.3023
G01 X16.0436 Y-6.2937
G01 X15.9917 Y-6.1937
G01 X15.9877 Y-6.1842
G01 X15.9858 Y-6.1777
G01 X15.9848 Y-6.1726
G01 X15.9667 Y-6.0597
G01 X15.9663 Y-6.0511
G01 X15.9671 Y-6.0409
G01 X15.9848 Y-5.9314
G01 X15.9862 Y-5.9247
G01 X15.9877 Y-5.9198
G01 X15.9917 Y-5.9103
G01 X16.0436 Y-5.8103
G01 X16.0492 Y-5.8017
G01 X16.0548 Y-5.7952
G01 X16.1367 Y-5.7154
G01 X16.1419 Y-5.7110
G01 X16.1476 Y-5.7071
G01 X16.1536 Y-5.7038
G01 X16.2547 Y-5.6544
G01 X16.2621 Y-5.6515
G01 X16.2808 Y-5.6458
G01 X16.4425 Y-5.5594
G01 X16.5841 Y-5.4431
G01 X16.7004 Y-5.3015
G01 X16.7868 Y-5.1398
G01 X16.8400 Y-4.9644
G01 X16.8580 Y-4.7820
G01 X16.8400 Y-4.5996
G01 X16.7868 Y-4.4242
G01 X16.7004 Y-4.2625
G01 X16.5841 Y-4.1209
G01 X16.4425 Y-4.0046
G01 X16.2808 Y-3.9182
G01 X16.2621 Y-3.9125
G01 X16.2547 Y-3.9096
G01 X16.1536 Y-3.8602
G01 X16.1476 Y-3.8569
G01 X16.1419 Y-3.8530
G01 X16.1367 Y-3.8486
G01 X16.0548 Y-3.7688
G01 X16.0482 Y-3.7609
G01 X16.0436 Y-3.7537
G01 X15.9917 Y-3.6537
G01 X15.9877 Y-3.6442
G01 X15.9858 Y-3.6377
G01 X15.9848 Y-3.6326
G01 X15.9671 Y-3.5231
G01 X15.9665 Y-3.5180
G01 X15.9663 Y-3.5111
G01 X15.9671 Y-3.5009
G01 X15.9848 Y-3.3914
G01 X15.9858 Y-3.3863
G01 X15.9877 Y-3.3798
G01 X15.9917 Y-3.3703
G01 X16.0436 Y-3.2703
G01 X16.0482 Y-3.2631
G01 X16.0548 Y-3.2552
G01 X16.1367 Y-3.1754
G01 X16.1419 Y-3.1710
G01 X16.1476 Y-3.1671
G01 X16.1536 Y-3.1638
G01 X16.2547 Y-3.1144
G01 X16.2621 Y-3.1115
G01 X16.2808 Y-3.1058
G01 X16.4425 Y-3.0194
G01 X16.5841 Y-2.9031
G01 X16.7004 Y-2.7615
G01 X16.7868 Y-2.5998
G01 X16.8400 Y-2.4244
G01 X16.8580 Y-2.2420
G01 X16.8400 Y-2.0596
G01 X16.7868 Y-1.8842
G01 X16.7004 Y-1.7225
G01 X16.5841 Y-1.5809
G01 X16.4425 Y-1.4646
G01 X16.2808 Y-1.3782
G01 X16.2621 Y-1.3725
G01 X16.2547 Y-1.3696
G01 X16.1536 Y-1.3202
G01 X16.1476 Y-1.3169
G01 X16.1419 Y-1.3130
G01 X16.1367 Y-1.3086
G01 X16.0548 Y-1.2288
G01 X16.0482 Y-1.2209
G01 X16.0436 Y-1.2137
G01 X15.9917 Y-1.1137
G01 X15.9877 Y-1.1042
G01 X15.9858 Y-1.0977
G01 X15.9848 Y-1.0926
G01 X15.9671 Y-0.9831
G01 X15.9665 Y-0.9780
G01 X15.9663 Y-0.9711
G01 X15.9671 Y-0.9609
G01 X15.9848 Y-0.8514
G01 X15.9862 Y-0.8447
G01 X15.9877 Y-0.8398
G01 X15.9917 Y-0.8303
G01 X16.0436 Y-0.7303
G01 X16.0492 Y-0.7217
G01 X16.0548 Y-0.7152
G01 X16.1367 Y-0.6354
G01 X16.1419 Y-0.6310
G01 X16.1476 Y-0.6271
G01 X16.1536 Y-0.6238
G01 X16.2547 Y-0.5744
G01 X16.2621 Y-0.5715
G01 X16.2808 Y-0.5658
G01 X16.4425 Y-0.4794
G01 X16.5841 Y-0.3631
G01 X16.7004 Y-0.2215
G01 X16.7868 Y-0.0598
G01 X16.8400 Y0.1156
G01 X16.8580 Y0.2980
G01 X16.8400 Y0.4804
G01 X16.7868 Y0.6558
G01 X16.7004 Y0.8175
G01 X16.5841 Y0.9591
G01 X16.4425 Y1.0754
G01 X16.2808 Y1.1618
G01 X16.2621 Y1.1675
G01 X16.2547 Y1.1704
G01 X16.1536 Y1.2198
G01 X16.1476 Y1.2231
G01 X16.1419 Y1.2270
G01 X16.1367 Y1.2314
G01 X16.0548 Y1.3112
G01 X16.0482 Y1.3191
G01 X16.0436 Y1.3263
G01 X15.9917 Y1.4263
G01 X15.9877 Y1.4358
G01 X15.9858 Y1.4423
G01 X15.9848 Y1.4474
G01 X15.9671 Y1.5569
G01 X15.9663 Y1.5654
G01 X15.9665 Y1.5740
G01 X15.9848 Y1.6886
G01 X15.9858 Y1.6937
G01 X15.9877 Y1.7002
G01 X15.9917 Y1.7097
G01 X16.0436 Y1.8097
G01 X16.0482 Y1.8169
G01 X16.0548 Y1.8248
G01 X16.1367 Y1.9046
G01 X16.1419 Y1.9090
G01 X16.1476 Y1.9129
G01 X16.1536 Y1.9162
G01 X16.2547 Y1.9656
G01 X16.2621 Y1.9685
G01 X16.2808 Y1.9742
G01 X16.4425 Y2.0606
G01 X16.5841 Y2.1769
G01 X16.7004 Y2.3185
G01 X16.7868 Y2.4802
G01 X16.8400 Y2.6556
G01 X16.8580 Y2.8380
G01 X16.8400 Y3.0204
G01 X16.7868 Y3.1958
G01 X16.7004 Y3.3575
G01 X16.5841 Y3.4991
G01 X16.4425 Y3.6154
G01 X16.2808 Y3.7018
G01 X16.2621 Y3.7075
G01 X16.2547 Y3.7104
G01 X16.1536 Y3.7598
G01 X16.1476 Y3.7631
G01 X16.1419 Y3.7670
G01 X16.1367 Y3.7714
G01 X16.0548 Y3.8512
G01 X16.0482 Y3.8591
G01 X16.0436 Y3.8663
G01 X15.9917 Y3.9663
G01 X15.9877 Y3.9758
G01 X15.9858 Y3.9823
G01 X15.9848 Y3.9874
G01 X15.9671 Y4.0969
G01 X15.9664 Y4.1037
G01 X15.9663 Y4.1106
G01 X15.9671 Y4.1191
G01 X15.9848 Y4.2286
G01 X15.9862 Y4.2353
G01 X15.9877 Y4.2402
G01 X15.9917 Y4.2497
G01 X16.0428 Y4.3481
G01 X16.0472 Y4.3555
G01 X16.0525 Y4.3623
G01 X16.1354 Y4.4434
G01 X16.1406 Y4.4480
G01 X16.1461 Y4.4520
G01 X16.1536 Y4.4562
G01 X16.2547 Y4.5056
G01 X16.2621 Y4.5085
G01 X16.2808 Y4.5142
G01 X16.4425 Y4.6006
G01 X16.5841 Y4.7169
G01 X16.7004 Y4.8585
G01 X16.7868 Y5.0202
G01 X16.8400 Y5.1956
G01 X16.8580 Y5.3780
G01 X16.8400 Y5.5604
G01 X16.7868 Y5.7358
G01 X16.7004 Y5.8975
G01 X16.5841 Y6.0391
G01 X16.4500 Y6.1494
G01 X16.3789 Y6.2271
G01 X16.3718 Y6.2365
G01 X16.3677 Y6.2438
G01 X16.3239 Y6.3340
G01 X16.3197 Y6.3450
G01 X16.3179 Y6.3532
G01 X16.3014 Y6.4538
G01 X16.3007 Y6.4639
G01 X16.3012 Y6.4723
G01 X16.3138 Y6.5717
G01 X16.3162 Y6.5832
G01 X16.3191 Y6.5911
G01 X16.3602 Y6.6845
G01 X16.3633 Y6.6904
G01 X16.3680 Y6.6974
G01 X16.4349 Y6.7765
G01 X16.4432 Y6.7849
G01 X16.4499 Y6.7899
G01 X16.4959 Y6.8200
G01 X16.5023 Y6.8264
G01 X16.5105 Y6.8326
G01 X16.5503 Y6.8557
G01 X16.7067 Y6.9652
G01 X16.7253 Y6.9808
G01 X16.8602 Y7.1157
G01 X16.8758 Y7.1343
G01 X16.9853 Y7.2907
G01 X16.9974 Y7.3117
G01 X17.0781 Y7.4847
G01 X17.0829 Y7.4980
G01 X16.6844 Y7.4980
G01 X16.6464 Y7.4347
G01 X16.5976 Y7.3688
G01 X16.5933 Y7.3635
G01 X16.5382 Y7.3028
G01 X16.4775 Y7.2477
G01 X16.4722 Y7.2434
G01 X16.4063 Y7.1946
G01 X16.3361 Y7.1524
G01 X16.3300 Y7.1492
G01 X16.2559 Y7.1142
G01 X16.1788 Y7.0865
G01 X16.1722 Y7.0845
G01 X16.0927 Y7.0647
G01 X16.0117 Y7.0526
G01 X16.0048 Y7.0519
G01 X15.9230 Y7.0480
G01 X15.8412 Y7.0519
G01 X15.8343 Y7.0526
G01 X15.7533 Y7.0647
G01 X15.6738 Y7.0845
G01 X15.6672 Y7.0865
G01 X15.5901 Y7.1142
G01 X15.5160 Y7.1492
G01 X15.5099 Y7.1524
G01 X15.4397 Y7.1946
G01 X15.3738 Y7.2434
G01 X15.3685 Y7.2477
G01 X15.3078 Y7.3028
G01 X15.2527 Y7.3635
G01 X15.2484 Y7.3688
G01 X15.1996 Y7.4347
G01 X15.1616 Y7.4980
G01 X14.7631 Y7.4980
G00 Z2.0000
G00 X15.9264 Y4.5081
G01 F20.00
G01 Z-0.0746
G01 F60.00
G01 X16.0083 Y4.5122
G01 X16.0927 Y4.5247
G01 X16.1755 Y4.5455
G01 X16.2559 Y4.5742
G01 X16.3331 Y4.6107
G01 X16.4063 Y4.6546
G01 X16.4749 Y4.7055
G01 X16.5382 Y4.7628
G01 X16.5955 Y4.8261
G01 X16.6464 Y4.8947
G01 X16.6903 Y4.9679
G01 X16.7268 Y5.0451
G01 X16.7555 Y5.1255
G01 X16.7763 Y5.2083
G01 X16.7888 Y5.2927
G01 X16.7930 Y5.3780
G01 X16.7888 Y5.4633
G01 X16.7763 Y5.5477
G01 X16.7555 Y5.6305
G01 X16.7268 Y5.7109
G01 X16.6903 Y5.7881
G01 X16.6464 Y5.8613
G01 X16.5955 Y5.9299
G01 X16.5382 Y5.9932
G01 X16.4749 Y6.0505
G01 X16.4063 Y6.1014
G01 X16.3331 Y6.1453
G01 X16.2559 Y6.1818
G01 X16.1755 Y6.2105
G01 X16.0927 Y6.2313
G01 X16.0083 Y6.2438
G01 X15.9230 Y6.2480
G01 X15.8377 Y6.2438
G01 X15.7533 Y6.2313
G01 X15.6705 Y6.2105
G01 X15.5901 Y6.1818
G01 X15.5129 Y6.1453
G01 X15.4397 Y6.1014
G01 X15.3711 Y6.0505
G01 X15.3078 Y5.9932
G01 X15.2505 Y5.9299
G01 X15.1996 Y5.8613
G01 X15.1557 Y5.7881
G01 X15.1192 Y5.7109
G01 X15.0905 Y5.6305
G01 X15.0697 Y5.5477
G01 X15.0572 Y5.4633
G01 X15.0530 Y5.3780
G01 X15.0572 Y5.2927
G01 X15.0697 Y5.2083
G01 X15.0905 Y5.1255
G01 X15.1192 Y5.0451
G01 X15.1557 Y4.9679
G01 X15.1996 Y4.8947
G01 X15.2505 Y4.8261
G01 X15.3078 Y4.7628
G01 X15.3711 Y4.7055
G01 X15.4397 Y4.6546
G01 X15.5129 Y4.6107
G01 X15.5901 Y4.5742
G01 X15.6705 Y4.5455
G01 X15.7533 Y4.5247
G01 X15.8377 Y4.5122
G01 X15.9196 Y4.5081
G01 X15.9264 Y4.5081
G00 Z2.0000
G00 X15.9264 Y1.9681
G01 F20.00
G01 Z-0.0746
G01 F60.00
G01 X16.0083 Y1.9722
G01 X16.0927 Y1.9847
G01 X16.1755 Y2.0055
G01 X16.2559 Y2.0342
G01 X16.3331 Y2.0707
G01 X16.4063 Y2.1146
G01 X16.4749 Y2.1655
G01 X16.5382 Y2.2228
G01 X16.5955 Y2.2861
G01 X16.6464 Y2.3547
G01 X16.6903 Y2.4279
G01 X16.7268 Y2.5051
G01 X16.7555 Y2.5855
G01 X16.7763 Y2.6683
G01 X16.7888 Y2.7527
G01 X16.7930 Y2.8380
G01 X16.7888 Y2.9233
G01 X16.7763 Y3.0077
G01 X16.7555 Y3.0905
G01 X16.7268 Y3.1709
G01 X16.6903 Y3.2481
G01 X16.6464 Y3.3213
G01 X16.5955 Y3.3899
G01 X16.5382 Y3.4532
G01 X16.4749 Y3.5105
G01 X16.4063 Y3.5614
G01 X16.3331 Y3.6053
G01 X16.2559 Y3.6418
G01 X16.1755 Y3.6705
G01 X16.0927 Y3.6913
G01 X16.0083 Y3.7038
G01 X15.9230 Y3.7080
G01 X15.8377 Y3.7038
G01 X15.7533 Y3.6913
G01 X15.6705 Y3.6705
G01 X15.5901 Y3.6418
G01 X15.5129 Y3.6053
G01 X15.4397 Y3.5614
G01 X15.3711 Y3.5105
G01 X15.3078 Y3.4532
G01 X15.2505 Y3.3899
G01 X15.1996 Y3.3213
G01 X15.1557 Y3.2481
G01 X15.1192 Y3.1709
G01 X15.0905 Y3.0905
G01 X15.0697 Y3.0077
G01 X15.0572 Y2.9233
G01 X15.0530 Y2.8380
G01 X15.0572 Y2.7527
G01 X15.0697 Y2.6683
G01 X15.0905 Y2.5855
G01 X15.1192 Y2.5051
G01 X15.1557 Y2.4279
G01 X15.1996 Y2.3547
G01 X15.2505 Y2.2861
G01 X15.3078 Y2.2228
G01 X15.3711 Y2.1655
G01 X15.4397 Y2.1146
G01 X15.5129 Y2.0707
G01 X15.5901 Y2.0342
G01 X15.6705 Y2.0055
G01 X15.7533 Y1.9847
G01 X15.8377 Y1.9722
G01 X15.9196 Y1.9681
G01 X15.9264 Y1.9681
G00 Z2.0000
G00 X15.9264 Y-0.5719
G01 F20.00
G01 Z-0.0746
G01 F60.00
G01 X16.0083 Y-0.5678
G01 X16.0927 Y-0.5553
G01 X16.1755 Y-0.5345
G01 X16.2559 Y-0.5058
G01 X16.3331 Y-0.4693
G01 X16.4063 Y-0.4254
G01 X16.4749 Y-0.3745
G01 X16.5382 Y-0.3172
G01 X16.5955 Y-0.2539
G01 X16.6464 Y-0.1853
G01 X16.6903 Y-0.1121
G01 X16.7268 Y-0.0349
G01 X16.7555 Y0.0455
G01 X16.7763 Y0.1283
G01 X16.7888 Y0.2127
G01 X16.7930 Y0.2980
G01 X16.7888 Y0.3833
G01 X16.7763 Y0.4677
G01 X16.7555 Y0.5505
G01 X16.7268 Y0.6309
G01 X16.6903 Y0.7081
G01 X16.6464 Y0.7813
G01 X16.5955 Y0.8499
G01 X16.5382 Y0.9132
G01 X16.4749 Y0.9705
G01 X16.4063 Y1.0214
G01 X16.3331 Y1.0653
G01 X16.2559 Y1.1018
G01 X16.1755 Y1.1305
G01 X16.0927 Y1.1513
G01 X16.0083 Y1.1638
G01 X15.9230 Y1.1680
G01 X15.8377 Y1.1638
G01 X15.7533 Y1.1513
G01 X15.6705 Y1.1305
G01 X15.5901 Y1.1018
G01 X15.5129 Y1.0653
G01 X15.4397 Y1.0214
G01 X15.3711 Y0.9705
G01 X15.3078 Y0.9132
G01 X15.2505 Y0.8499
G01 X15.1996 Y0.7813
G01 X15.1557 Y0.7081
G01 X15.1192 Y0.6309
G01 X15.0905 Y0.5505
G01 X15.0697 Y0.4677
G01 X15.0572 Y0.3833
G01 X15.0530 Y0.2980
G01 X15.0572 Y0.2127
G01 X15.0697 Y0.1283
G01 X15.0905 Y0.0455
G01 X15.1192 Y-0.0349
G01 X15.1557 Y-0.1121
G01 X15.1996 Y-0.1853
G01 X15.2505 Y-0.2539
G01 X15.3078 Y-0.3172
G01 X15.3711 Y-0.3745
G01 X15.4397 Y-0.4254
G01 X15.5129 Y-0.4693
G01 X15.5901 Y-0.5058
G01 X15.6705 Y-0.5345
G01 X15.7533 Y-0.5553
G01 X15.8377 Y-0.5678
G01 X15.9196 Y-0.5719
G01 X15.9264 Y-0.5719
G00 Z2.0000
G00 X15.9264 Y-3.1119
G01 F20.00
G01 Z-0.0746
G01 F60.00
G01 X16.0083 Y-3.1078
G01 X16.0927 Y-3.0953
G01 X16.1755 Y-3.0745
G01 X16.2559 Y-3.0458
G01 X16.3331 Y-3.0093
G01 X16.4063 Y-2.9654
G01 X16.4749 Y-2.9145
G01 X16.5382 Y-2.8572
G01 X16.5955 Y-2.7939
G01 X16.6464 Y-2.7253
G01 X16.6903 Y-2.6521
G01 X16.7268 Y-2.5749
G01 X16.7555 Y-2.4945
G01 X16.7763 Y-2.4117
G01 X16.7888 Y-2.3273
G01 X16.7930 Y-2.2420
G01 X16.7888 Y-2.1567
G01 X16.7763 Y-2.0723
G01 X16.7555 Y-1.9895
G01 X16.7268 Y-1.9091
G01 X16.6903 Y-1.8319
G01 X16.6464 Y-1.7587
G01 X16.5955 Y-1.6901
G01 X16.5382 Y-1.6268
G01 X16.4749 Y-1.5695
G01 X16.4063 Y-1.5186
G01 X16.3331 Y-1.4747
G01 X16.2559 Y-1.4382
G01 X16.1755 Y-1.4095
G01 X16.0927 Y-1.3887
G01 X16.0083 Y-1.3762
G01 X15.9230 Y-1.3720
G01 X15.8377 Y-1.3762
G01 X15.7533 Y-1.3887
G01 X15.6705 Y-1.4095
G01 X15.5901 Y-1.4382
G01 X15.5129 Y-1.4747
G01 X15.4397 Y-1.5186
G01 X15.3711 Y-1.5695
G01 X15.3078 Y-1.6268
G01 X15.2505 Y-1.6901
G01 X15.1996 Y-1.7587
G01 X15.1557 Y-1.8319
G01 X15.1192 Y-1.9091
G01 X15.0905 Y-1.9895
G01 X15.0697 Y-2.0723
G01 X15.0572 Y-2.1567
G01 X15.0530 Y-2.2420
G01 X15.0572 Y-2.3273
G01 X15.0697 Y-2.4117
G01 X15.0905 Y-2.4945
G01 X15.1192 Y-2.5749
G01 X15.1557 Y-2.6521
G01 X15.1996 Y-2.7253
G01 X15.2505 Y-2.7939
G01 X15.3078 Y-2.8572
G01 X15.3711 Y-2.9145
G01 X15.4397 Y-2.9654
G01 X15.5129 Y-3.0093
G01 X15.5901 Y-3.0458
G01 X15.6705 Y-3.0745
G01 X15.7533 Y-3.0953
G01 X15.8377 Y-3.1078
G01 X15.9196 Y-3.1119
G01 X15.9264 Y-3.1119
G00 Z2.0000
G00 X15.9264 Y-5.6519
G01 F20.00
G01 Z-0.0746
G01 F60.00
G01 X16.0083 Y-5.6478
G01 X16.0927 Y-5.6353
G01 X16.1755 Y-5.6145
G01 X16.2559 Y-5.5858
G01 X16.3331 Y-5.5493
G01 X16.4063 Y-5.5054
G01 X16.4749 Y-5.4545
G01 X16.5382 Y-5.3972
G01 X16.5955 Y-5.3339
G01 X16.6464 Y-5.2653
G01 X16.6903 Y-5.1921
G01 X16.7268 Y-5.1149
G01 X16.7555 Y-5.0345
G01 X16.7763 Y-4.9517
G01 X16.7888 Y-4.8673
G01 X16.7930 Y-4.7820
G01 X16.7888 Y-4.6967
G01 X16.7763 Y-4.6123
G01 X16.7555 Y-4.5295
G01 X16.7268 Y-4.4491
G01 X16.6903 Y-4.3719
G01 X16.6464 Y-4.2987
G01 X16.5955 Y-4.2301
G01 X16.5382 Y-4.1668
G01 X16.4749 Y-4.1095
G01 X16.4063 Y-4.0586
G01 X16.3331 Y-4.0147
G01 X16.2559 Y-3.9782
G01 X16.1755 Y-3.9495
G01 X16.0927 Y-3.9287
G01 X16.0083 Y-3.9162
G01 X15.9230 Y-3.9120
G01 X15.8377 Y-3.9162
G01 X15.7533 Y-3.9287
G01 X15.6705 Y-3.9495
G01 X15.5901 Y-3.9782
G01 X15.5129 Y-4.0147
G01 X15.4397 Y-4.0586
G01 X15.3711 Y-4.1095
G01 X15.3078 Y-4.1668
G01 X15.2505 Y-4.2301
G01 X15.1996 Y-4.2987
G01 X15.1557 Y-4.3719
G01 X15.1192 Y-4.4491
G01 X15.0905 Y-4.5295
G01 X15.0697 Y-4.6123
G01 X15.0572 Y-4.6967
G01 X15.0530 Y-4.7820
G01 X15.0572 Y-4.8673
G01 X15.0697 Y-4.9517
G01 X15.0905 Y-5.0345
G01 X15.1192 Y-5.1149
G01 X15.1557 Y-5.1921
G01 X15.1996 Y-5.2653
G01 X15.2505 Y-5.3339
G01 X15.3078 Y-5.3972
G01 X15.3711 Y-5.4545
G01 X15.4397 Y-5.5054
G01 X15.5129 Y-5.5493
G01 X15.5901 Y-5.5858
G01 X15.6705 Y-5.6145
G01 X15.7533 Y-5.6353
G01 X15.8377 Y-5.6478
G01 X15.9196 Y-5.6519
G01 X15.9264 Y-5.6519
G00 Z2.0000
G00 X15.9264 Y-8.1919
G01 F20.00
G01 Z-0.0746
G01 F60.00
G01 X16.0083 Y-8.1878
G01 X16.0927 Y-8.1753
G01 X16.1755 Y-8.1545
G01 X16.2559 Y-8.1258
G01 X16.3331 Y-8.0893
G01 X16.4063 Y-8.0454
G01 X16.4749 Y-7.9945
G01 X16.5382 Y-7.9372
G01 X16.5955 Y-7.8739
G01 X16.6464 Y-7.8053
G01 X16.6903 Y-7.7321
G01 X16.7268 Y-7.6549
G01 X16.7555 Y-7.5745
G01 X16.7763 Y-7.4917
G01 X16.7888 Y-7.4073
G01 X16.7930 Y-7.3220
G01 X16.7888 Y-7.2367
G01 X16.7763 Y-7.1523
G01 X16.7555 Y-7.0695
G01 X16.7268 Y-6.9891
G01 X16.6903 Y-6.9119
G01 X16.6464 Y-6.8387
G01 X16.5955 Y-6.7701
G01 X16.5382 Y-6.7068
G01 X16.4749 Y-6.6495
G01 X16.4063 Y-6.5986
G01 X16.3331 Y-6.5547
G01 X16.2559 Y-6.5182
G01 X16.1755 Y-6.4895
G01 X16.0927 Y-6.4687
G01 X16.0083 Y-6.4562
G01 X15.9230 Y-6.4520
G01 X15.8377 Y-6.4562
G01 X15.7533 Y-6.4687
G01 X15.6705 Y-6.4895
G01 X15.5901 Y-6.5182
G01 X15.5129 Y-6.5547
G01 X15.4397 Y-6.5986
G01 X15.3711 Y-6.6495
G01 X15.3078 Y-6.7068
G01 X15.2505 Y-6.7701
G01 X15.1996 Y-6.8387
G01 X15.1557 Y-6.9119
G01 X15.1192 Y-6.9891
G01 X15.0905 Y-7.0695
G01 X15.0697 Y-7.1523
G01 X15.0572 Y-7.2367
G01 X15.0530 Y-7.3220
G01 X15.0572 Y-7.4073
G01 X15.0697 Y-7.4917
G01 X15.0905 Y-7.5745
G01 X15.1192 Y-7.6549
G01 X15.1557 Y-7.7321
G01 X15.1996 Y-7.8053
G01 X15.2505 Y-7.8739
G01 X15.3078 Y-7.9372
G01 X15.3711 Y-7.9945
G01 X15.4397 Y-8.0454
G01 X15.5129 Y-8.0893
G01 X15.5901 Y-8.1258
G01 X15.6705 Y-8.1545
G01 X15.7533 Y-8.1753
G01 X15.8377 Y-8.1878
G01 X15.9196 Y-8.1919
G01 X15.9264 Y-8.1919
G00 Z2.0000
G00 X15.9264 Y-10.7319
G01 F20.00
G01 Z-0.0746
G01 F60.00
G01 X16.0083 Y-10.7278
G01 X16.0927 Y-10.7153
G01 X16.1755 Y-10.6945
G01 X16.2559 Y-10.6658
G01 X16.3331 Y-10.6293
G01 X16.4063 Y-10.5854
G01 X16.4749 Y-10.5345
G01 X16.5382 Y-10.4772
G01 X16.5955 Y-10.4139
G01 X16.6464 Y-10.3453
G01 X16.6903 Y-10.2721
G01 X16.7268 Y-10.1949
G01 X16.7555 Y-10.1145
G01 X16.7763 Y-10.0317
G01 X16.7888 Y-9.9473
G01 X16.7930 Y-9.8620
G01 X16.7888 Y-9.7767
G01 X16.7763 Y-9.6923
G01 X16.7555 Y-9.6095
G01 X16.7268 Y-9.5291
G01 X16.6903 Y-9.4519
G01 X16.6464 Y-9.3787
G01 X16.5955 Y-9.3101
G01 X16.5382 Y-9.2468
G01 X16.4749 Y-9.1895
G01 X16.4063 Y-9.1386
G01 X16.3331 Y-9.0947
G01 X16.2559 Y-9.0582
G01 X16.1755 Y-9.0295
G01 X16.0927 Y-9.0087
G01 X16.0083 Y-8.9962
G01 X15.9230 Y-8.9920
G01 X15.8377 Y-8.9962
G01 X15.7533 Y-9.0087
G01 X15.6705 Y-9.0295
G01 X15.5901 Y-9.0582
G01 X15.5129 Y-9.0947
G01 X15.4397 Y-9.1386
G01 X15.3711 Y-9.1895
G01 X15.3078 Y-9.2468
G01 X15.2505 Y-9.3101
G01 X15.1996 Y-9.3787
G01 X15.1557 Y-9.4519
G01 X15.1192 Y-9.5291
G01 X15.0905 Y-9.6095
G01 X15.0697 Y-9.6923
G01 X15.0572 Y-9.7767
G01 X15.0530 Y-9.8620
G01 X15.0572 Y-9.9473
G01 X15.0697 Y-10.0317
G01 X15.0905 Y-10.1145
G01 X15.1192 Y-10.1949
G01 X15.1557 Y-10.2721
G01 X15.1996 Y-10.3453
G01 X15.2505 Y-10.4139
G01 X15.3078 Y-10.4772
G01 X15.3711 Y-10.5345
G01 X15.4397 Y-10.5854
G01 X15.5129 Y-10.6293
G01 X15.5901 Y-10.6658
G01 X15.6705 Y-10.6945
G01 X15.7533 Y-10.7153
G01 X15.8377 Y-10.7278
G01 X15.9196 Y-10.7319
G01 X15.9264 Y-10.7319
G00 Z2.0000
G00 X15.9264 Y-13.2719
G01 F20.00
G01 Z-0.0746
G01 F60.00
G01 X16.0083 Y-13.2678
G01 X16.0927 Y-13.2553
G01 X16.1755 Y-13.2345
G01 X16.2559 Y-13.2058
G01 X16.3331 Y-13.1693
G01 X16.4063 Y-13.1254
G01 X16.4749 Y-13.0745
G01 X16.5382 Y-13.0172
G01 X16.5955 Y-12.9539
G01 X16.6464 Y-12.8853
G01 X16.6903 Y-12.8121
G01 X16.7268 Y-12.7349
G01 X16.7555 Y-12.6545
G01 X16.7763 Y-12.5717
G01 X16.7888 Y-12.4873
G01 X16.7930 Y-12.4020
G01 X16.7888 Y-12.3167
G01 X16.7763 Y-12.2323
G01 X16.7555 Y-12.1495
G01 X16.7268 Y-12.0691
G01 X16.6903 Y-11.9919
G01 X16.6464 Y-11.9187
G01 X16.5955 Y-11.8501
G01 X16.5382 Y-11.7868
G01 X16.4749 Y-11.7295
G01 X16.4063 Y-11.6786
G01 X16.3331 Y-11.6347
G01 X16.2559 Y-11.5982
G01 X16.1755 Y-11.5695
G01 X16.0927 Y-11.5487
G01 X16.0083 Y-11.5362
G01 X15.9230 Y-11.5320
G01 X15.8377 Y-11.5362
G01 X15.7533 Y-11.5487
G01 X15.6705 Y-11.5695
G01 X15.5901 Y-11.5982
G01 X15.5129 Y-11.6347
G01 X15.4397 Y-11.6786
G01 X15.3711 Y-11.7295
G01 X15.3078 Y-11.7868
G01 X15.2505 Y-11.8501
G01 X15.1996 Y-11.9187
G01 X15.1557 Y-11.9919
G01 X15.1192 Y-12.0691
G01 X15.0905 Y-12.1495
G01 X15.0697 Y-12.2323
G01 X15.0572 Y-12.3167
G01 X15.0530 Y-12.4020
G01 X15.0572 Y-12.4873
G01 X15.0697 Y-12.5717
G01 X15.0905 Y-12.6545
G01 X15.1192 Y-12.7349
G01 X15.1557 Y-12.8121
G01 X15.1996 Y-12.8853
G01 X15.2505 Y-12.9539
G01 X15.3078 Y-13.0172
G01 X15.3711 Y-13.0745
G01 X15.4397 Y-13.1254
G01 X15.5129 Y-13.1693
G01 X15.5901 Y-13.2058
G01 X15.6705 Y-13.2345
G01 X15.7533 Y-13.2553
G01 X15.8377 Y-13.2678
G01 X15.9196 Y-13.2719
G01 X15.9264 Y-13.2719
G00 Z2.0000
G00 X15.9264 Y-15.8119
G01 F20.00
G01 Z-0.0746
G01 F60.00
G01 X16.0083 Y-15.8078
G01 X16.0927 Y-15.7953
G01 X16.1755 Y-15.7745
G01 X16.2559 Y-15.7458
G01 X16.3331 Y-15.7093
G01 X16.4063 Y-15.6654
G01 X16.4749 Y-15.6145
G01 X16.5382 Y-15.5572
G01 X16.5955 Y-15.4939
G01 X16.6464 Y-15.4253
G01 X16.6903 Y-15.3521
G01 X16.7268 Y-15.2749
G01 X16.7555 Y-15.1945
G01 X16.7763 Y-15.1117
G01 X16.7888 Y-15.0273
G01 X16.7930 Y-14.9420
G01 X16.7888 Y-14.8567
G01 X16.7763 Y-14.7723
G01 X16.7555 Y-14.6895
G01 X16.7268 Y-14.6091
G01 X16.6903 Y-14.5319
G01 X16.6464 Y-14.4587
G01 X16.5955 Y-14.3901
G01 X16.5382 Y-14.3268
G01 X16.4749 Y-14.2695
G01 X16.4063 Y-14.2186
G01 X16.3331 Y-14.1747
G01 X16.2559 Y-14.1382
G01 X16.1755 Y-14.1095
G01 X16.0927 Y-14.0887
G01 X16.0083 Y-14.0762
G01 X15.9230 Y-14.0720
G01 X15.8377 Y-14.0762
G01 X15.7533 Y-14.0887
G01 X15.6705 Y-14.1095
G01 X15.5901 Y-14.1382
G01 X15.5129 Y-14.1747
G01 X15.4397 Y-14.2186
G01 X15.3711 Y-14.2695
G01 X15.3078 Y-14.3268
G01 X15.2505 Y-14.3901
G01 X15.1996 Y-14.4587
G01 X15.1557 Y-14.5319
G01 X15.1192 Y-14.6091
G01 X15.0905 Y-14.6895
G01 X15.0697 Y-14.7723
G01 X15.0572 Y-14.8567
G01 X15.0530 Y-14.9420
G01 X15.0572 Y-15.0273
G01 X15.0697 Y-15.1117
G01 X15.0905 Y-15.1945
G01 X15.1192 Y-15.2749
G01 X15.1557 Y-15.3521
G01 X15.1996 Y-15.4253
G01 X15.2505 Y-15.4939
G01 X15.3078 Y-15.5572
G01 X15.3711 Y-15.6145
G01 X15.4397 Y-15.6654
G01 X15.5129 Y-15.7093
G01 X15.5901 Y-15.7458
G01 X15.6705 Y-15.7745
G01 X15.7533 Y-15.7953
G01 X15.8377 Y-15.8078
G01 X15.9196 Y-15.8119
G01 X15.9264 Y-15.8119
G00 Z2.0000
G00 X15.9264 Y-18.3519
G01 F20.00
G01 Z-0.0746
G01 F60.00
G01 X16.0083 Y-18.3478
G01 X16.0927 Y-18.3353
G01 X16.1755 Y-18.3145
G01 X16.2559 Y-18.2858
G01 X16.3331 Y-18.2493
G01 X16.4063 Y-18.2054
G01 X16.4749 Y-18.1545
G01 X16.5382 Y-18.0972
G01 X16.5955 Y-18.0339
G01 X16.6464 Y-17.9653
G01 X16.6903 Y-17.8921
G01 X16.7268 Y-17.8149
G01 X16.7555 Y-17.7345
G01 X16.7763 Y-17.6517
G01 X16.7888 Y-17.5673
G01 X16.7930 Y-17.4820
G01 X16.7888 Y-17.3967
G01 X16.7763 Y-17.3123
G01 X16.7555 Y-17.2295
G01 X16.7268 Y-17.1491
G01 X16.6903 Y-17.0719
G01 X16.6464 Y-16.9987
G01 X16.5955 Y-16.9301
G01 X16.5382 Y-16.8668
G01 X16.4749 Y-16.8095
G01 X16.4063 Y-16.7586
G01 X16.3331 Y-16.7147
G01 X16.2559 Y-16.6782
G01 X16.1755 Y-16.6495
G01 X16.0927 Y-16.6287
G01 X16.0083 Y-16.6162
G01 X15.9230 Y-16.6120
G01 X15.8377 Y-16.6162
G01 X15.7533 Y-16.6287
G01 X15.6705 Y-16.6495
G01 X15.5901 Y-16.6782
G01 X15.5129 Y-16.7147
G01 X15.4397 Y-16.7586
G01 X15.3711 Y-16.8095
G01 X15.3078 Y-16.8668
G01 X15.2505 Y-16.9301
G01 X15.1996 Y-16.9987
G01 X15.1557 Y-17.0719
G01 X15.1192 Y-17.1491
G01 X15.0905 Y-17.2295
G01 X15.0697 Y-17.3123
G01 X15.0572 Y-17.3967
G01 X15.0530 Y-17.4820
G01 X15.0572 Y-17.5673
G01 X15.0697 Y-17.6517
G01 X15.0905 Y-17.7345
G01 X15.1192 Y-17.8149
G01 X15.1557 Y-17.8921
G01 X15.1996 Y-17.9653
G01 X15.2505 Y-18.0339
G01 X15.3078 Y-18.0972
G01 X15.3711 Y-18.1545
G01 X15.4397 Y-18.2054
G01 X15.5129 Y-18.2493
G01 X15.5901 Y-18.2858
G01 X15.6705 Y-18.3145
G01 X15.7533 Y-18.3353
G01 X15.8377 Y-18.3478
G01 X15.9196 Y-18.3519
G01 X15.9264 Y-18.3519
G00 Z2.0000
G00 X15.9264 Y-20.8919
G01 F20.00
G01 Z-0.0746
G01 F60.00
G01 X16.0083 Y-20.8878
G01 X16.0927 Y-20.8753
G01 X16.1755 Y-20.8545
G01 X16.2559 Y-20.8258
G01 X16.3331 Y-20.7893
G01 X16.4063 Y-20.7454
G01 X16.4749 Y-20.6945
G01 X16.5382 Y-20.6372
G01 X16.5955 Y-20.5739
G01 X16.6464 Y-20.5053
G01 X16.6903 Y-20.4321
G01 X16.7268 Y-20.3549
G01 X16.7555 Y-20.2745
G01 X16.7763 Y-20.1917
G01 X16.7888 Y-20.1073
G01 X16.7930 Y-20.0220
G01 X16.7888 Y-19.9367
G01 X16.7763 Y-19.8523
G01 X16.7555 Y-19.7695
G01 X16.7268 Y-19.6891
G01 X16.6903 Y-19.6119
G01 X16.6464 Y-19.5387
G01 X16.5955 Y-19.4701
G01 X16.5382 Y-19.4068
G01 X16.4749 Y-19.3495
G01 X16.4063 Y-19.2986
G01 X16.3331 Y-19.2547
G01 X16.2559 Y-19.2182
G01 X16.1755 Y-19.1895
G01 X16.0927 Y-19.1687
G01 X16.0083 Y-19.1562
G01 X15.9230 Y-19.1520
G01 X15.8377 Y-19.1562
G01 X15.7533 Y-19.1687
G01 X15.6705 Y-19.1895
G01 X15.5901 Y-19.2182
G01 X15.5129 Y-19.2547
G01 X15.4397 Y-19.2986
G01 X15.3711 Y-19.3495
G01 X15.3078 Y-19.4068
G01 X15.2505 Y-19.4701
G01 X15.1996 Y-19.5387
G01 X15.1557 Y-19.6119
G01 X15.1192 Y-19.6891
G01 X15.0905 Y-19.7695
G01 X15.0697 Y-19.8523
G01 X15.0572 Y-19.9367
G01 X15.0530 Y-20.0220
G01 X15.0572 Y-20.1073
G01 X15.0697 Y-20.1917
G01 X15.0905 Y-20.2745
G01 X15.1192 Y-20.3549
G01 X15.1557 Y-20.4321
G01 X15.1996 Y-20.5053
G01 X15.2505 Y-20.5739
G01 X15.3078 Y-20.6372
G01 X15.3711 Y-20.6945
G01 X15.4397 Y-20.7454
G01 X15.5129 Y-20.7893
G01 X15.5901 Y-20.8258
G01 X15.6705 Y-20.8545
G01 X15.7533 Y-20.8753
G01 X15.8377 Y-20.8878
G01 X15.9196 Y-20.8919
G01 X15.9264 Y-20.8919
G00 Z2.0000
G00 X8.0520 Y-26.3159
G01 F20.00
G01 Z-0.0746
G01 F60.00
G01 X8.0653 Y-26.3111
G01 X8.2383 Y-26.2304
G01 X8.2593 Y-26.2183
G01 X8.4157 Y-26.1088
G01 X8.4343 Y-26.0932
G01 X8.5692 Y-25.9583
G01 X8.5848 Y-25.9397
G01 X8.6943 Y-25.7833
G01 X8.7064 Y-25.7623
G01 X8.7871 Y-25.5893
G01 X8.7919 Y-25.5760
G01 X8.3934 Y-25.5760
G01 X8.3554 Y-25.6393
G01 X8.3066 Y-25.7052
G01 X8.3023 Y-25.7105
G01 X8.2472 Y-25.7712
G01 X8.1865 Y-25.8263
G01 X8.1812 Y-25.8306
G01 X8.1153 Y-25.8794
G01 X8.0520 Y-25.9174
G01 X8.0520 Y-26.3159
G00 Z2.0000
G00 X5.0954 Y-26.0259
G01 F20.00
G01 Z-0.0746
G01 F60.00
G01 X5.1773 Y-26.0218
G01 X5.2617 Y-26.0093
G01 X5.3445 Y-25.9885
G01 X5.4249 Y-25.9598
G01 X5.5021 Y-25.9233
G01 X5.5753 Y-25.8794
G01 X5.6439 Y-25.8285
G01 X5.7072 Y-25.7712
G01 X5.7645 Y-25.7079
G01 X5.8154 Y-25.6393
G01 X5.8593 Y-25.5661
G01 X5.8958 Y-25.4889
G01 X5.9245 Y-25.4085
G01 X5.9453 Y-25.3257
G01 X5.9578 Y-25.2413
G01 X5.9620 Y-25.1560
G01 X5.9578 Y-25.0707
G01 X5.9453 Y-24.9863
G01 X5.9245 Y-24.9035
G01 X5.8958 Y-24.8231
G01 X5.8593 Y-24.7459
G01 X5.8154 Y-24.6727
G01 X5.7645 Y-24.6041
G01 X5.7072 Y-24.5408
G01 X5.6439 Y-24.4835
G01 X5.5753 Y-24.4326
G01 X5.5021 Y-24.3887
G01 X5.4249 Y-24.3522
G01 X5.3445 Y-24.3235
G01 X5.2617 Y-24.3027
G01 X5.1773 Y-24.2902
G01 X5.0920 Y-24.2860
G01 X5.0067 Y-24.2902
G01 X4.9223 Y-24.3027
G01 X4.8395 Y-24.3235
G01 X4.7591 Y-24.3522
G01 X4.6819 Y-24.3887
G01 X4.6087 Y-24.4326
G01 X4.5401 Y-24.4835
G01 X4.4768 Y-24.5408
G01 X4.4195 Y-24.6041
G01 X4.3686 Y-24.6727
G01 X4.3247 Y-24.7459
G01 X4.2882 Y-24.8231
G01 X4.2595 Y-24.9035
G01 X4.2387 Y-24.9863
G01 X4.2262 Y-25.0707
G01 X4.2220 Y-25.1560
G01 X4.2262 Y-25.2413
G01 X4.2387 Y-25.3257
G01 X4.2595 Y-25.4085
G01 X4.2882 Y-25.4889
G01 X4.3247 Y-25.5661
G01 X4.3686 Y-25.6393
G01 X4.4195 Y-25.7079
G01 X4.4768 Y-25.7712
G01 X4.5401 Y-25.8285
G01 X4.6087 Y-25.8794
G01 X4.6819 Y-25.9233
G01 X4.7591 Y-25.9598
G01 X4.8395 Y-25.9885
G01 X4.9223 Y-26.0093
G01 X5.0067 Y-26.0218
G01 X5.0886 Y-26.0259
G01 X5.0954 Y-26.0259
G00 Z2.0000
G00 X2.5554 Y-26.0259
G01 F20.00
G01 Z-0.0746
G01 F60.00
G01 X2.6373 Y-26.0218
G01 X2.7217 Y-26.0093
G01 X2.8045 Y-25.9885
G01 X2.8849 Y-25.9598
G01 X2.9621 Y-25.9233
G01 X3.0353 Y-25.8794
G01 X3.1039 Y-25.8285
G01 X3.1672 Y-25.7712
G01 X3.2245 Y-25.7079
G01 X3.2754 Y-25.6393
G01 X3.3193 Y-25.5661
G01 X3.3558 Y-25.4889
G01 X3.3845 Y-25.4085
G01 X3.4053 Y-25.3257
G01 X3.4178 Y-25.2413
G01 X3.4220 Y-25.1560
G01 X3.4178 Y-25.0707
G01 X3.4053 Y-24.9863
G01 X3.3845 Y-24.9035
G01 X3.3558 Y-24.8231
G01 X3.3193 Y-24.7459
G01 X3.2754 Y-24.6727
G01 X3.2245 Y-24.6041
G01 X3.1672 Y-24.5408
G01 X3.1039 Y-24.4835
G01 X3.0353 Y-24.4326
G01 X2.9621 Y-24.3887
G01 X2.8849 Y-24.3522
G01 X2.8045 Y-24.3235
G01 X2.7217 Y-24.3027
G01 X2.6373 Y-24.2902
G01 X2.5520 Y-24.2860
G01 X2.4667 Y-24.2902
G01 X2.3823 Y-24.3027
G01 X2.2995 Y-24.3235
G01 X2.2191 Y-24.3522
G01 X2.1419 Y-24.3887
G01 X2.0687 Y-24.4326
G01 X2.0001 Y-24.4835
G01 X1.9368 Y-24.5408
G01 X1.8795 Y-24.6041
G01 X1.8286 Y-24.6727
G01 X1.7847 Y-24.7459
G01 X1.7482 Y-24.8231
G01 X1.7195 Y-24.9035
G01 X1.6987 Y-24.9863
G01 X1.6862 Y-25.0707
G01 X1.6820 Y-25.1560
G01 X1.6862 Y-25.2413
G01 X1.6987 Y-25.3257
G01 X1.7195 Y-25.4085
G01 X1.7482 Y-25.4889
G01 X1.7847 Y-25.5661
G01 X1.8286 Y-25.6393
G01 X1.8795 Y-25.7079
G01 X1.9368 Y-25.7712
G01 X2.0001 Y-25.8285
G01 X2.0687 Y-25.8794
G01 X2.1419 Y-25.9233
G01 X2.2191 Y-25.9598
G01 X2.2995 Y-25.9885
G01 X2.3823 Y-26.0093
G01 X2.4667 Y-26.0218
G01 X2.5486 Y-26.0259
G01 X2.5554 Y-26.0259
G00 Z2.0000
