(G-CODE GENERATED BY FLATCAM v8.994 - www.flatcam.org - Version Date: 2020/11/7)

(Name: newPCB-PTH.drl_cnc)
(Type: G-code from Geometry)
(Units: MM)

(Created on Friday, 07 July 2023 at 22:36)

(This preprocessor is the default preprocessor used by FlatCAM.)
(It is made to work with MACH3 compatible motion controllers.)


(TOOLS DIAMETER: )
(Tool: 1 -> Dia: 0.4)
(Tool: 2 -> Dia: 0.8)
(Tool: 3 -> Dia: 0.95)
(Tool: 4 -> Dia: 1.0)

(FEEDRATE Z: )
(Tool: 1 -> Feedrate: 30.0)
(Tool: 2 -> Feedrate: 30.0)
(Tool: 3 -> Feedrate: 30.0)
(Tool: 4 -> Feedrate: 30.0)

(FEEDRATE RAPIDS: )
(Tool: 1 -> Feedrate Rapids: 1500)
(Tool: 2 -> Feedrate Rapids: 1500)
(Tool: 3 -> Feedrate Rapids: 1500)
(Tool: 4 -> Feedrate Rapids: 1500)

(Z_CUT: )
(Tool: 1 -> Z_Cut: -2.0)
(Tool: 2 -> Z_Cut: -2.0)
(Tool: 3 -> Z_Cut: -2.0)
(Tool: 4 -> Z_Cut: -2.0)

(Tools Offset: )
(Tool: 1 -> Offset Z: 0.0)
(Tool: 2 -> Offset Z: 0.0)
(Tool: 3 -> Offset Z: 0.0)
(Tool: 4 -> Offset Z: 0.0)

(Z_MOVE: )
(Tool: 1 -> Z_Move: 2)
(Tool: 2 -> Z_Move: 2)
(Tool: 3 -> Z_Move: 2)
(Tool: 4 -> Z_Move: 2)

(Z Toolchange: 15 mm)
(X,Y Toolchange: 0.0000, 0.0000 mm)
(Z Start: None mm)
(Z End: 0.5 mm)
(X,Y End: None mm)
(Steps per circle: 64)
(Preprocessor Excellon: default)

(X range:  -36.7100 ...   31.6630  mm)
(Y range:   18.4280 ...   67.8960  mm)

(Spindle Speed: 1200 RPM)
G21
G90
G94

G01 F30.00

M5
G00 Z15.0000
T1
G00 X0.0000 Y0.0000                
M6
(MSG, Change to Tool Dia = 0.4000 ||| Total drills for tool T1 = 22)
M0
G00 Z15.0000

G01 F30.00
M03 S1200
G00 X-32.5000 Y59.0600
G01 Z-2.0000
G01 Z0
G00 Z2.0000
G00 X-30.9760 Y66.1720
G01 Z-2.0000
G01 Z0
G00 Z2.0000
G00 X-28.4360 Y63.6320
G01 Z-2.0000
G01 Z0
G00 Z2.0000
G00 X-25.8960 Y61.0920
G01 Z-2.0000
G01 Z0
G00 Z2.0000
G00 X-14.7200 Y67.6960
G01 Z-2.0000
G01 Z0
G00 Z2.0000
G00 X-14.7200 Y66.4260
G01 Z-2.0000
G01 Z0
G00 Z2.0000
G00 X-11.6720 Y63.1240
G01 Z-2.0000
G01 Z0
G00 Z2.0000
G00 X-5.5760 Y54.4880
G01 Z-2.0000
G01 Z0
G00 Z2.0000
G00 X9.6640 Y64.6480
G01 Z-2.0000
G01 Z0
G00 Z2.0000
G00 X9.6640 Y61.6000
G01 Z-2.0000
G01 Z0
G00 Z2.0000
G00 X10.6800 Y26.5480
G01 Z-2.0000
G01 Z0
G00 Z2.0000
G00 X10.6800 Y22.4840
G01 Z-2.0000
G01 Z0
G00 Z2.0000
G00 X-2.5280 Y41.7880
G01 Z-2.0000
G01 Z0
G00 Z2.0000
G00 X-8.6240 Y44.3280
G01 Z-2.0000
G01 Z0
G00 Z2.0000
G00 X-14.2120 Y48.9000
G01 Z-2.0000
G01 Z0
G00 Z2.0000
G00 X-11.6720 Y45.3440
G01 Z-2.0000
G01 Z0
G00 Z2.0000
G00 X-11.6720 Y40.2640
G01 Z-2.0000
G01 Z0
G00 Z2.0000
G00 X-15.7360 Y35.1840
G01 Z-2.0000
G01 Z0
G00 Z2.0000
G00 X-18.7840 Y39.7560
G01 Z-2.0000
G01 Z0
G00 Z2.0000
G00 X-21.3240 Y36.7080
G01 Z-2.0000
G01 Z0
G00 Z2.0000
G00 X-29.9600 Y36.2000
G01 Z-2.0000
G01 Z0
G00 Z2.0000
G00 X-27.4200 Y38.7400
G01 Z-2.0000
G01 Z0
G00 Z2.0000
G01 F30.00

M5
G00 Z15.0000
T2
G00 X0.0000 Y0.0000                
M6
(MSG, Change to Tool Dia = 0.8000 ||| Total drills for tool T2 = 78)
M0
G00 Z15.0000

G01 F30.00
M03 S1200
G00 X-36.3100 Y41.7880
G01 Z-2.0000
G01 Z0
G00 Z2.0000
G00 X-36.3100 Y45.8520
G01 Z-2.0000
G01 Z0
G00 Z2.0000
G00 X-36.3100 Y49.9160
G01 Z-2.0000
G01 Z0
G00 Z2.0000
G00 X-36.3100 Y53.9800
G01 Z-2.0000
G01 Z0
G00 Z2.0000
G00 X-36.3100 Y58.0440
G01 Z-2.0000
G01 Z0
G00 Z2.0000
G00 X-28.6900 Y58.0440
G01 Z-2.0000
G01 Z0
G00 Z2.0000
G00 X-28.6900 Y53.9800
G01 Z-2.0000
G01 Z0
G00 Z2.0000
G00 X-25.8960 Y56.7740
G01 Z-2.0000
G01 Z0
G00 Z2.0000
G00 X-22.3400 Y58.0440
G01 Z-2.0000
G01 Z0
G00 Z2.0000
G00 X-22.3400 Y60.5840
G01 Z-2.0000
G01 Z0
G00 Z2.0000
G00 X-22.3400 Y63.1240
G01 Z-2.0000
G01 Z0
G00 Z2.0000
G00 X-19.8000 Y64.3940
G01 Z-2.0000
G01 Z0
G00 Z2.0000
G00 X-19.8000 Y61.8540
G01 Z-2.0000
G01 Z0
G00 Z2.0000
G00 X-7.6080 Y65.1560
G01 Z-2.0000
G01 Z0
G00 Z2.0000
G00 X-5.0680 Y65.1560
G01 Z-2.0000
G01 Z0
G00 Z2.0000
G00 X-2.5280 Y65.1560
G01 Z-2.0000
G01 Z0
G00 Z2.0000
G00 X0.0120 Y65.1560
G01 Z-2.0000
G01 Z0
G00 Z2.0000
G00 X2.5520 Y65.1560
G01 Z-2.0000
G01 Z0
G00 Z2.0000
G00 X5.0920 Y65.1560
G01 Z-2.0000
G01 Z0
G00 Z2.0000
G00 X7.6320 Y65.1560
G01 Z-2.0000
G01 Z0
G00 Z2.0000
G00 X7.6320 Y57.5360
G01 Z-2.0000
G01 Z0
G00 Z2.0000
G00 X5.0920 Y57.5360
G01 Z-2.0000
G01 Z0
G00 Z2.0000
G00 X2.5520 Y57.5360
G01 Z-2.0000
G01 Z0
G00 Z2.0000
G00 X0.0120 Y57.5360
G01 Z-2.0000
G01 Z0
G00 Z2.0000
G00 X-2.5280 Y57.5360
G01 Z-2.0000
G01 Z0
G00 Z2.0000
G00 X-5.0680 Y57.5360
G01 Z-2.0000
G01 Z0
G00 Z2.0000
G00 X-7.6080 Y57.5360
G01 Z-2.0000
G01 Z0
G00 Z2.0000
G00 X-13.1960 Y60.3300
G01 Z-2.0000
G01 Z0
G00 Z2.0000
G00 X-19.8000 Y59.3140
G01 Z-2.0000
G01 Z0
G00 Z2.0000
G00 X-19.8000 Y56.7740
G01 Z-2.0000
G01 Z0
G00 Z2.0000
G00 X-22.3400 Y55.5040
G01 Z-2.0000
G01 Z0
G00 Z2.0000
G00 X-22.3400 Y52.9640
G01 Z-2.0000
G01 Z0
G00 Z2.0000
G00 X-22.3400 Y50.4240
G01 Z-2.0000
G01 Z0
G00 Z2.0000
G00 X-22.3400 Y47.8840
G01 Z-2.0000
G01 Z0
G00 Z2.0000
G00 X-22.3400 Y45.3440
G01 Z-2.0000
G01 Z0
G00 Z2.0000
G00 X-22.3400 Y42.8040
G01 Z-2.0000
G01 Z0
G00 Z2.0000
G00 X-19.8000 Y44.0740
G01 Z-2.0000
G01 Z0
G00 Z2.0000
G00 X-16.2440 Y46.6140
G01 Z-2.0000
G01 Z0
G00 Z2.0000
G00 X-19.8000 Y46.6140
G01 Z-2.0000
G01 Z0
G00 Z2.0000
G00 X-19.8000 Y49.1540
G01 Z-2.0000
G01 Z0
G00 Z2.0000
G00 X-19.8000 Y51.6940
G01 Z-2.0000
G01 Z0
G00 Z2.0000
G00 X-19.8000 Y54.2340
G01 Z-2.0000
G01 Z0
G00 Z2.0000
G00 X-16.2440 Y54.2340
G01 Z-2.0000
G01 Z0
G00 Z2.0000
G00 X-13.1960 Y52.7100
G01 Z-2.0000
G01 Z0
G00 Z2.0000
G00 X-7.6080 Y46.8680
G01 Z-2.0000
G01 Z0
G00 Z2.0000
G00 X-5.0680 Y46.8680
G01 Z-2.0000
G01 Z0
G00 Z2.0000
G00 X-2.5280 Y46.8680
G01 Z-2.0000
G01 Z0
G00 Z2.0000
G00 X0.0120 Y46.8680
G01 Z-2.0000
G01 Z0
G00 Z2.0000
G00 X2.5520 Y46.8680
G01 Z-2.0000
G01 Z0
G00 Z2.0000
G00 X5.0920 Y46.8680
G01 Z-2.0000
G01 Z0
G00 Z2.0000
G00 X7.6320 Y46.8680
G01 Z-2.0000
G01 Z0
G00 Z2.0000
G00 X7.6320 Y39.2480
G01 Z-2.0000
G01 Z0
G00 Z2.0000
G00 X5.0920 Y39.2480
G01 Z-2.0000
G01 Z0
G00 Z2.0000
G00 X2.5520 Y39.2480
G01 Z-2.0000
G01 Z0
G00 Z2.0000
G00 X0.0120 Y39.2480
G01 Z-2.0000
G01 Z0
G00 Z2.0000
G00 X-2.5280 Y39.2480
G01 Z-2.0000
G01 Z0
G00 Z2.0000
G00 X-5.0680 Y39.2480
G01 Z-2.0000
G01 Z0
G00 Z2.0000
G00 X-7.6080 Y39.2480
G01 Z-2.0000
G01 Z0
G00 Z2.0000
G00 X-5.0680 Y29.5960
G01 Z-2.0000
G01 Z0
G00 Z2.0000
G00 X-2.5280 Y29.5960
G01 Z-2.0000
G01 Z0
G00 Z2.0000
G00 X0.0120 Y29.5960
G01 Z-2.0000
G01 Z0
G00 Z2.0000
G00 X2.5520 Y29.5960
G01 Z-2.0000
G01 Z0
G00 Z2.0000
G00 X5.0920 Y29.5960
G01 Z-2.0000
G01 Z0
G00 Z2.0000
G00 X7.6320 Y29.5960
G01 Z-2.0000
G01 Z0
G00 Z2.0000
G00 X7.6320 Y21.9760
G01 Z-2.0000
G01 Z0
G00 Z2.0000
G00 X5.0920 Y21.9760
G01 Z-2.0000
G01 Z0
G00 Z2.0000
G00 X2.5520 Y21.9760
G01 Z-2.0000
G01 Z0
G00 Z2.0000
G00 X0.0120 Y21.9760
G01 Z-2.0000
G01 Z0
G00 Z2.0000
G00 X-2.5280 Y21.9760
G01 Z-2.0000
G01 Z0
G00 Z2.0000
G00 X-5.0680 Y21.9760
G01 Z-2.0000
G01 Z0
G00 Z2.0000
G00 X-7.6080 Y21.9760
G01 Z-2.0000
G01 Z0
G00 Z2.0000
G00 X-7.6080 Y29.5960
G01 Z-2.0000
G01 Z0
G00 Z2.0000
G00 X-19.8000 Y41.5340
G01 Z-2.0000
G01 Z0
G00 Z2.0000
G00 X-22.3400 Y40.2640
G01 Z-2.0000
G01 Z0
G00 Z2.0000
G00 X-28.6900 Y41.7880
G01 Z-2.0000
G01 Z0
G00 Z2.0000
G00 X-28.6900 Y45.8520
G01 Z-2.0000
G01 Z0
G00 Z2.0000
G00 X-25.8960 Y49.1540
G01 Z-2.0000
G01 Z0
G00 Z2.0000
G00 X-28.6900 Y49.9160
G01 Z-2.0000
G01 Z0
G00 Z2.0000
G01 F30.00

M5
G00 Z15.0000
T3
G00 X0.0000 Y0.0000                
M6
(MSG, Change to Tool Dia = 0.9500 ||| Total drills for tool T3 = 4)
M0
G00 Z15.0000

G01 F30.00
M03 S1200
G00 X-35.0400 Y21.0800
G01 Z-2.0000
G01 Z0
G00 Z2.0000
G00 X-35.0400 Y23.5800
G01 Z-2.0000
G01 Z0
G00 Z2.0000
G00 X-35.0400 Y26.0800
G01 Z-2.0000
G01 Z0
G00 Z2.0000
G00 X-35.0400 Y28.5800
G01 Z-2.0000
G01 Z0
G00 Z2.0000
G01 F30.00

M5
G00 Z15.0000
T4
G00 X0.0000 Y0.0000                
M6
(MSG, Change to Tool Dia = 1.0000 ||| Total drills for tool T4 = 42)
M0
G00 Z15.0000

G01 F30.00
M03 S1200
G00 X-28.4360 Y18.9280
G01 Z-2.0000
G01 Z0
G00 Z2.0000
G00 X-25.8960 Y18.9280
G01 Z-2.0000
G01 Z0
G00 Z2.0000
G00 X-23.3560 Y18.9280
G01 Z-2.0000
G01 Z0
G00 Z2.0000
G00 X-20.8160 Y18.9280
G01 Z-2.0000
G01 Z0
G00 Z2.0000
G00 X-18.2760 Y18.9280
G01 Z-2.0000
G01 Z0
G00 Z2.0000
G00 X-15.7360 Y18.9280
G01 Z-2.0000
G01 Z0
G00 Z2.0000
G00 X15.9230 Y24.4620
G01 Z-2.0000
G01 Z0
G00 Z2.0000
G00 X15.9230 Y27.0020
G01 Z-2.0000
G01 Z0
G00 Z2.0000
G00 X31.1630 Y24.4620
G01 Z-2.0000
G01 Z0
G00 Z2.0000
G00 X31.1630 Y27.0020
G01 Z-2.0000
G01 Z0
G00 Z2.0000
G00 X31.1630 Y29.5420
G01 Z-2.0000
G01 Z0
G00 Z2.0000
G00 X31.1630 Y32.0820
G01 Z-2.0000
G01 Z0
G00 Z2.0000
G00 X31.1630 Y34.6220
G01 Z-2.0000
G01 Z0
G00 Z2.0000
G00 X31.1630 Y37.1620
G01 Z-2.0000
G01 Z0
G00 Z2.0000
G00 X31.1630 Y39.7020
G01 Z-2.0000
G01 Z0
G00 Z2.0000
G00 X31.1630 Y42.2420
G01 Z-2.0000
G01 Z0
G00 Z2.0000
G00 X31.1630 Y44.7820
G01 Z-2.0000
G01 Z0
G00 Z2.0000
G00 X31.1630 Y47.3220
G01 Z-2.0000
G01 Z0
G00 Z2.0000
G00 X31.1630 Y49.8620
G01 Z-2.0000
G01 Z0
G00 Z2.0000
G00 X31.1630 Y52.4020
G01 Z-2.0000
G01 Z0
G00 Z2.0000
G00 X31.1630 Y54.9420
G01 Z-2.0000
G01 Z0
G00 Z2.0000
G00 X31.1630 Y57.4820
G01 Z-2.0000
G01 Z0
G00 Z2.0000
G00 X31.1630 Y60.0220
G01 Z-2.0000
G01 Z0
G00 Z2.0000
G00 X15.9230 Y60.0220
G01 Z-2.0000
G01 Z0
G00 Z2.0000
G00 X15.9230 Y57.4820
G01 Z-2.0000
G01 Z0
G00 Z2.0000
G00 X15.9230 Y54.9420
G01 Z-2.0000
G01 Z0
G00 Z2.0000
G00 X15.9230 Y52.4020
G01 Z-2.0000
G01 Z0
G00 Z2.0000
G00 X15.9230 Y49.8620
G01 Z-2.0000
G01 Z0
G00 Z2.0000
G00 X15.9230 Y47.3220
G01 Z-2.0000
G01 Z0
G00 Z2.0000
G00 X15.9230 Y44.7820
G01 Z-2.0000
G01 Z0
G00 Z2.0000
G00 X15.9230 Y42.2420
G01 Z-2.0000
G01 Z0
G00 Z2.0000
G00 X15.9230 Y39.7020
G01 Z-2.0000
G01 Z0
G00 Z2.0000
G00 X15.9230 Y37.1620
G01 Z-2.0000
G01 Z0
G00 Z2.0000
G00 X15.9230 Y34.6220
G01 Z-2.0000
G01 Z0
G00 Z2.0000
G00 X15.9230 Y32.0820
G01 Z-2.0000
G01 Z0
G00 Z2.0000
G00 X15.9230 Y29.5420
G01 Z-2.0000
G01 Z0
G00 Z2.0000
G00 X-15.7360 Y29.0880
G01 Z-2.0000
G01 Z0
G00 Z2.0000
G00 X-18.2760 Y29.0880
G01 Z-2.0000
G01 Z0
G00 Z2.0000
G00 X-20.8160 Y29.0880
G01 Z-2.0000
G01 Z0
G00 Z2.0000
G00 X-23.3560 Y29.0880
G01 Z-2.0000
G01 Z0
G00 Z2.0000
G00 X-25.8960 Y29.0880
G01 Z-2.0000
G01 Z0
G00 Z2.0000
G00 X-28.4360 Y29.0880
G01 Z-2.0000
G01 Z0
G00 Z2.0000
M05
G00 Z0.50


